(.../pcb-gcode-3.6.2.4/pcb-gcode.ulp)
(Copyright 2005 - 2012 by John Johnson)
(See readme.txt for licensing terms.)
(This file generated from the board:)
(.../BATSENSE2/attiny_batsense2.brd)
(Current profile is .../pcb-gcode-3.6.2.4/profiles/generic.pp  )
(This file generated 23.03.2018 20:40)
(Settings from pcb-machine.h)
(spindle on time = 3.0000)
(spindle speed = 20000.0000)
(tool change at 0.0000 0.0000 25.4000 )
(feed rate xy = F0.00  )
(feed rate z  = F100.00 )
(Z Axis Settings)
(  High     Up        Down     Drill)
(12.7000 	2.5400 	-0.1778 	-3.0000 )
(Settings from pcb-defaults.h)
(isolate min = 0.0000)
(isolate max = 0.3810)
(isolate step = 0.1016)
(Generated bottom outlines, bottom drill, )
(Unit of measure: mm)
( Tool|       Size       |  Min Sub |  Max Sub |   Count )
( T04  2.800mm 0.1102in 0.0000in 0.0000in )
(Metric Mode)
G21
(Absolute Coordinates)
G90
S20000
G00 Z12.7000 
G00 X0.0000 Y0.0000 
M03
G04 P3.000000
G00 X-3.5400 Y3.1750 
G01 Z-3.0000 F100.00 
G00 Z2.5400 
G00 X-26.2000 Y7.4650 
G01 Z-3.0000 F100.00 
G00 Z2.5400 
G00 X-41.2000 Y7.4650 
G01 Z-3.0000 F100.00 
G00 Z2.5400 
G00 X-42.6800 Y3.1750 
G01 Z-3.0000 F100.00 
G00 Z2.5400 
G00 X-42.6800 Y33.6550 
G01 Z-3.0000 F100.00 
G00 Z2.5400 
G00 X-3.5400 Y33.6550 
G01 Z-3.0000 F100.00 
G00 Z2.5400 
G00 Z12.7000 
M05
M02
