(.../pcb-gcode-3.6.2.4/pcb-gcode.ulp)
(Copyright 2005 - 2012 by John Johnson)
(See readme.txt for licensing terms.)
(This file generated from the board:)
(.../BATSENSE2/attiny_batsense2.brd)
(Current profile is .../pcb-gcode-3.6.2.4/profiles/generic.pp  )
(This file generated 23.03.2018 20:40)
(Settings from pcb-machine.h)
(spindle on time = 3.0000)
(spindle speed = 20000.0000)
(tool change at 0.0000 0.0000 25.4000 )
(feed rate xy = F0.00  )
(feed rate z  = F100.00 )
(Z Axis Settings)
(  High     Up        Down     Drill)
(12.7000 	2.5400 	-0.1778 	-3.0000 )
(Settings from pcb-defaults.h)
(isolate min = 0.0000)
(isolate max = 0.3810)
(isolate step = 0.1016)
(Generated bottom outlines, bottom drill, )
(Unit of measure: mm)
( Tool|       Size       |  Min Sub |  Max Sub |   Count )
( T01  0.800mm 0.0315in 0.0000in 0.0000in )
(Metric Mode)
G21
(Absolute Coordinates)
G90
S20000
G00 Z12.7000 
G00 X0.0000 Y0.0000 
M03
G04 P3.000000
G00 X-2.5400 Y26.6700 
G01 Z-3.0000 F100.00 
G00 Z2.5400 
G00 X-7.6200 Y29.2100 
G01 Z-3.0000 F100.00 
G00 Z2.5400 
G00 X-20.3200 Y28.5750 
G01 Z-3.0000 F100.00 
G00 Z2.5400 
G00 X-32.3850 Y22.2250 
G01 Z-3.0000 F100.00 
G00 Z2.5400 
G00 X-36.1950 Y24.1300 
G01 Z-3.0000 F100.00 
G00 Z2.5400 
G00 X-38.7350 Y24.1300 
G01 Z-3.0000 F100.00 
G00 Z2.5400 
G00 X-38.1000 Y19.0500 
G01 Z-3.0000 F100.00 
G00 Z2.5400 
G00 X-29.8450 Y13.3350 
G01 Z-3.0000 F100.00 
G00 Z2.5400 
G00 X-8.8900 Y31.7500 
G01 Z-3.0000 F100.00 
G00 Z2.5400 
G00 X-11.4300 Y31.7500 
G01 Z-3.0000 F100.00 
G00 Z2.5400 
M05
M02
