(.../pcb-gcode-3.6.2.4/pcb-gcode.ulp)
(Copyright 2005 - 2012 by John Johnson)
(See readme.txt for licensing terms.)
(This file generated from the board:)
(.../BATSENSE2/attiny_batsense2.brd)
(Current profile is .../pcb-gcode-3.6.2.4/profiles/generic.pp  )
(This file generated 23.03.2018 20:40)
(Settings from pcb-machine.h)
(spindle on time = 3.0000)
(spindle speed = 20000.0000)
(tool change at 0.0000 0.0000 25.4000 )
(feed rate xy = F0.00  )
(feed rate z  = F100.00 )
(Z Axis Settings)
(  High     Up        Down     Drill)
(12.7000 	2.5400 	-0.1778 	-3.0000 )
(Settings from pcb-defaults.h)
(isolate min = 0.0000)
(isolate max = 0.3810)
(isolate step = 0.1016)
(Generated bottom outlines, bottom drill, )
(Unit of measure: mm)
( Tool|       Size       |  Min Sub |  Max Sub |   Count )
( T01  0.800mm 0.0315in 0.0000in 0.0000in )
( T02  0.813mm 0.0320in 0.0000in 0.0000in )
( T03  1.016mm 0.0400in 0.0000in 0.0000in )
( T04  2.800mm 0.1102in 0.0000in 0.0000in )
(Metric Mode)
G21
(Absolute Coordinates)
G90
S20000
G00 Z12.7000 
G00 X0.0000 Y0.0000 
M03
G04 P3.000000
M05
G00 Z25.4000 
M06 T01  ; 0.8000 
G01 Z0.0000 F100.00 
M06 
G00 Z2.5400 
M03
G04 P3.000000
G00 X-2.5400 Y26.6700 
G01 Z-3.0000 F100.00 
G00 Z2.5400 
G00 X-7.6200 Y29.2100 
G01 Z-3.0000 F100.00 
G00 Z2.5400 
G00 X-20.3200 Y28.5750 
G01 Z-3.0000 F100.00 
G00 Z2.5400 
G00 X-32.3850 Y22.2250 
G01 Z-3.0000 F100.00 
G00 Z2.5400 
G00 X-36.1950 Y24.1300 
G01 Z-3.0000 F100.00 
G00 Z2.5400 
G00 X-38.7350 Y24.1300 
G01 Z-3.0000 F100.00 
G00 Z2.5400 
G00 X-38.1000 Y19.0500 
G01 Z-3.0000 F100.00 
G00 Z2.5400 
G00 X-29.8450 Y13.3350 
G01 Z-3.0000 F100.00 
G00 Z2.5400 
M05
G00 Z25.4000 
G00 X0.0000 Y0.0000 
M06 T02  ; 0.8128 
G01 Z0.0000 F100.00 
M06 
G00 Z2.5400 
M03
G04 P3.000000
G00 X-8.8900 Y31.7500 
G01 Z-3.0000 F100.00 
G00 Z2.5400 
G00 X-11.4300 Y31.7500 
G01 Z-3.0000 F100.00 
G00 Z2.5400 
M05
G00 Z25.4000 
G00 X0.0000 Y0.0000 
M06 T03  ; 1.0160 
G01 Z0.0000 F100.00 
M06 
G00 Z2.5400 
M03
G04 P3.000000
G00 X-8.3498 Y25.1936 
G01 Z-3.0000 F100.00 
G00 Z2.5400 
G00 X-10.8898 Y25.1936 
G01 Z-3.0000 F100.00 
G00 Z2.5400 
G00 X-13.4298 Y25.1936 
G01 Z-3.0000 F100.00 
G00 Z2.5400 
G00 X-20.4724 Y32.7660 
G01 Z-3.0000 F100.00 
G00 Z2.5400 
G00 X-23.0124 Y32.7660 
G01 Z-3.0000 F100.00 
G00 Z2.5400 
G00 X-25.5524 Y32.7660 
G01 Z-3.0000 F100.00 
G00 Z2.5400 
G00 X-28.0924 Y32.7660 
G01 Z-3.0000 F100.00 
G00 Z2.5400 
G00 X-28.4668 Y27.1244 
G01 Z-3.0000 F100.00 
G00 Z2.5400 
G00 X-25.9268 Y27.1244 
G01 Z-3.0000 F100.00 
G00 Z2.5400 
G00 X-31.0068 Y27.1244 
G01 Z-3.0000 F100.00 
G00 Z2.5400 
G00 X-33.5468 Y27.1244 
G01 Z-3.0000 F100.00 
G00 Z2.5400 
G00 X-36.0868 Y27.1244 
G01 Z-3.0000 F100.00 
G00 Z2.5400 
G00 X-38.6268 Y27.1244 
G01 Z-3.0000 F100.00 
G00 Z2.5400 
G00 X-41.1688 Y22.0272 
G01 Z-3.0000 F100.00 
G00 Z2.5400 
G00 X-41.1688 Y19.4872 
G01 Z-3.0000 F100.00 
G00 Z2.5400 
G00 X-41.1688 Y16.9472 
G01 Z-3.0000 F100.00 
G00 Z2.5400 
G00 X-20.3200 Y4.4450 
G01 Z-3.0000 F100.00 
G00 Z2.5400 
G00 X-17.7800 Y4.4450 
G01 Z-3.0000 F100.00 
G00 Z2.5400 
M05
G00 Z25.4000 
G00 X0.0000 Y0.0000 
M06 T04  ; 2.8000 
G01 Z0.0000 F100.00 
M06 
G00 Z2.5400 
M03
G04 P3.000000
G00 X-3.5400 Y3.1750 
G01 Z-3.0000 F100.00 
G00 Z2.5400 
G00 X-26.2000 Y7.4650 
G01 Z-3.0000 F100.00 
G00 Z2.5400 
G00 X-41.2000 Y7.4650 
G01 Z-3.0000 F100.00 
G00 Z2.5400 
G00 X-42.6800 Y3.1750 
G01 Z-3.0000 F100.00 
G00 Z2.5400 
G00 X-42.6800 Y33.6550 
G01 Z-3.0000 F100.00 
G00 Z2.5400 
G00 X-3.5400 Y33.6550 
G01 Z-3.0000 F100.00 
G00 Z2.5400 
T01 
G00 Z12.7000 
M05
M02
