(.../pcb-gcode-3.6.2.4/pcb-gcode.ulp)
(Copyright 2005 - 2012 by John Johnson)
(See readme.txt for licensing terms.)
(This file generated from the board:)
(.../BATSENSE2/attiny_batsense2.brd)
(Current profile is .../pcb-gcode-3.6.2.4/profiles/generic.pp  )
(This file generated 23.03.2018 20:40)
(Settings from pcb-machine.h)
(spindle on time = 3.0000)
(  Tool Size)
(0.1778 )
(spindle speed = 30000.0000)
(tool change at 0.0000 0.0000 25.4000 )
(feed rate xy = F100.00 )
(feed rate z  = F100.00 )
(Z Axis Settings)
(  High     Up        Down     Drill)
(12.7000 	2.5400 	-0.1778 	-3.0000 )
(Settings from pcb-defaults.h)
(isolate min = 0.0000)
(isolate max = 0.3810)
(isolate step = 0.1016)
(Generated bottom outlines, bottom drill, )
(Unit of measure: mm)
(Metric Mode)
G21
(Absolute Coordinates)
G90
S30000
G00 Z12.7000 
G00 X0.0000 Y0.0000 
M03
G04 P3.000000
G00 Z2.5400 
G00 X-0.8718 Y0.8901 
G01 Z-0.1778 F100.00 
G01 X-0.8819 Y0.8819 F100.00 
G01 X-0.8901 Y0.8718 
G01 X-0.9137 Y0.8547 
G01 X-0.9225 Y0.8449 
G01 X-0.9488 Y0.8278 
G01 X-0.9731 Y0.8081 
G01 X-0.9851 Y0.8028 
G01 X-1.0085 Y0.7857 
G01 X-1.0208 Y0.7810 
G01 X-1.0319 Y0.7738 
G01 X-1.0752 Y0.7598 
G01 X-1.0788 Y0.7577 
G01 X-1.0881 Y0.7552 
G01 X-1.1302 Y0.7390 
G01 X-1.1386 Y0.7381 
G01 X-1.1582 Y0.7312 
G01 X-1.1647 Y0.7306 
G01 X-1.1710 Y0.7286 
G01 X-1.1911 Y0.7276 
G01 X-1.2048 Y0.7239 
G01 X-1.2506 Y0.7239 
G01 X-1.2962 Y0.7203 
G01 X-1.3155 Y0.7239 
G01 X-2.1443 Y0.7239 
G01 X-2.2649 Y0.7562 
G01 X-2.2702 Y0.7577 
G01 X-2.3832 Y0.8229 
G01 X-2.4754 Y0.9151 
G01 X-2.5406 Y1.0280 
G01 X-2.5744 Y1.1540 
G01 X-2.5744 Y1.2844 
G01 X-2.5420 Y1.4050 
G01 X-2.5406 Y1.4104 
G01 X-2.4754 Y1.5233 
G01 X-2.3832 Y1.6155 
G01 X-1.9117 Y2.0870 
G01 X-1.6892 Y2.6241 
G01 X-1.6807 Y2.6558 
G01 X-1.6644 Y2.6841 
G01 X-1.6518 Y2.7144 
G01 X-1.6319 Y2.7404 
G01 X-1.6155 Y2.7687 
G01 X-1.5924 Y2.7919 
G01 X-1.5724 Y2.8179 
G01 X-1.5465 Y2.8378 
G01 X-1.5233 Y2.8609 
G01 X-1.4950 Y2.8773 
G01 X-1.4690 Y2.8972 
G01 X-1.4387 Y2.9098 
G01 X-1.4104 Y2.9261 
G01 X-1.3787 Y2.9346 
G01 X-1.3485 Y2.9472 
G01 X-1.3160 Y2.9514 
G01 X-1.2844 Y2.9599 
G01 X-1.2517 Y2.9599 
G01 X-1.2192 Y2.9642 
G01 X-1.1867 Y2.9599 
G01 X-1.1540 Y2.9599 
G01 X-1.1224 Y2.9514 
G01 X-1.0899 Y2.9472 
G01 X-1.0596 Y2.9346 
G01 X-1.0280 Y2.9261 
G01 X-0.9997 Y2.9098 
G01 X-0.9694 Y2.8972 
G01 X-0.9434 Y2.8773 
G01 X-0.9151 Y2.8609 
G01 X-0.8919 Y2.8378 
G01 X-0.8659 Y2.8179 
G01 X-0.8460 Y2.7919 
G01 X-0.8229 Y2.7687 
G01 X-0.8065 Y2.7404 
G01 X-0.7866 Y2.7144 
G01 X-0.7740 Y2.6841 
G01 X-0.7577 Y2.6558 
G01 X-0.7492 Y2.6241 
G01 X-0.7366 Y2.5939 
G01 X-0.7324 Y2.5614 
G01 X-0.7239 Y2.5298 
G01 X-0.7239 Y2.4971 
G01 X-0.7196 Y2.4646 
G01 X-0.7239 Y2.4321 
G01 X-0.7239 Y1.3155 
G01 X-0.7203 Y1.2961 
G01 X-0.7239 Y1.2505 
G01 X-0.7239 Y1.2048 
G01 X-0.7276 Y1.1911 
G01 X-0.7286 Y1.1710 
G01 X-0.7307 Y1.1647 
G01 X-0.7312 Y1.1582 
G01 X-0.7381 Y1.1386 
G01 X-0.7390 Y1.1302 
G01 X-0.7552 Y1.0881 
G01 X-0.7577 Y1.0788 
G01 X-0.7598 Y1.0752 
G01 X-0.7738 Y1.0319 
G01 X-0.7810 Y1.0208 
G01 X-0.7857 Y1.0085 
G01 X-0.8028 Y0.9851 
G01 X-0.8081 Y0.9731 
G01 X-0.8278 Y0.9488 
G01 X-0.8449 Y0.9225 
G01 X-0.8547 Y0.9137 
G01 X-0.8718 Y0.8901 
G00 Z2.5400 
G00 X-0.9151 Y3.4891 
G01 Z-0.1778 F100.00 
G01 X-0.9434 Y3.4727 F100.00 
G01 X-0.9694 Y3.4527 
G01 X-0.9997 Y3.4402 
G01 X-1.0280 Y3.4238 
G01 X-1.0596 Y3.4154 
G01 X-1.0899 Y3.4028 
G01 X-1.1224 Y3.3986 
G01 X-1.1540 Y3.3901 
G01 X-1.1867 Y3.3901 
G01 X-1.2192 Y3.3858 
G01 X-1.2517 Y3.3901 
G01 X-1.2844 Y3.3901 
G01 X-1.3160 Y3.3986 
G01 X-1.3485 Y3.4028 
G01 X-1.3787 Y3.4154 
G01 X-1.4104 Y3.4238 
G01 X-1.4387 Y3.4402 
G01 X-1.4690 Y3.4527 
G01 X-1.4950 Y3.4727 
G01 X-1.5233 Y3.4891 
G01 X-1.5465 Y3.5122 
G01 X-1.5724 Y3.5321 
G01 X-1.5924 Y3.5581 
G01 X-1.6155 Y3.5813 
G01 X-1.6319 Y3.6096 
G01 X-1.6518 Y3.6356 
G01 X-1.6644 Y3.6658 
G01 X-1.6807 Y3.6942 
G01 X-1.6892 Y3.7259 
G01 X-1.9117 Y4.2630 
G01 X-2.4520 Y4.8033 
G01 X-3.1579 Y5.0957 
G01 X-3.9221 Y5.0957 
G01 X-4.6280 Y4.8033 
G01 X-5.1683 Y4.2630 
G01 X-5.4607 Y3.5570 
G01 X-5.4607 Y2.7929 
G01 X-5.1683 Y2.0870 
G01 X-4.6968 Y1.6155 
G01 X-4.6152 Y1.5339 
G01 X-4.6046 Y1.5233 
G01 X-4.5414 Y1.4138 
G01 X-4.5394 Y1.4104 
G01 X-4.5056 Y1.2844 
G01 X-4.5056 Y1.1540 
G01 X-4.5071 Y1.1486 
G01 X-4.5394 Y1.0280 
G01 X-4.6032 Y0.9176 
G01 X-4.6968 Y0.8229 
G01 X-4.8064 Y0.7596 
G01 X-4.8098 Y0.7577 
G01 X-4.9357 Y0.7239 
G01 X-29.2487 Y0.7239 
G01 X-29.2803 Y0.7196 
G01 X-29.3136 Y0.7239 
G01 X-29.3472 Y0.7239 
G01 X-29.3780 Y0.7321 
G01 X-29.4096 Y0.7362 
G01 X-29.4407 Y0.7490 
G01 X-29.4732 Y0.7577 
G01 X-29.5008 Y0.7736 
G01 X-29.5303 Y0.7857 
G01 X-29.5462 Y0.7978 
G01 X-29.5570 Y0.8060 
G01 X-29.5861 Y0.8229 
G01 X-29.6087 Y0.8454 
G01 X-29.6340 Y0.8647 
G01 X-29.6548 Y0.8915 
G01 X-29.6784 Y0.9151 
G01 X-29.6943 Y0.9427 
G01 X-29.7138 Y0.9679 
G01 X-29.7272 Y0.9997 
G01 X-29.7436 Y1.0280 
G01 X-29.7518 Y1.0588 
G01 X-29.7642 Y1.0885 
G01 X-29.7690 Y1.1230 
G01 X-29.7773 Y1.1540 
G01 X-29.7773 Y1.1852 
G01 X-29.7817 Y1.2177 
G01 X-29.7773 Y1.2530 
G01 X-29.7773 Y1.2844 
G01 X-29.7694 Y1.3140 
G01 X-29.7652 Y1.3471 
G01 X-29.7516 Y1.3805 
G01 X-29.7436 Y1.4104 
G01 X-29.7285 Y1.4365 
G01 X-29.7221 Y1.4521 
G01 X-29.7221 Y1.7234 
G01 X-29.7264 Y1.7559 
G01 X-29.7221 Y1.7883 
G01 X-29.7221 Y1.8211 
G01 X-29.7136 Y1.8527 
G01 X-29.7094 Y1.8852 
G01 X-29.6968 Y1.9154 
G01 X-29.6884 Y1.9471 
G01 X-29.6720 Y1.9754 
G01 X-29.6595 Y2.0057 
G01 X-29.6395 Y2.0316 
G01 X-29.6232 Y2.0600 
G01 X-29.6000 Y2.0832 
G01 X-29.5801 Y2.1091 
G01 X-29.5541 Y2.1290 
G01 X-29.5309 Y2.1522 
G01 X-29.5026 Y2.1686 
G01 X-29.4766 Y2.1885 
G01 X-29.4464 Y2.2010 
G01 X-29.4180 Y2.2174 
G01 X-29.3864 Y2.2259 
G01 X-29.3561 Y2.2384 
G01 X-29.3236 Y2.2427 
G01 X-29.2920 Y2.2512 
G01 X-29.2593 Y2.2512 
G01 X-29.2268 Y2.2554 
G01 X-29.1943 Y2.2512 
G01 X-29.1616 Y2.2512 
G01 X-29.1300 Y2.2427 
G01 X-29.0975 Y2.2384 
G01 X-29.0673 Y2.2259 
G01 X-29.0356 Y2.2174 
G01 X-29.0073 Y2.2010 
G01 X-28.8751 Y2.1463 
G01 X-28.6275 Y2.1463 
G01 X-28.5944 Y2.1600 
G01 X-28.4739 Y2.2100 
G01 X-28.3910 Y2.2209 
G01 X-28.3446 Y2.2270 
G01 X-28.3007 Y2.2212 
G01 X-28.2153 Y2.2100 
G01 X-28.0948 Y2.1600 
G01 X-28.0616 Y2.1463 
G01 X-27.0392 Y2.1463 
G01 X-27.0331 Y2.1504 
G01 X-26.9869 Y2.1660 
G01 X-26.9419 Y2.1846 
G01 X-26.9253 Y2.1868 
G01 X-26.9095 Y2.1922 
G01 X-26.8609 Y2.1953 
G01 X-26.8126 Y2.2017 
G01 X-26.7960 Y2.1995 
G01 X-26.7794 Y2.2006 
G01 X-26.7316 Y2.1910 
G01 X-26.6833 Y2.1846 
G01 X-26.6737 Y2.1807 
G01 X-26.6437 Y2.1767 
G01 X-26.6282 Y2.1703 
G01 X-26.6119 Y2.1671 
G01 X-26.5703 Y2.1465 
G01 X-26.5239 Y2.1495 
G01 X-26.5081 Y2.1463 
G01 X-26.4919 Y2.1463 
G01 X-26.4470 Y2.1343 
G01 X-26.4022 Y2.1463 
G01 X-26.3855 Y2.1463 
G01 X-26.3691 Y2.1495 
G01 X-26.3228 Y2.1464 
G01 X-26.2811 Y2.1670 
G01 X-26.2652 Y2.1701 
G01 X-26.2503 Y2.1763 
G01 X-26.2014 Y2.1827 
G01 X-26.1560 Y2.1917 
G01 X-26.1405 Y2.1981 
G01 X-26.1251 Y2.2002 
G01 X-26.1105 Y2.2052 
G01 X-26.0755 Y2.2076 
G01 X-26.0436 Y2.2139 
G01 X-26.0283 Y2.2129 
G01 X-26.0112 Y2.2152 
G01 X-25.9958 Y2.2131 
G01 X-25.9804 Y2.2142 
G01 X-25.9453 Y2.2074 
G01 X-25.9135 Y2.2053 
G01 X-25.8993 Y2.2004 
G01 X-25.8819 Y2.1981 
G01 X-25.8676 Y2.1922 
G01 X-25.8524 Y2.1893 
G01 X-25.8198 Y2.1734 
G01 X-25.7900 Y2.1632 
G01 X-25.7779 Y2.1551 
G01 X-25.7567 Y2.1463 
G01 X-25.3951 Y2.1463 
G01 X-25.2691 Y2.1125 
G01 X-25.2127 Y2.0800 
G01 X-24.9432 Y1.9683 
G01 X-23.9839 Y1.9683 
G01 X-23.7551 Y2.0631 
G01 X-23.5801 Y2.2381 
G01 X-23.4853 Y2.4669 
G01 X-23.4853 Y2.7144 
G01 X-23.5801 Y2.9432 
G01 X-23.7551 Y3.1182 
G01 X-23.9839 Y3.2129 
G01 X-24.2246 Y3.2129 
G01 X-24.3506 Y3.2467 
G01 X-24.4636 Y3.3119 
G01 X-24.5558 Y3.4041 
G01 X-24.6210 Y3.5171 
G01 X-24.6547 Y3.6430 
G01 X-24.6547 Y3.9601 
G01 X-24.7495 Y4.1888 
G01 X-24.9245 Y4.3639 
G01 X-25.1532 Y4.4586 
G01 X-25.4008 Y4.4586 
G01 X-25.4623 Y4.4331 
G01 X-25.5036 Y4.4160 
G01 X-25.5565 Y4.4091 
G01 X-25.6329 Y4.3990 
G01 X-25.7069 Y4.4087 
G01 X-25.7622 Y4.4160 
G01 X-25.8300 Y4.4441 
G01 X-25.8651 Y4.4586 
G01 X-26.1647 Y4.4586 
G01 X-26.2175 Y4.4516 
G01 X-26.2706 Y4.4586 
G01 X-26.5655 Y4.4586 
G01 X-26.5716 Y4.4545 
G01 X-26.6177 Y4.4389 
G01 X-26.6628 Y4.4203 
G01 X-26.6793 Y4.4181 
G01 X-26.6951 Y4.4127 
G01 X-26.7437 Y4.4096 
G01 X-26.7921 Y4.4032 
G01 X-26.8086 Y4.4054 
G01 X-26.8253 Y4.4043 
G01 X-26.8730 Y4.4139 
G01 X-26.9214 Y4.4203 
G01 X-26.9310 Y4.4242 
G01 X-26.9610 Y4.4282 
G01 X-26.9764 Y4.4346 
G01 X-26.9928 Y4.4378 
G01 X-27.0344 Y4.4584 
G01 X-27.0808 Y4.4554 
G01 X-27.0966 Y4.4586 
G01 X-27.1128 Y4.4586 
G01 X-27.1576 Y4.4706 
G01 X-27.2025 Y4.4586 
G01 X-27.2192 Y4.4586 
G01 X-27.2356 Y4.4554 
G01 X-27.2842 Y4.4586 
G01 X-28.1137 Y4.4586 
G01 X-28.1665 Y4.4516 
G01 X-28.2196 Y4.4586 
G01 X-29.2831 Y4.4586 
G01 X-29.3359 Y4.4516 
G01 X-29.3890 Y4.4586 
G01 X-30.4004 Y4.4586 
G01 X-30.4336 Y4.4449 
G01 X-30.4670 Y4.4310 
G01 X-30.5541 Y4.3950 
G01 X-30.6069 Y4.3880 
G01 X-30.6834 Y4.3779 
G01 X-30.7573 Y4.3877 
G01 X-30.8127 Y4.3950 
G01 X-30.8840 Y4.4245 
G01 X-30.9332 Y4.4449 
G01 X-30.9663 Y4.4586 
G01 X-31.2139 Y4.4586 
G01 X-31.3154 Y4.4166 
G01 X-31.3877 Y4.3866 
G01 X-31.4359 Y4.3666 
G01 X-31.4426 Y4.3639 
G01 X-31.4866 Y4.3199 
G01 X-31.5382 Y4.2682 
G01 X-31.5788 Y4.2277 
G01 X-31.6412 Y4.1653 
G01 X-31.7335 Y4.0730 
G01 X-31.7750 Y4.0315 
G01 X-31.8650 Y3.9415 
G01 X-31.9563 Y3.8882 
G01 X-31.9794 Y3.8749 
G01 X-32.0303 Y3.8612 
G01 X-32.1053 Y3.8411 
G01 X-32.2358 Y3.8411 
G01 X-32.3129 Y3.8618 
G01 X-32.3617 Y3.8749 
G01 X-32.4243 Y3.9110 
G01 X-32.4747 Y3.9401 
G01 X-32.5391 Y4.0045 
G01 X-32.5669 Y4.0323 
G01 X-32.6183 Y4.0837 
G01 X-32.6308 Y4.0920 
G01 X-32.6642 Y4.1296 
G01 X-32.6998 Y4.1653 
G01 X-32.8985 Y4.3639 
G01 X-33.0909 Y4.4436 
G01 X-33.1272 Y4.4586 
G01 X-33.3186 Y4.4586 
G01 X-33.4080 Y4.4586 
G01 X-33.4231 Y4.4586 
G01 X-33.4378 Y4.4556 
G01 X-33.4881 Y4.4586 
G01 X-33.9086 Y4.4586 
G01 X-34.1267 Y4.3683 
G01 X-34.2402 Y4.3212 
G01 X-34.3679 Y4.3044 
G01 X-34.4988 Y4.3212 
G01 X-34.6171 Y4.3702 
G01 X-34.8304 Y4.4586 
G01 X-35.1301 Y4.4586 
G01 X-35.1829 Y4.4516 
G01 X-35.2359 Y4.4586 
G01 X-37.0791 Y4.4586 
G01 X-37.1319 Y4.4516 
G01 X-37.1849 Y4.4586 
G01 X-37.4846 Y4.4586 
G01 X-37.5461 Y4.4331 
G01 X-37.5874 Y4.4160 
G01 X-37.6402 Y4.4091 
G01 X-37.7167 Y4.3990 
G01 X-37.7906 Y4.4087 
G01 X-37.8460 Y4.4160 
G01 X-37.9137 Y4.4441 
G01 X-37.9488 Y4.4586 
G01 X-38.1964 Y4.4586 
G01 X-38.2108 Y4.4526 
G01 X-38.2610 Y4.4318 
G01 X-38.3230 Y4.4237 
G01 X-38.3903 Y4.4148 
G01 X-38.4592 Y4.4238 
G01 X-38.5196 Y4.4318 
G01 X-38.5481 Y4.4436 
G01 X-38.5844 Y4.4586 
G01 X-38.8233 Y4.4586 
G01 X-38.8911 Y4.4586 
G01 X-38.8959 Y4.4586 
G01 X-38.9537 Y4.4586 
G01 X-39.1878 Y4.4586 
G01 X-39.2309 Y4.4407 
G01 X-39.2525 Y4.4318 
G01 X-39.3143 Y4.4237 
G01 X-39.3818 Y4.4148 
G01 X-39.4504 Y4.4238 
G01 X-39.5111 Y4.4318 
G01 X-39.5758 Y4.4586 
G01 X-39.8234 Y4.4586 
G01 X-39.8849 Y4.4331 
G01 X-39.9262 Y4.4160 
G01 X-39.9790 Y4.4091 
G01 X-40.0555 Y4.3990 
G01 X-40.1294 Y4.4087 
G01 X-40.1848 Y4.4160 
G01 X-40.2525 Y4.4441 
G01 X-40.2876 Y4.4586 
G01 X-40.5352 Y4.4586 
G01 X-40.7030 Y4.3891 
G01 X-40.7313 Y4.3727 
G01 X-40.7630 Y4.3643 
G01 X-40.7932 Y4.3517 
G01 X-40.8257 Y4.3475 
G01 X-40.8573 Y4.3390 
G01 X-40.8901 Y4.3390 
G01 X-40.9225 Y4.3347 
G01 X-40.9550 Y4.3390 
G01 X-40.9877 Y4.3390 
G01 X-41.0193 Y4.3474 
G01 X-41.0518 Y4.3517 
G01 X-41.0821 Y4.3643 
G01 X-41.1137 Y4.3727 
G01 X-41.1421 Y4.3891 
G01 X-41.1723 Y4.4016 
G01 X-41.1983 Y4.4216 
G01 X-41.2266 Y4.4379 
G01 X-41.2498 Y4.4611 
G01 X-41.2758 Y4.4810 
G01 X-41.2957 Y4.5070 
G01 X-41.4414 Y4.6527 
G01 X-41.5312 Y4.7425 
G01 X-41.5988 Y4.8578 
G01 X-41.6231 Y4.9486 
G01 X-41.6326 Y4.9838 
G01 X-41.6326 Y5.1142 
G01 X-41.5988 Y5.2402 
G01 X-41.5336 Y5.3531 
G01 X-41.4428 Y5.4439 
G01 X-41.3284 Y5.5105 
G01 X-41.2377 Y5.5349 
G01 X-41.2025 Y5.5443 
G01 X-40.8179 Y5.5443 
G01 X-40.1120 Y5.8367 
G01 X-39.5717 Y6.3770 
G01 X-39.2793 Y7.0829 
G01 X-39.2793 Y7.8470 
G01 X-39.5717 Y8.5530 
G01 X-40.1120 Y9.0933 
G01 X-40.8179 Y9.3857 
G01 X-41.5821 Y9.3857 
G01 X-42.2880 Y9.0933 
G01 X-42.8283 Y8.5530 
G01 X-43.1207 Y7.8471 
G01 X-43.1207 Y7.0829 
G01 X-42.8283 Y6.3770 
G01 X-42.4386 Y5.9873 
G01 X-42.3557 Y5.9044 
G01 X-42.3464 Y5.8951 
G01 X-42.2831 Y5.7856 
G01 X-42.2812 Y5.7822 
G01 X-42.2474 Y5.6562 
G01 X-42.2474 Y5.5258 
G01 X-42.2489 Y5.5204 
G01 X-42.2812 Y5.3998 
G01 X-42.3450 Y5.2894 
G01 X-42.4386 Y5.1947 
G01 X-42.5482 Y5.1314 
G01 X-42.5516 Y5.1295 
G01 X-42.6775 Y5.0957 
G01 X-43.0620 Y5.0957 
G01 X-43.7680 Y4.8033 
G01 X-44.1045 Y4.4668 
G01 X-44.1882 Y4.3831 
G01 X-44.1967 Y4.3746 
G01 X-44.3062 Y4.3114 
G01 X-44.3096 Y4.3094 
G01 X-44.4356 Y4.2756 
G01 X-44.5660 Y4.2756 
G01 X-44.5714 Y4.2771 
G01 X-44.6920 Y4.3094 
G01 X-44.8024 Y4.3732 
G01 X-44.8971 Y4.4668 
G01 X-44.9604 Y4.5764 
G01 X-44.9623 Y4.5798 
G01 X-44.9961 Y4.7057 
G01 X-44.9961 Y15.8844 
G01 X-44.9693 Y15.9843 
G01 X-44.9623 Y16.0104 
G01 X-44.9154 Y16.0917 
G01 X-44.8971 Y16.1233 
G01 X-44.8063 Y16.2141 
G01 X-44.7453 Y16.2500 
G01 X-44.6920 Y16.2808 
G01 X-44.6687 Y16.2870 
G01 X-44.5660 Y16.3145 
G01 X-44.4356 Y16.3145 
G01 X-44.3358 Y16.2878 
G01 X-44.3096 Y16.2808 
G01 X-44.2284 Y16.2339 
G01 X-44.1967 Y16.2156 
G01 X-44.1423 Y16.1612 
G01 X-43.8016 Y16.0201 
G01 X-42.9577 Y16.0201 
G01 X-42.8317 Y15.9863 
G01 X-42.7187 Y15.9211 
G01 X-42.6574 Y15.8598 
G01 X-42.1859 Y15.6645 
G01 X-40.1517 Y15.6645 
G01 X-39.7419 Y15.8342 
G01 X-39.7136 Y15.8506 
G01 X-39.6819 Y15.8591 
G01 X-39.6517 Y15.8716 
G01 X-39.6192 Y15.8759 
G01 X-39.5876 Y15.8843 
G01 X-39.5549 Y15.8843 
G01 X-39.5224 Y15.8886 
G01 X-39.4899 Y15.8843 
G01 X-39.4572 Y15.8843 
G01 X-39.4256 Y15.8759 
G01 X-39.3931 Y15.8716 
G01 X-39.3628 Y15.8591 
G01 X-39.3312 Y15.8506 
G01 X-39.3029 Y15.8342 
G01 X-39.2726 Y15.8217 
G01 X-39.2466 Y15.8017 
G01 X-39.2183 Y15.7854 
G01 X-39.1951 Y15.7622 
G01 X-39.1691 Y15.7423 
G01 X-39.1492 Y15.7163 
G01 X-39.1261 Y15.6932 
G01 X-39.1097 Y15.6648 
G01 X-39.0898 Y15.6388 
G01 X-39.0772 Y15.6086 
G01 X-39.0609 Y15.5802 
G01 X-39.0524 Y15.5486 
G01 X-39.0398 Y15.5183 
G01 X-39.0356 Y15.4859 
G01 X-39.0271 Y15.4542 
G01 X-39.0271 Y15.4215 
G01 X-39.0228 Y15.3890 
G01 X-39.0271 Y15.3566 
G01 X-39.0271 Y11.2456 
G01 X-38.8860 Y10.9048 
G01 X-36.3695 Y8.3884 
G01 X-36.0852 Y8.1040 
G01 X-35.7444 Y7.9629 
G01 X-30.2956 Y7.9629 
G01 X-29.9548 Y8.1040 
G01 X-27.6549 Y10.4039 
G01 X-27.5420 Y10.4691 
G01 X-27.4160 Y10.5029 
G01 X-21.7460 Y10.5029 
G01 X-21.7135 Y10.5072 
G01 X-21.6811 Y10.5029 
G01 X-21.6483 Y10.5029 
G01 X-21.6167 Y10.4944 
G01 X-21.5842 Y10.4901 
G01 X-21.5540 Y10.4776 
G01 X-21.5224 Y10.4691 
G01 X-21.4940 Y10.4528 
G01 X-21.4637 Y10.4402 
G01 X-21.4378 Y10.4203 
G01 X-21.4094 Y10.4039 
G01 X-21.3863 Y10.3808 
G01 X-21.3603 Y10.3608 
G01 X-21.3404 Y10.3349 
G01 X-21.3172 Y10.3117 
G01 X-21.3008 Y10.2834 
G01 X-21.2809 Y10.2574 
G01 X-21.2684 Y10.2271 
G01 X-21.2520 Y10.1988 
G01 X-21.2435 Y10.1671 
G01 X-21.2310 Y10.1369 
G01 X-21.2267 Y10.1044 
G01 X-21.2182 Y10.0728 
G01 X-21.2182 Y10.0401 
G01 X-21.2140 Y10.0076 
G01 X-21.2182 Y9.9751 
G01 X-21.2182 Y9.9424 
G01 X-21.2267 Y9.9108 
G01 X-21.2310 Y9.8783 
G01 X-21.2435 Y9.8480 
G01 X-21.2471 Y9.8347 
G01 X-21.2471 Y6.2339 
G01 X-21.2809 Y6.1079 
G01 X-21.3461 Y5.9949 
G01 X-21.4074 Y5.9336 
G01 X-21.6027 Y5.4621 
G01 X-21.6027 Y3.4278 
G01 X-21.4074 Y2.9564 
G01 X-21.0466 Y2.5956 
G01 X-20.5751 Y2.4003 
G01 X-20.0649 Y2.4003 
G01 X-19.5934 Y2.5956 
G01 X-19.2167 Y2.9722 
G01 X-19.2007 Y3.0000 
G01 X-19.1776 Y3.0231 
G01 X-19.1577 Y3.0490 
G01 X-19.1317 Y3.0690 
G01 X-19.1085 Y3.0922 
G01 X-19.0802 Y3.1085 
G01 X-19.0542 Y3.1284 
G01 X-19.0240 Y3.1410 
G01 X-18.9956 Y3.1574 
G01 X-18.9640 Y3.1658 
G01 X-18.9337 Y3.1784 
G01 X-18.9013 Y3.1827 
G01 X-18.8696 Y3.1911 
G01 X-18.8369 Y3.1911 
G01 X-18.8045 Y3.1954 
G01 X-18.7720 Y3.1911 
G01 X-18.7392 Y3.1911 
G01 X-18.7076 Y3.1827 
G01 X-18.6751 Y3.1784 
G01 X-18.6449 Y3.1659 
G01 X-18.6132 Y3.1574 
G01 X-18.5849 Y3.1410 
G01 X-18.5547 Y3.1285 
G01 X-18.5287 Y3.1085 
G01 X-18.5003 Y3.0922 
G01 X-18.4772 Y3.0690 
G01 X-18.4512 Y3.0491 
G01 X-18.4312 Y3.0231 
G01 X-18.3840 Y2.9758 
G01 X-18.2753 Y2.8969 
G01 X-18.2753 Y2.9906 
G01 X-18.3224 Y3.0221 
G01 X-18.4409 Y3.1406 
G01 X-18.5341 Y3.2799 
G01 X-18.5982 Y3.4348 
G01 X-18.6309 Y3.5992 
G01 X-18.6309 Y5.2908 
G01 X-18.5982 Y5.4552 
G01 X-18.5341 Y5.6101 
G01 X-18.4409 Y5.7494 
G01 X-18.3224 Y5.8679 
G01 X-18.2753 Y5.8994 
G01 X-18.2753 Y5.9931 
G01 X-18.3840 Y5.9142 
G01 X-18.4312 Y5.8669 
G01 X-18.4512 Y5.8409 
G01 X-18.4772 Y5.8210 
G01 X-18.5003 Y5.7978 
G01 X-18.5287 Y5.7814 
G01 X-18.5547 Y5.7615 
G01 X-18.5849 Y5.7490 
G01 X-18.6132 Y5.7326 
G01 X-18.6449 Y5.7241 
G01 X-18.6751 Y5.7116 
G01 X-18.7076 Y5.7073 
G01 X-18.7392 Y5.6989 
G01 X-18.7720 Y5.6989 
G01 X-18.8045 Y5.6946 
G01 X-18.8369 Y5.6989 
G01 X-18.8696 Y5.6989 
G01 X-18.9013 Y5.7073 
G01 X-18.9337 Y5.7116 
G01 X-18.9640 Y5.7241 
G01 X-18.9956 Y5.7326 
G01 X-19.0240 Y5.7490 
G01 X-19.0542 Y5.7615 
G01 X-19.0802 Y5.7815 
G01 X-19.1085 Y5.7978 
G01 X-19.1317 Y5.8210 
G01 X-19.1577 Y5.8409 
G01 X-19.1776 Y5.8669 
G01 X-19.2007 Y5.8900 
G01 X-19.2167 Y5.9177 
G01 X-19.2939 Y5.9949 
G01 X-19.3591 Y6.1079 
G01 X-19.3929 Y6.2339 
G01 X-19.3929 Y9.1292 
G01 X-19.3591 Y9.2552 
G01 X-19.2939 Y9.3681 
G01 X-19.2017 Y9.4603 
G01 X-19.0888 Y9.5255 
G01 X-18.9628 Y9.5593 
G01 X-17.6414 Y9.5593 
G01 X-17.4500 Y9.6386 
G01 X-17.2729 Y9.8157 
G01 X-17.2568 Y9.8398 
G01 X-17.2445 Y9.8506 
G01 X-17.2346 Y9.8635 
G01 X-17.1957 Y9.8934 
G01 X-17.1918 Y9.8968 
G01 X-17.1878 Y9.9008 
G01 X-17.1587 Y9.9258 
G01 X-17.1441 Y9.9330 
G01 X-17.1312 Y9.9429 
G01 X-17.0858 Y9.9618 
G01 X-17.0418 Y9.9835 
G01 X-17.0258 Y9.9866 
G01 X-17.0107 Y9.9929 
G01 X-16.9620 Y9.9993 
G01 X-16.9139 Y10.0089 
G01 X-16.8976 Y10.0078 
G01 X-16.8814 Y10.0100 
G01 X-16.8327 Y10.0036 
G01 X-16.7837 Y10.0004 
G01 X-16.7683 Y9.9951 
G01 X-16.7521 Y9.9930 
G01 X-16.7067 Y9.9742 
G01 X-16.6602 Y9.9584 
G01 X-16.6467 Y9.9494 
G01 X-16.6316 Y9.9431 
G01 X-16.6147 Y9.9301 
G01 X-16.5931 Y9.9212 
G01 X-16.5613 Y9.9149 
G01 X-16.2403 Y9.9149 
G01 X-16.2403 Y9.9911 
G01 X-16.5627 Y9.9911 
G01 X-16.5954 Y10.0046 
G01 X-16.6204 Y10.0296 
G01 X-16.6339 Y10.0623 
G01 X-16.6339 Y12.7977 
G01 X-16.6204 Y12.8304 
G01 X-16.5954 Y12.8554 
G01 X-16.5627 Y12.8689 
G01 X-16.2403 Y12.8689 
G01 X-16.2403 Y12.9451 
G01 X-16.5613 Y12.9451 
G01 X-16.5931 Y12.9388 
G01 X-16.6147 Y12.9298 
G01 X-16.6316 Y12.9168 
G01 X-16.6467 Y12.9106 
G01 X-16.6602 Y12.9016 
G01 X-16.7067 Y12.8858 
G01 X-16.7521 Y12.8670 
G01 X-16.7683 Y12.8649 
G01 X-16.7837 Y12.8596 
G01 X-16.8327 Y12.8564 
G01 X-16.8814 Y12.8500 
G01 X-16.8976 Y12.8522 
G01 X-16.9139 Y12.8511 
G01 X-16.9620 Y12.8607 
G01 X-17.0107 Y12.8671 
G01 X-17.0258 Y12.8733 
G01 X-17.0418 Y12.8765 
G01 X-17.0858 Y12.8982 
G01 X-17.1312 Y12.9171 
G01 X-17.1441 Y12.9270 
G01 X-17.1587 Y12.9342 
G01 X-17.1861 Y12.9582 
G01 X-17.1918 Y12.9632 
G01 X-17.1957 Y12.9666 
G01 X-17.2346 Y12.9965 
G01 X-17.2445 Y13.0094 
G01 X-17.2568 Y13.0202 
G01 X-17.2729 Y13.0443 
G01 X-17.4500 Y13.2214 
G01 X-17.6414 Y13.3007 
G01 X-19.4486 Y13.3007 
G01 X-19.6399 Y13.2214 
G01 X-19.7864 Y13.0749 
G01 X-19.8657 Y12.8836 
G01 X-19.8657 Y12.7872 
G01 X-19.8995 Y12.6612 
G01 X-19.9647 Y12.5483 
G01 X-20.0569 Y12.4561 
G01 X-20.1698 Y12.3909 
G01 X-20.2958 Y12.3571 
G01 X-28.1244 Y12.3571 
G01 X-28.4652 Y12.2160 
G01 X-28.8417 Y11.8394 
G01 X-30.7651 Y9.9161 
G01 X-30.8780 Y9.8508 
G01 X-31.0040 Y9.8171 
G01 X-35.0360 Y9.8171 
G01 X-35.1050 Y9.8356 
G01 X-35.1620 Y9.8508 
G01 X-35.1947 Y9.8698 
G01 X-35.2749 Y9.9161 
G01 X-35.2784 Y9.9195 
G01 X-35.4021 Y10.0433 
G01 X-35.4909 Y10.1321 
G01 X-35.4944 Y10.1355 
G01 X-35.5487 Y10.2295 
G01 X-35.5596 Y10.2484 
G01 X-35.5748 Y10.3054 
G01 X-35.5933 Y10.3744 
G01 X-35.5933 Y10.5048 
G01 X-35.5756 Y10.5709 
G01 X-35.5596 Y10.6308 
G01 X-35.5435 Y10.6585 
G01 X-35.4944 Y10.7437 
G01 X-35.4203 Y10.8178 
G01 X-35.4203 Y11.0111 
G01 X-35.6927 Y11.0111 
G01 X-35.7254 Y11.0246 
G01 X-35.7504 Y11.0496 
G01 X-35.7639 Y11.0823 
G01 X-35.7639 Y11.2547 
G01 X-36.0762 Y11.2547 
G01 X-36.1442 Y11.2154 
G01 X-36.2702 Y11.1817 
G01 X-36.4006 Y11.1817 
G01 X-36.5212 Y11.2140 
G01 X-36.5266 Y11.2154 
G01 X-36.6395 Y11.2806 
G01 X-36.7317 Y11.3728 
G01 X-37.0739 Y11.7151 
G01 X-37.1391 Y11.8280 
G01 X-37.1715 Y11.9486 
G01 X-37.1729 Y11.9540 
G01 X-37.1729 Y12.7331 
G01 X-37.1772 Y12.7656 
G01 X-37.1729 Y12.7980 
G01 X-37.1729 Y12.8308 
G01 X-37.1644 Y12.8624 
G01 X-37.1601 Y12.8949 
G01 X-37.1476 Y12.9251 
G01 X-37.1391 Y12.9567 
G01 X-37.1228 Y12.9851 
G01 X-37.1102 Y13.0154 
G01 X-37.0903 Y13.0413 
G01 X-37.0739 Y13.0697 
G01 X-37.0508 Y13.0928 
G01 X-37.0308 Y13.1188 
G01 X-37.0049 Y13.1387 
G01 X-36.9817 Y13.1619 
G01 X-36.9534 Y13.1783 
G01 X-36.9274 Y13.1982 
G01 X-36.8971 Y13.2107 
G01 X-36.8688 Y13.2271 
G01 X-36.8371 Y13.2356 
G01 X-36.8069 Y13.2481 
G01 X-36.7744 Y13.2524 
G01 X-36.7428 Y13.2609 
G01 X-36.7101 Y13.2609 
G01 X-36.6776 Y13.2651 
G01 X-36.6451 Y13.2609 
G01 X-36.6124 Y13.2609 
G01 X-36.5808 Y13.2524 
G01 X-36.5483 Y13.2481 
G01 X-36.5181 Y13.2356 
G01 X-36.4864 Y13.2271 
G01 X-36.4581 Y13.2107 
G01 X-36.4278 Y13.1982 
G01 X-36.4018 Y13.1783 
G01 X-36.3735 Y13.1619 
G01 X-36.3503 Y13.1387 
G01 X-36.3243 Y13.1188 
G01 X-36.3044 Y13.0928 
G01 X-36.2813 Y13.0697 
G01 X-36.2649 Y13.0413 
G01 X-36.2450 Y13.0153 
G01 X-36.2324 Y12.9851 
G01 X-36.2161 Y12.9567 
G01 X-36.2076 Y12.9251 
G01 X-36.1164 Y12.7050 
G01 X-35.9391 Y12.5277 
G01 X-35.8738 Y12.4147 
G01 X-35.8401 Y12.2888 
G01 X-35.8401 Y12.2453 
G01 X-35.7639 Y12.2453 
G01 X-35.7639 Y12.4177 
G01 X-35.7504 Y12.4504 
G01 X-35.7254 Y12.4754 
G01 X-35.6927 Y12.4889 
G01 X-34.1573 Y12.4889 
G01 X-34.1246 Y12.4754 
G01 X-34.0996 Y12.4504 
G01 X-34.0861 Y12.4177 
G01 X-34.0861 Y12.2453 
G01 X-34.0099 Y12.2453 
G01 X-34.0099 Y12.2888 
G01 X-33.9761 Y12.4147 
G01 X-33.9109 Y12.5277 
G01 X-33.8187 Y12.6199 
G01 X-33.7336 Y12.7050 
G01 X-33.6543 Y12.8964 
G01 X-33.6543 Y14.4036 
G01 X-33.7336 Y14.5950 
G01 X-33.8067 Y14.6681 
G01 X-33.8989 Y14.7603 
G01 X-33.9641 Y14.8733 
G01 X-33.9943 Y14.9856 
G01 X-33.9979 Y14.9992 
G01 X-33.9979 Y15.1528 
G01 X-33.9641 Y15.2788 
G01 X-33.8989 Y15.3917 
G01 X-33.8067 Y15.4839 
G01 X-33.6938 Y15.5491 
G01 X-33.5678 Y15.5829 
G01 X-30.2956 Y15.5829 
G01 X-29.9548 Y15.7240 
G01 X-29.5783 Y16.1006 
G01 X-27.6808 Y17.9980 
G01 X-27.5397 Y18.3388 
G01 X-27.5397 Y25.0308 
G01 X-27.5186 Y25.1095 
G01 X-27.5059 Y25.1567 
G01 X-27.4967 Y25.1728 
G01 X-27.4407 Y25.2697 
G01 X-27.3485 Y25.3619 
G01 X-27.2356 Y25.4271 
G01 X-27.1785 Y25.4424 
G01 X-27.1096 Y25.4608 
G01 X-26.9792 Y25.4608 
G01 X-26.9005 Y25.4397 
G01 X-26.8532 Y25.4271 
G01 X-26.8372 Y25.4178 
G01 X-26.7403 Y25.3619 
G01 X-26.6553 Y25.2769 
G01 X-26.6312 Y25.2704 
G01 X-26.6029 Y25.2540 
G01 X-26.5726 Y25.2415 
G01 X-26.5466 Y25.2216 
G01 X-26.5183 Y25.2052 
G01 X-26.4951 Y25.1821 
G01 X-26.4691 Y25.1621 
G01 X-26.4492 Y25.1362 
G01 X-26.4261 Y25.1130 
G01 X-26.4097 Y25.0846 
G01 X-26.3898 Y25.0587 
G01 X-26.3772 Y25.0284 
G01 X-26.3608 Y25.0001 
G01 X-26.3524 Y24.9684 
G01 X-26.3398 Y24.9382 
G01 X-26.3356 Y24.9057 
G01 X-26.3271 Y24.8741 
G01 X-26.3271 Y24.8413 
G01 X-26.3228 Y24.8089 
G01 X-26.3271 Y24.7764 
G01 X-26.3271 Y23.9456 
G01 X-26.1860 Y23.6048 
G01 X-25.8094 Y23.2283 
G01 X-24.6552 Y22.0740 
G01 X-24.3144 Y21.9329 
G01 X-21.9842 Y21.9329 
G01 X-21.9321 Y21.9189 
G01 X-21.8583 Y21.8991 
G01 X-21.7453 Y21.8339 
G01 X-21.6531 Y21.7417 
G01 X-21.5800 Y21.6686 
G01 X-21.3886 Y21.5893 
G01 X-19.8814 Y21.5893 
G01 X-19.8569 Y21.5994 
G01 X-19.8143 Y21.6171 
G01 X-19.7496 Y21.6256 
G01 X-19.6850 Y21.6341 
G01 X-19.6218 Y21.6258 
G01 X-19.5557 Y21.6171 
G01 X-19.5052 Y21.5962 
G01 X-19.4886 Y21.5893 
G01 X-17.9814 Y21.5893 
G01 X-17.7900 Y21.6686 
G01 X-17.7169 Y21.7417 
G01 X-17.6269 Y21.8317 
G01 X-17.5117 Y21.8991 
G01 X-17.4401 Y21.9183 
G01 X-17.3858 Y21.9329 
G01 X-17.0340 Y21.9329 
G01 X-16.9080 Y21.8991 
G01 X-16.7951 Y21.8339 
G01 X-16.7028 Y21.7417 
G01 X-16.0495 Y21.0884 
G01 X-15.7652 Y20.8040 
G01 X-15.4244 Y20.6629 
G01 X-12.2822 Y20.6629 
G01 X-12.1562 Y20.6291 
G01 X-12.0433 Y20.5639 
G01 X-11.9511 Y20.4717 
G01 X-11.8858 Y20.3588 
G01 X-11.8521 Y20.2328 
G01 X-11.8521 Y19.2442 
G01 X-11.8608 Y19.2119 
G01 X-11.8858 Y19.1183 
G01 X-11.9511 Y19.0053 
G01 X-12.0433 Y18.9131 
G01 X-12.1664 Y18.7900 
G01 X-12.2457 Y18.5986 
G01 X-12.2457 Y15.6914 
G01 X-12.1664 Y15.5000 
G01 X-12.0199 Y15.3536 
G01 X-11.8286 Y15.2743 
G01 X-10.0214 Y15.2743 
G01 X-9.8300 Y15.3536 
G01 X-9.6529 Y15.5307 
G01 X-9.6368 Y15.5548 
G01 X-9.6245 Y15.5656 
G01 X-9.6146 Y15.5785 
G01 X-9.5757 Y15.6084 
G01 X-9.5718 Y15.6118 
G01 X-9.5678 Y15.6158 
G01 X-9.5387 Y15.6408 
G01 X-9.5241 Y15.6480 
G01 X-9.5112 Y15.6579 
G01 X-9.4658 Y15.6768 
G01 X-9.4218 Y15.6985 
G01 X-9.4058 Y15.7017 
G01 X-9.3907 Y15.7079 
G01 X-9.3420 Y15.7143 
G01 X-9.2939 Y15.7239 
G01 X-9.2776 Y15.7228 
G01 X-9.2614 Y15.7250 
G01 X-9.2127 Y15.7186 
G01 X-9.1637 Y15.7154 
G01 X-9.1483 Y15.7101 
G01 X-9.1321 Y15.7080 
G01 X-9.0867 Y15.6892 
G01 X-9.0402 Y15.6734 
G01 X-9.0267 Y15.6644 
G01 X-9.0116 Y15.6581 
G01 X-8.9947 Y15.6451 
G01 X-8.9731 Y15.6362 
G01 X-8.9413 Y15.6299 
G01 X-8.6203 Y15.6299 
G01 X-8.6203 Y15.7061 
G01 X-8.9427 Y15.7061 
G01 X-8.9754 Y15.7196 
G01 X-9.0004 Y15.7446 
G01 X-9.0139 Y15.7773 
G01 X-9.0139 Y18.5127 
G01 X-9.0004 Y18.5454 
G01 X-8.9754 Y18.5704 
G01 X-8.9427 Y18.5839 
G01 X-8.6203 Y18.5839 
G01 X-8.6203 Y18.6601 
G01 X-8.9413 Y18.6601 
G01 X-8.9731 Y18.6538 
G01 X-8.9947 Y18.6448 
G01 X-9.0116 Y18.6318 
G01 X-9.0267 Y18.6256 
G01 X-9.0402 Y18.6166 
G01 X-9.0867 Y18.6008 
G01 X-9.1321 Y18.5820 
G01 X-9.1483 Y18.5799 
G01 X-9.1637 Y18.5746 
G01 X-9.2127 Y18.5714 
G01 X-9.2614 Y18.5650 
G01 X-9.2776 Y18.5672 
G01 X-9.2939 Y18.5661 
G01 X-9.3420 Y18.5757 
G01 X-9.3907 Y18.5821 
G01 X-9.4058 Y18.5883 
G01 X-9.4218 Y18.5915 
G01 X-9.4658 Y18.6132 
G01 X-9.5112 Y18.6321 
G01 X-9.5241 Y18.6420 
G01 X-9.5387 Y18.6492 
G01 X-9.5662 Y18.6732 
G01 X-9.5718 Y18.6781 
G01 X-9.5757 Y18.6816 
G01 X-9.6146 Y18.7115 
G01 X-9.6245 Y18.7244 
G01 X-9.6368 Y18.7352 
G01 X-9.6529 Y18.7593 
G01 X-9.8067 Y18.9131 
G01 X-9.8964 Y19.0027 
G01 X-9.8989 Y19.0053 
G01 X-9.9641 Y19.1183 
G01 X-9.9885 Y19.2090 
G01 X-9.9979 Y19.2442 
G01 X-9.9979 Y20.2328 
G01 X-9.9641 Y20.3588 
G01 X-9.8989 Y20.4717 
G01 X-9.8067 Y20.5639 
G01 X-9.6938 Y20.6291 
G01 X-9.5678 Y20.6629 
G01 X-6.1656 Y20.6629 
G01 X-5.8248 Y20.8040 
G01 X-4.2940 Y22.3348 
G01 X-4.1529 Y22.6756 
G01 X-4.1529 Y31.3042 
G01 X-4.1191 Y31.4302 
G01 X-4.0539 Y31.5431 
G01 X-3.9617 Y31.6353 
G01 X-3.8488 Y31.7005 
G01 X-3.7228 Y31.7343 
G01 X-3.1579 Y31.7343 
G01 X-2.4520 Y32.0267 
G01 X-1.9117 Y32.5670 
G01 X-1.6892 Y33.1041 
G01 X-1.6807 Y33.1358 
G01 X-1.6644 Y33.1641 
G01 X-1.6518 Y33.1944 
G01 X-1.6319 Y33.2204 
G01 X-1.6155 Y33.2487 
G01 X-1.5924 Y33.2719 
G01 X-1.5724 Y33.2979 
G01 X-1.5465 Y33.3178 
G01 X-1.5233 Y33.3409 
G01 X-1.4950 Y33.3573 
G01 X-1.4690 Y33.3772 
G01 X-1.4387 Y33.3898 
G01 X-1.4104 Y33.4061 
G01 X-1.3787 Y33.4146 
G01 X-1.3485 Y33.4271 
G01 X-1.3160 Y33.4314 
G01 X-1.2844 Y33.4399 
G01 X-1.2517 Y33.4399 
G01 X-1.2192 Y33.4442 
G01 X-1.1867 Y33.4399 
G01 X-1.1540 Y33.4399 
G01 X-1.1224 Y33.4314 
G01 X-1.0899 Y33.4272 
G01 X-1.0596 Y33.4146 
G01 X-1.0280 Y33.4061 
G01 X-0.9997 Y33.3898 
G01 X-0.9694 Y33.3772 
G01 X-0.9434 Y33.3573 
G01 X-0.9151 Y33.3409 
G01 X-0.8919 Y33.3178 
G01 X-0.8659 Y33.2979 
G01 X-0.8460 Y33.2719 
G01 X-0.8229 Y33.2487 
G01 X-0.8065 Y33.2204 
G01 X-0.7866 Y33.1944 
G01 X-0.7740 Y33.1641 
G01 X-0.7577 Y33.1358 
G01 X-0.7492 Y33.1041 
G01 X-0.7366 Y33.0739 
G01 X-0.7324 Y33.0414 
G01 X-0.7239 Y33.0098 
G01 X-0.7239 Y32.9771 
G01 X-0.7196 Y32.9446 
G01 X-0.7239 Y32.9121 
G01 X-0.7239 Y3.9179 
G01 X-0.7196 Y3.8854 
G01 X-0.7239 Y3.8529 
G01 X-0.7239 Y3.8202 
G01 X-0.7324 Y3.7886 
G01 X-0.7366 Y3.7561 
G01 X-0.7492 Y3.7258 
G01 X-0.7577 Y3.6942 
G01 X-0.7740 Y3.6659 
G01 X-0.7866 Y3.6356 
G01 X-0.8065 Y3.6096 
G01 X-0.8229 Y3.5813 
G01 X-0.8460 Y3.5581 
G01 X-0.8659 Y3.5321 
G01 X-0.8919 Y3.5122 
G01 X-0.9151 Y3.4891 
G00 Z2.5400 
G00 X-2.3041 Y6.6860 
G01 Z-0.1778 F100.00 
G01 X-2.0132 Y6.9769 F100.00 
G01 X-1.9511 Y7.0390 
G01 X-1.8563 Y7.2678 
G01 X-1.8563 Y8.1807 
G01 X-1.8563 Y8.2271 
G01 X-1.8657 Y8.2499 
G01 X-1.8940 Y8.3181 
G01 X-1.9511 Y8.4559 
G01 X-2.0132 Y8.5180 
G01 X-2.1033 Y8.6081 
G01 X-2.3041 Y8.8089 
G01 X-2.4897 Y8.8857 
G01 X-2.5328 Y8.9036 
G01 X-2.7669 Y8.9036 
G01 X-2.8266 Y8.9036 
G01 X-2.8973 Y8.9036 
G01 X-3.1362 Y8.9036 
G01 X-3.1725 Y8.8886 
G01 X-3.1808 Y8.8851 
G01 X-3.2899 Y8.8400 
G01 X-3.4036 Y8.8250 
G01 X-3.4192 Y8.8229 
G01 X-3.4377 Y8.8254 
G01 X-3.5485 Y8.8400 
G01 X-3.6558 Y8.8844 
G01 X-3.6591 Y8.8857 
G01 X-3.7022 Y8.9036 
G01 X-3.8887 Y8.9036 
G01 X-3.9831 Y8.9036 
G01 X-3.9981 Y8.9036 
G01 X-4.0129 Y8.9006 
G01 X-4.0631 Y8.9036 
G01 X-4.4836 Y8.9036 
G01 X-4.5168 Y8.8899 
G01 X-4.6373 Y8.8400 
G01 X-4.7202 Y8.8290 
G01 X-4.7666 Y8.8229 
G01 X-4.8104 Y8.8287 
G01 X-4.8959 Y8.8400 
G01 X-5.0164 Y8.8899 
G01 X-5.0495 Y8.9036 
G01 X-5.2971 Y8.9036 
G01 X-5.3830 Y8.8680 
G01 X-5.4668 Y8.8333 
G01 X-5.5035 Y8.8181 
G01 X-5.5124 Y8.8144 
G01 X-5.5397 Y8.8031 
G01 X-5.6194 Y8.7926 
G01 X-5.6690 Y8.7861 
G01 X-5.7215 Y8.7930 
G01 X-5.7983 Y8.8031 
G01 X-5.8297 Y8.8161 
G01 X-5.9979 Y8.8857 
G01 X-6.0410 Y8.9036 
G01 X-6.2275 Y8.9036 
G01 X-6.3219 Y8.9036 
G01 X-6.3369 Y8.9036 
G01 X-6.3516 Y8.9006 
G01 X-6.4019 Y8.9036 
G01 X-6.8224 Y8.9036 
G01 X-6.8871 Y8.8768 
G01 X-6.9487 Y8.8687 
G01 X-7.0163 Y8.8598 
G01 X-7.0849 Y8.8688 
G01 X-7.1456 Y8.8768 
G01 X-7.1673 Y8.8857 
G01 X-7.2104 Y8.9036 
G01 X-7.4445 Y8.9036 
G01 X-7.5042 Y8.9036 
G01 X-7.5749 Y8.9036 
G01 X-7.8138 Y8.9036 
G01 X-7.8501 Y8.8886 
G01 X-7.8584 Y8.8851 
G01 X-7.9675 Y8.8400 
G01 X-8.0968 Y8.8229 
G01 X-8.2261 Y8.8400 
G01 X-8.3308 Y8.8833 
G01 X-8.3435 Y8.8886 
G01 X-8.3798 Y8.9036 
G01 X-8.6187 Y8.9036 
G01 X-8.6866 Y8.9036 
G01 X-8.6913 Y8.9036 
G01 X-8.7491 Y8.9036 
G01 X-8.9832 Y8.9036 
G01 X-9.0264 Y8.8857 
G01 X-9.1369 Y8.8400 
G01 X-9.2374 Y8.8267 
G01 X-9.2662 Y8.8229 
G01 X-9.2976 Y8.8271 
G01 X-9.3955 Y8.8400 
G01 X-9.5028 Y8.8844 
G01 X-9.5060 Y8.8857 
G01 X-9.5492 Y8.9036 
G01 X-9.7833 Y8.9036 
G01 X-9.8404 Y8.9036 
G01 X-9.8455 Y8.9036 
G01 X-9.9137 Y8.9036 
G01 X-10.1526 Y8.9036 
G01 X-10.1889 Y8.8886 
G01 X-10.2756 Y8.8527 
G01 X-10.3063 Y8.8400 
G01 X-10.3777 Y8.8306 
G01 X-10.4356 Y8.8229 
G01 X-10.5649 Y8.8400 
G01 X-10.6823 Y8.8886 
G01 X-10.7186 Y8.9036 
G01 X-11.3220 Y8.9036 
G01 X-11.3651 Y8.8857 
G01 X-11.4757 Y8.8400 
G01 X-11.5762 Y8.8267 
G01 X-11.6050 Y8.8229 
G01 X-11.6364 Y8.8271 
G01 X-11.7343 Y8.8400 
G01 X-11.8416 Y8.8844 
G01 X-11.8448 Y8.8857 
G01 X-11.8880 Y8.9036 
G01 X-12.1221 Y8.9036 
G01 X-12.1792 Y8.9036 
G01 X-12.1843 Y8.9036 
G01 X-12.2524 Y8.9036 
G01 X-12.4914 Y8.9036 
G01 X-12.5277 Y8.8886 
G01 X-12.5561 Y8.8768 
G01 X-12.6181 Y8.8687 
G01 X-12.6854 Y8.8598 
G01 X-12.7543 Y8.8689 
G01 X-12.8147 Y8.8768 
G01 X-12.8659 Y8.8980 
G01 X-12.8794 Y8.9036 
G01 X-13.1222 Y8.9036 
G01 X-13.1284 Y8.8995 
G01 X-13.1745 Y8.8839 
G01 X-13.2195 Y8.8653 
G01 X-13.2361 Y8.8631 
G01 X-13.2519 Y8.8577 
G01 X-13.3005 Y8.8546 
G01 X-13.3489 Y8.8482 
G01 X-13.3654 Y8.8504 
G01 X-13.3820 Y8.8493 
G01 X-13.4298 Y8.8589 
G01 X-13.4781 Y8.8653 
G01 X-13.4877 Y8.8692 
G01 X-13.5178 Y8.8732 
G01 X-13.5332 Y8.8796 
G01 X-13.5495 Y8.8828 
G01 X-13.5912 Y8.9034 
G01 X-13.6375 Y8.9004 
G01 X-13.6534 Y8.9036 
G01 X-13.6695 Y8.9036 
G01 X-13.7144 Y8.9156 
G01 X-13.7593 Y8.9036 
G01 X-13.7760 Y8.9036 
G01 X-13.7923 Y8.9004 
G01 X-13.8391 Y8.9035 
G01 X-13.9034 Y8.8768 
G01 X-13.9651 Y8.8687 
G01 X-14.0327 Y8.8598 
G01 X-14.1013 Y8.8688 
G01 X-14.1620 Y8.8768 
G01 X-14.1836 Y8.8857 
G01 X-14.2268 Y8.9036 
G01 X-14.4133 Y8.9036 
G01 X-14.5076 Y8.9036 
G01 X-14.5227 Y8.9036 
G01 X-14.5374 Y8.9006 
G01 X-14.5877 Y8.9036 
G01 X-15.0082 Y8.9036 
G01 X-15.2369 Y8.8089 
G01 X-15.4120 Y8.6338 
G01 X-15.5067 Y8.4051 
G01 X-15.5067 Y7.0898 
G01 X-15.4120 Y6.8611 
G01 X-15.2369 Y6.6860 
G01 X-15.0082 Y6.5913 
G01 X-14.7606 Y6.5913 
G01 X-14.5426 Y6.6816 
G01 X-14.4290 Y6.7287 
G01 X-14.3014 Y6.7455 
G01 X-14.1704 Y6.7287 
G01 X-14.0521 Y6.6797 
G01 X-13.8388 Y6.5913 
G01 X-13.5959 Y6.5913 
G01 X-13.5898 Y6.5954 
G01 X-13.5437 Y6.6110 
G01 X-13.4986 Y6.6296 
G01 X-13.4821 Y6.6318 
G01 X-13.4663 Y6.6372 
G01 X-13.4177 Y6.6403 
G01 X-13.3693 Y6.6467 
G01 X-13.3528 Y6.6445 
G01 X-13.3361 Y6.6456 
G01 X-13.2884 Y6.6360 
G01 X-13.2400 Y6.6296 
G01 X-13.2305 Y6.6257 
G01 X-13.2004 Y6.6217 
G01 X-13.1850 Y6.6153 
G01 X-13.1687 Y6.6121 
G01 X-13.1270 Y6.5915 
G01 X-13.0807 Y6.5945 
G01 X-13.0648 Y6.5913 
G01 X-13.0487 Y6.5913 
G01 X-13.0038 Y6.5793 
G01 X-12.9589 Y6.5913 
G01 X-12.9422 Y6.5913 
G01 X-12.9259 Y6.5945 
G01 X-12.8791 Y6.5914 
G01 X-12.8147 Y6.6181 
G01 X-12.7168 Y6.6310 
G01 X-12.6854 Y6.6351 
G01 X-12.6566 Y6.6313 
G01 X-12.5561 Y6.6181 
G01 X-12.4914 Y6.5913 
G01 X-11.8880 Y6.5913 
G01 X-11.8548 Y6.6050 
G01 X-11.7675 Y6.6412 
G01 X-11.7343 Y6.6549 
G01 X-11.6664 Y6.6639 
G01 X-11.6050 Y6.6720 
G01 X-11.5461 Y6.6642 
G01 X-11.4757 Y6.6550 
G01 X-11.4457 Y6.6425 
G01 X-11.3552 Y6.6050 
G01 X-11.3220 Y6.5913 
G01 X-10.7186 Y6.5913 
G01 X-10.6854 Y6.6050 
G01 X-10.5981 Y6.6412 
G01 X-10.5649 Y6.6549 
G01 X-10.4970 Y6.6639 
G01 X-10.4356 Y6.6720 
G01 X-10.3767 Y6.6642 
G01 X-10.3063 Y6.6550 
G01 X-10.2763 Y6.6425 
G01 X-10.1858 Y6.6050 
G01 X-10.1526 Y6.5913 
G01 X-9.5492 Y6.5913 
G01 X-9.4845 Y6.6181 
G01 X-9.3865 Y6.6310 
G01 X-9.3552 Y6.6351 
G01 X-9.3264 Y6.6313 
G01 X-9.2259 Y6.6181 
G01 X-9.1612 Y6.5913 
G01 X-8.2018 Y6.5913 
G01 X-8.1371 Y6.6181 
G01 X-8.0392 Y6.6310 
G01 X-8.0078 Y6.6351 
G01 X-7.9790 Y6.6313 
G01 X-7.8785 Y6.6181 
G01 X-7.8138 Y6.5913 
G01 X-7.2104 Y6.5913 
G01 X-7.1457 Y6.6181 
G01 X-7.0477 Y6.6310 
G01 X-7.0164 Y6.6351 
G01 X-6.9876 Y6.6313 
G01 X-6.8871 Y6.6181 
G01 X-6.8224 Y6.5913 
G01 X-6.5748 Y6.5913 
G01 X-6.5422 Y6.6048 
G01 X-6.4720 Y6.6339 
G01 X-6.4192 Y6.6408 
G01 X-6.3427 Y6.6509 
G01 X-6.2688 Y6.6412 
G01 X-6.2134 Y6.6339 
G01 X-6.1736 Y6.6174 
G01 X-6.1106 Y6.5913 
G01 X-5.8110 Y6.5913 
G01 X-5.7582 Y6.5983 
G01 X-5.7051 Y6.5913 
G01 X-4.6416 Y6.5913 
G01 X-4.5888 Y6.5983 
G01 X-4.5357 Y6.5913 
G01 X-3.7022 Y6.5913 
G01 X-3.6690 Y6.6050 
G01 X-3.5817 Y6.6412 
G01 X-3.5485 Y6.6549 
G01 X-3.4807 Y6.6639 
G01 X-3.4192 Y6.6720 
G01 X-3.3603 Y6.6642 
G01 X-3.2899 Y6.6550 
G01 X-3.2599 Y6.6425 
G01 X-3.1694 Y6.6050 
G01 X-3.1363 Y6.5913 
G01 X-2.5328 Y6.5913 
G01 X-2.3041 Y6.6860 
G00 Z2.5400 
G00 X-2.3171 Y7.2836 
G01 Z-0.1778 F100.00 
G01 X-2.4951 Y7.1057 F100.00 
G01 X-2.5487 Y7.0521 
G01 X-2.6187 Y7.0231 
G01 X-3.0504 Y7.0231 
G01 X-3.1204 Y7.0521 
G01 X-3.2983 Y7.2301 
G01 X-3.3519 Y7.2836 
G01 X-3.3686 Y7.3238 
G01 X-3.3809 Y7.3537 
G01 X-3.3809 Y7.4294 
G01 X-3.3809 Y8.0655 
G01 X-3.3809 Y8.1412 
G01 X-3.3519 Y8.2113 
G01 X-3.1740 Y8.3892 
G01 X-3.1204 Y8.4428 
G01 X-3.0785 Y8.4601 
G01 X-3.0504 Y8.4718 
G01 X-2.6187 Y8.4718 
G01 X-2.5889 Y8.4595 
G01 X-2.5487 Y8.4428 
G01 X-2.5451 Y8.4392 
G01 X-2.4951 Y8.3892 
G01 X-2.3350 Y8.2291 
G01 X-2.3171 Y8.2113 
G01 X-2.3015 Y8.1736 
G01 X-2.2881 Y8.1413 
G01 X-2.2881 Y7.3537 
G01 X-2.3171 Y7.2836 
G00 Z2.5400 
G00 X-2.6691 Y7.4705 
G01 Z-0.1778 F100.00 
G01 X-2.6691 Y7.6435 F100.00 
G01 X-2.9085 Y7.4041 
G01 X-2.7355 Y7.4041 
G01 X-2.6691 Y7.4705 
G00 Z2.5400 
G00 X-2.9999 Y7.8514 
G01 Z-0.1778 F100.00 
G01 X-2.7606 Y8.0908 F100.00 
G01 X-2.9336 Y8.0908 
G01 X-2.9999 Y8.0245 
G01 X-2.9999 Y7.8514 
G00 Z2.5400 
G00 X-3.4575 Y7.8875 
G01 Z-0.1778 F100.00 
G01 X-3.4865 Y7.8175 F100.00 
G01 X-3.5401 Y7.7639 
G01 X-3.5566 Y7.7475 
G01 X-3.4901 Y7.6810 
G01 X-3.4865 Y7.6774 
G01 X-3.4575 Y7.6074 
G01 X-3.4575 Y7.3537 
G01 X-3.4865 Y7.2836 
G01 X-3.6645 Y7.1057 
G01 X-3.7181 Y7.0521 
G01 X-3.7881 Y7.0231 
G01 X-4.3219 Y7.0231 
G01 X-4.3977 Y7.0231 
G01 X-4.4677 Y7.0521 
G01 X-4.5213 Y7.1057 
G01 X-4.5503 Y7.1757 
G01 X-4.5503 Y8.3192 
G01 X-4.5213 Y8.3892 
G01 X-4.4677 Y8.4428 
G01 X-4.3977 Y8.4718 
G01 X-3.7881 Y8.4718 
G01 X-3.7582 Y8.4595 
G01 X-3.7181 Y8.4428 
G01 X-3.7145 Y8.4392 
G01 X-3.6645 Y8.3892 
G01 X-3.4901 Y8.2148 
G01 X-3.4865 Y8.2113 
G01 X-3.4575 Y8.1412 
G01 X-3.4575 Y7.8875 
G00 Z2.5400 
G00 X-3.8385 Y8.0043 
G01 Z-0.1778 F100.00 
G01 X-3.8385 Y8.0245 F100.00 
G01 X-3.9049 Y8.0908 
G01 X-4.1693 Y8.0908 
G01 X-4.1693 Y7.9380 
G01 X-3.9049 Y7.9380 
G01 X-3.8385 Y8.0043 
G00 Z2.5400 
G00 X-3.8385 Y7.4906 
G01 Z-0.1778 F100.00 
G01 X-3.9049 Y7.5570 F100.00 
G01 X-4.1693 Y7.5570 
G01 X-4.1693 Y7.4041 
G01 X-3.9049 Y7.4041 
G01 X-3.8385 Y7.4705 
G01 X-3.8385 Y7.4906 
G00 Z2.5400 
G00 X-4.7095 Y7.3751 
G01 Z-0.1778 F100.00 
G01 X-4.6559 Y7.3215 F100.00 
G01 X-4.6269 Y7.2515 
G01 X-4.6269 Y7.1757 
G01 X-4.6559 Y7.1057 
G01 X-4.7095 Y7.0521 
G01 X-4.7795 Y7.0231 
G01 X-5.5671 Y7.0231 
G01 X-5.6371 Y7.0521 
G01 X-5.6907 Y7.1057 
G01 X-5.7197 Y7.1757 
G01 X-5.7197 Y7.2515 
G01 X-5.6907 Y7.3215 
G01 X-5.6371 Y7.3751 
G01 X-5.5671 Y7.4041 
G01 X-5.3638 Y7.4041 
G01 X-5.3638 Y7.8214 
G01 X-5.4213 Y7.7639 
G01 X-5.4913 Y7.7349 
G01 X-5.5671 Y7.7349 
G01 X-5.6371 Y7.7639 
G01 X-5.6907 Y7.8175 
G01 X-5.7197 Y7.8875 
G01 X-5.7197 Y7.9633 
G01 X-5.6907 Y8.0333 
G01 X-5.3348 Y8.3892 
G01 X-5.2812 Y8.4428 
G01 X-5.2394 Y8.4601 
G01 X-5.2112 Y8.4718 
G01 X-5.1354 Y8.4718 
G01 X-5.0654 Y8.4428 
G01 X-5.0118 Y8.3892 
G01 X-4.9945 Y8.3474 
G01 X-4.9828 Y8.3192 
G01 X-4.9828 Y7.4041 
G01 X-4.7795 Y7.4041 
G01 X-4.7095 Y7.3751 
G00 Z2.5400 
G00 X-5.8253 Y7.3215 
G01 Z-0.1778 F100.00 
G01 X-5.7963 Y7.2515 F100.00 
G01 X-5.7963 Y7.1757 
G01 X-5.8253 Y7.1057 
G01 X-5.8789 Y7.0521 
G01 X-5.9489 Y7.0231 
G01 X-6.0247 Y7.0231 
G01 X-6.0947 Y7.0521 
G01 X-6.4216 Y7.3790 
G01 X-6.5081 Y7.3790 
G01 X-6.5081 Y7.1757 
G01 X-6.5371 Y7.1057 
G01 X-6.5907 Y7.0521 
G01 X-6.6607 Y7.0231 
G01 X-6.7365 Y7.0231 
G01 X-6.8065 Y7.0521 
G01 X-6.8601 Y7.1057 
G01 X-6.8891 Y7.1757 
G01 X-6.8891 Y8.3192 
G01 X-6.8601 Y8.3892 
G01 X-6.8065 Y8.4428 
G01 X-6.7365 Y8.4718 
G01 X-6.1269 Y8.4718 
G01 X-6.0970 Y8.4595 
G01 X-6.0569 Y8.4428 
G01 X-6.0533 Y8.4392 
G01 X-6.0033 Y8.3892 
G01 X-5.8289 Y8.2148 
G01 X-5.8253 Y8.2113 
G01 X-5.7963 Y8.1412 
G01 X-5.7963 Y7.7096 
G01 X-5.8253 Y7.6395 
G01 X-5.9843 Y7.4805 
G01 X-5.8253 Y7.3215 
G00 Z2.5400 
G00 X-6.1773 Y7.8264 
G01 Z-0.1778 F100.00 
G01 X-6.1773 Y8.0245 F100.00 
G01 X-6.2437 Y8.0908 
G01 X-6.5081 Y8.0908 
G01 X-6.5081 Y7.7600 
G01 X-6.2437 Y7.7600 
G01 X-6.1773 Y7.8264 
G00 Z2.5400 
G00 X-6.9947 Y7.8175 
G01 Z-0.1778 F100.00 
G01 X-7.0648 Y7.7475 F100.00 
G01 X-6.9983 Y7.6810 
G01 X-6.9947 Y7.6774 
G01 X-6.9657 Y7.6074 
G01 X-6.9657 Y7.3537 
G01 X-6.9947 Y7.2836 
G01 X-7.1727 Y7.1057 
G01 X-7.2263 Y7.0521 
G01 X-7.2963 Y7.0231 
G01 X-7.7280 Y7.0231 
G01 X-7.7980 Y7.0521 
G01 X-8.0295 Y7.2836 
G01 X-8.0585 Y7.3537 
G01 X-8.0585 Y7.4294 
G01 X-8.0295 Y7.4995 
G01 X-7.9759 Y7.5530 
G01 X-7.9059 Y7.5820 
G01 X-7.8301 Y7.5820 
G01 X-7.7601 Y7.5530 
G01 X-7.6112 Y7.4041 
G01 X-7.4131 Y7.4041 
G01 X-7.3467 Y7.4705 
G01 X-7.3467 Y7.4906 
G01 X-7.4131 Y7.5570 
G01 X-7.5500 Y7.5570 
G01 X-7.6200 Y7.5860 
G01 X-7.6736 Y7.6395 
G01 X-7.7026 Y7.7096 
G01 X-7.7026 Y7.7853 
G01 X-7.6736 Y7.8554 
G01 X-7.6200 Y7.9090 
G01 X-7.5500 Y7.9380 
G01 X-7.4131 Y7.9380 
G01 X-7.3467 Y8.0043 
G01 X-7.3467 Y8.0245 
G01 X-7.4131 Y8.0908 
G01 X-7.6112 Y8.0908 
G01 X-7.7601 Y7.9419 
G01 X-7.8301 Y7.9129 
G01 X-7.9059 Y7.9129 
G01 X-7.9759 Y7.9419 
G01 X-8.0295 Y7.9954 
G01 X-8.0585 Y8.0655 
G01 X-8.0585 Y8.1412 
G01 X-8.0295 Y8.2113 
G01 X-7.8516 Y8.3892 
G01 X-7.7980 Y8.4428 
G01 X-7.7561 Y8.4601 
G01 X-7.7280 Y8.4718 
G01 X-7.2963 Y8.4718 
G01 X-7.2664 Y8.4595 
G01 X-7.2263 Y8.4428 
G01 X-7.2227 Y8.4392 
G01 X-7.1727 Y8.3892 
G01 X-6.9983 Y8.2148 
G01 X-6.9947 Y8.2113 
G01 X-6.9657 Y8.1412 
G01 X-6.9657 Y7.8875 
G01 X-6.9947 Y7.8175 
G00 Z2.5400 
G00 X-8.1641 Y7.8175 
G01 Z-0.1778 F100.00 
G01 X-8.2177 Y7.7639 F100.00 
G01 X-8.5775 Y7.4041 
G01 X-8.2877 Y7.4041 
G01 X-8.2177 Y7.3751 
G01 X-8.1641 Y7.3215 
G01 X-8.1351 Y7.2515 
G01 X-8.1351 Y7.1757 
G01 X-8.1641 Y7.1057 
G01 X-8.2177 Y7.0521 
G01 X-8.2877 Y7.0231 
G01 X-9.0753 Y7.0231 
G01 X-9.1453 Y7.0521 
G01 X-9.1989 Y7.1057 
G01 X-9.2279 Y7.1757 
G01 X-9.2279 Y7.2515 
G01 X-9.1989 Y7.3215 
G01 X-8.5161 Y8.0043 
G01 X-8.5161 Y8.0245 
G01 X-8.5825 Y8.0908 
G01 X-8.7806 Y8.0908 
G01 X-8.9295 Y7.9419 
G01 X-8.9995 Y7.9129 
G01 X-9.0753 Y7.9129 
G01 X-9.1453 Y7.9419 
G01 X-9.1989 Y7.9954 
G01 X-9.2279 Y8.0655 
G01 X-9.2279 Y8.1412 
G01 X-9.1989 Y8.2113 
G01 X-9.0210 Y8.3892 
G01 X-8.9709 Y8.4392 
G01 X-8.9674 Y8.4428 
G01 X-8.9272 Y8.4595 
G01 X-8.8974 Y8.4718 
G01 X-8.4657 Y8.4718 
G01 X-8.4375 Y8.4601 
G01 X-8.3956 Y8.4428 
G01 X-8.3421 Y8.3892 
G01 X-8.1641 Y8.2113 
G01 X-8.1351 Y8.1412 
G01 X-8.1351 Y7.8875 
G01 X-8.1641 Y7.8175 
G00 Z2.5400 
G00 X-9.3045 Y8.1413 
G01 Z-0.1778 F100.00 
G01 X-9.3045 Y7.3537 F100.00 
G01 X-9.3335 Y7.2836 
G01 X-9.5115 Y7.1057 
G01 X-9.5650 Y7.0521 
G01 X-9.6351 Y7.0231 
G01 X-10.0668 Y7.0231 
G01 X-10.1368 Y7.0521 
G01 X-10.3147 Y7.2301 
G01 X-10.3683 Y7.2836 
G01 X-10.3949 Y7.3478 
G01 X-10.3973 Y7.3537 
G01 X-10.3973 Y8.1412 
G01 X-10.3683 Y8.2113 
G01 X-10.1904 Y8.3892 
G01 X-10.1368 Y8.4428 
G01 X-10.0949 Y8.4601 
G01 X-10.0668 Y8.4718 
G01 X-9.6351 Y8.4718 
G01 X-9.6052 Y8.4595 
G01 X-9.5650 Y8.4428 
G01 X-9.5615 Y8.4392 
G01 X-9.5115 Y8.3892 
G01 X-9.3335 Y8.2113 
G01 X-9.3059 Y8.1447 
G01 X-9.3045 Y8.1413 
G00 Z2.5400 
G00 X-9.7770 Y8.0908 
G01 Z-0.1778 F100.00 
G01 X-9.9500 Y8.0908 F100.00 
G01 X-10.0163 Y8.0245 
G01 X-10.0163 Y7.8514 
G01 X-9.7770 Y8.0908 
G00 Z2.5400 
G00 X-9.6855 Y7.6435 
G01 Z-0.1778 F100.00 
G01 X-9.9249 Y7.4041 F100.00 
G01 X-9.7519 Y7.4041 
G01 X-9.6855 Y7.4705 
G01 X-9.6855 Y7.6435 
G00 Z2.5400 
G00 X-10.4739 Y7.3537 
G01 Z-0.1778 F100.00 
G01 X-10.5029 Y7.2836 F100.00 
G01 X-10.5565 Y7.2301 
G01 X-10.7344 Y7.0521 
G01 X-10.8045 Y7.0231 
G01 X-11.2362 Y7.0231 
G01 X-11.3062 Y7.0521 
G01 X-11.3598 Y7.1057 
G01 X-11.5377 Y7.2836 
G01 X-11.5667 Y7.3537 
G01 X-11.5667 Y7.4294 
G01 X-11.5377 Y7.4995 
G01 X-11.4841 Y7.5530 
G01 X-11.4141 Y7.5820 
G01 X-11.3383 Y7.5820 
G01 X-11.2683 Y7.5530 
G01 X-11.1194 Y7.4041 
G01 X-10.9213 Y7.4041 
G01 X-10.8549 Y7.4705 
G01 X-10.8549 Y7.5570 
G01 X-11.2362 Y7.5570 
G01 X-11.3062 Y7.5860 
G01 X-11.3598 Y7.6395 
G01 X-11.5377 Y7.8175 
G01 X-11.5667 Y7.8875 
G01 X-11.5667 Y8.1412 
G01 X-11.5377 Y8.2113 
G01 X-11.5341 Y8.2148 
G01 X-11.3598 Y8.3892 
G01 X-11.3097 Y8.4392 
G01 X-11.3062 Y8.4428 
G01 X-11.2660 Y8.4595 
G01 X-11.2362 Y8.4718 
G01 X-10.8045 Y8.4718 
G01 X-10.7763 Y8.4601 
G01 X-10.7344 Y8.4428 
G01 X-10.6809 Y8.3892 
G01 X-10.5029 Y8.2113 
G01 X-10.4739 Y8.1412 
G01 X-10.4739 Y7.3537 
G00 Z2.5400 
G00 X-10.8549 Y7.9380 
G01 Z-0.1778 F100.00 
G01 X-10.8549 Y8.0245 F100.00 
G01 X-10.9213 Y8.0908 
G01 X-11.1194 Y8.0908 
G01 X-11.1857 Y8.0245 
G01 X-11.1857 Y8.0043 
G01 X-11.1194 Y7.9380 
G01 X-10.8549 Y7.9380 
G00 Z2.5400 
G00 X-11.6433 Y7.8875 
G01 Z-0.1778 F100.00 
G01 X-11.6723 Y7.8175 F100.00 
G01 X-11.7423 Y7.7475 
G01 X-11.6759 Y7.6810 
G01 X-11.6723 Y7.6774 
G01 X-11.6433 Y7.6074 
G01 X-11.6433 Y7.3537 
G01 X-11.6723 Y7.2836 
G01 X-11.8503 Y7.1057 
G01 X-11.9038 Y7.0521 
G01 X-11.9739 Y7.0231 
G01 X-12.4055 Y7.0231 
G01 X-12.4756 Y7.0521 
G01 X-12.7071 Y7.2836 
G01 X-12.7361 Y7.3537 
G01 X-12.7361 Y7.4294 
G01 X-12.7071 Y7.4995 
G01 X-12.6535 Y7.5530 
G01 X-12.5835 Y7.5820 
G01 X-12.5077 Y7.5820 
G01 X-12.4377 Y7.5530 
G01 X-12.2887 Y7.4041 
G01 X-12.0907 Y7.4041 
G01 X-12.0243 Y7.4705 
G01 X-12.0243 Y7.4906 
G01 X-12.0907 Y7.5570 
G01 X-12.2276 Y7.5570 
G01 X-12.2976 Y7.5860 
G01 X-12.3512 Y7.6395 
G01 X-12.3802 Y7.7096 
G01 X-12.3802 Y7.7853 
G01 X-12.3512 Y7.8554 
G01 X-12.2976 Y7.9090 
G01 X-12.2276 Y7.9380 
G01 X-12.0907 Y7.9380 
G01 X-12.0243 Y8.0043 
G01 X-12.0243 Y8.0245 
G01 X-12.0907 Y8.0908 
G01 X-12.2887 Y8.0908 
G01 X-12.4377 Y7.9419 
G01 X-12.5077 Y7.9129 
G01 X-12.5835 Y7.9129 
G01 X-12.6535 Y7.9419 
G01 X-12.7071 Y7.9954 
G01 X-12.7361 Y8.0655 
G01 X-12.7361 Y8.1412 
G01 X-12.7071 Y8.2113 
G01 X-12.5292 Y8.3892 
G01 X-12.4756 Y8.4428 
G01 X-12.4337 Y8.4601 
G01 X-12.4055 Y8.4718 
G01 X-11.9739 Y8.4718 
G01 X-11.9440 Y8.4595 
G01 X-11.9038 Y8.4428 
G01 X-11.9003 Y8.4392 
G01 X-11.8503 Y8.3892 
G01 X-11.6759 Y8.2148 
G01 X-11.6723 Y8.2113 
G01 X-11.6433 Y8.1412 
G01 X-11.6433 Y7.8875 
G00 Z2.5400 
G00 X-13.1937 Y7.8428 
G01 Z-0.1778 F100.00 
G01 X-13.1937 Y8.3192 F100.00 
G01 X-13.1647 Y8.3892 
G01 X-13.1111 Y8.4428 
G01 X-13.0411 Y8.4718 
G01 X-12.9653 Y8.4718 
G01 X-12.8953 Y8.4428 
G01 X-12.8417 Y8.3892 
G01 X-12.8127 Y8.3192 
G01 X-12.8127 Y7.2323 
G01 X-12.8090 Y7.2134 
G01 X-12.8127 Y7.1947 
G01 X-12.8127 Y7.1757 
G01 X-12.8201 Y7.1579 
G01 X-12.8238 Y7.1391 
G01 X-12.8344 Y7.1233 
G01 X-12.8417 Y7.1057 
G01 X-12.8553 Y7.0921 
G01 X-12.8660 Y7.0761 
G01 X-12.8818 Y7.0656 
G01 X-12.8953 Y7.0521 
G01 X-12.9131 Y7.0447 
G01 X-12.9291 Y7.0341 
G01 X-12.9477 Y7.0304 
G01 X-12.9653 Y7.0231 
G01 X-12.9845 Y7.0231 
G01 X-13.0034 Y7.0194 
G01 X-13.0221 Y7.0231 
G01 X-13.0411 Y7.0231 
G01 X-13.0589 Y7.0305 
G01 X-13.0777 Y7.0342 
G01 X-13.0935 Y7.0448 
G01 X-13.1111 Y7.0521 
G01 X-13.1247 Y7.0657 
G01 X-13.1407 Y7.0764 
G01 X-13.1512 Y7.0922 
G01 X-13.1647 Y7.1057 
G01 X-13.1721 Y7.1235 
G01 X-13.5245 Y7.6521 
G01 X-13.5245 Y7.1757 
G01 X-13.5535 Y7.1057 
G01 X-13.6071 Y7.0521 
G01 X-13.6771 Y7.0231 
G01 X-13.7529 Y7.0231 
G01 X-13.8229 Y7.0521 
G01 X-13.8765 Y7.1057 
G01 X-13.9055 Y7.1757 
G01 X-13.9055 Y8.2627 
G01 X-13.9092 Y8.2815 
G01 X-13.9055 Y8.3002 
G01 X-13.9055 Y8.3192 
G01 X-13.8981 Y8.3370 
G01 X-13.8944 Y8.3558 
G01 X-13.8838 Y8.3716 
G01 X-13.8765 Y8.3892 
G01 X-13.8629 Y8.4028 
G01 X-13.8522 Y8.4188 
G01 X-13.8364 Y8.4294 
G01 X-13.8229 Y8.4428 
G01 X-13.8051 Y8.4502 
G01 X-13.7891 Y8.4608 
G01 X-13.7705 Y8.4645 
G01 X-13.7529 Y8.4718 
G01 X-13.7337 Y8.4718 
G01 X-13.7148 Y8.4755 
G01 X-13.6961 Y8.4718 
G01 X-13.6771 Y8.4718 
G01 X-13.6593 Y8.4644 
G01 X-13.6405 Y8.4607 
G01 X-13.6247 Y8.4501 
G01 X-13.6071 Y8.4428 
G01 X-13.5935 Y8.4292 
G01 X-13.5775 Y8.4185 
G01 X-13.5670 Y8.4027 
G01 X-13.5535 Y8.3892 
G01 X-13.5461 Y8.3714 
G01 X-13.1937 Y7.8428 
G00 Z2.5400 
G00 X-13.9821 Y7.7096 
G01 Z-0.1778 F100.00 
G01 X-14.0111 Y7.6395 F100.00 
G01 X-14.1890 Y7.4616 
G01 X-14.2426 Y7.4080 
G01 X-14.2845 Y7.3907 
G01 X-14.3126 Y7.3790 
G01 X-14.6939 Y7.3790 
G01 X-14.6939 Y7.1757 
G01 X-14.7229 Y7.1057 
G01 X-14.7765 Y7.0521 
G01 X-14.8465 Y7.0231 
G01 X-14.9223 Y7.0231 
G01 X-14.9923 Y7.0521 
G01 X-15.0459 Y7.1057 
G01 X-15.0749 Y7.1757 
G01 X-15.0749 Y8.3192 
G01 X-15.0459 Y8.3892 
G01 X-14.9923 Y8.4428 
G01 X-14.9223 Y8.4718 
G01 X-14.3126 Y8.4718 
G01 X-14.2828 Y8.4595 
G01 X-14.2426 Y8.4428 
G01 X-14.2391 Y8.4392 
G01 X-14.1890 Y8.3892 
G01 X-14.0147 Y8.2148 
G01 X-14.0111 Y8.2113 
G01 X-13.9821 Y8.1412 
G01 X-13.9821 Y7.7096 
G00 Z2.5400 
G00 X-14.3631 Y7.8264 
G01 Z-0.1778 F100.00 
G01 X-14.3631 Y8.0245 F100.00 
G01 X-14.4294 Y8.0908 
G01 X-14.6939 Y8.0908 
G01 X-14.6939 Y7.7600 
G01 X-14.4294 Y7.7600 
G01 X-14.3631 Y7.8264 
G00 Z2.5400 
G00 X-14.8398 Y9.9518 
G01 Z-0.1778 F100.00 
G01 X-14.8168 Y9.9748 F100.00 
G01 X-14.7987 Y10.0018 
G01 X-14.7862 Y10.0318 
G01 X-14.7799 Y10.0637 
G01 X-14.7799 Y10.9347 
G01 X-14.8561 Y10.9347 
G01 X-14.8561 Y10.0623 
G01 X-14.8696 Y10.0296 
G01 X-14.8946 Y10.0046 
G01 X-14.9273 Y9.9911 
G01 X-15.2497 Y9.9911 
G01 X-15.2497 Y9.9149 
G01 X-14.9287 Y9.9149 
G01 X-14.8968 Y9.9212 
G01 X-14.8668 Y9.9337 
G01 X-14.8398 Y9.9518 
G00 Z2.5400 
G00 X-14.8561 Y11.9253 
G01 Z-0.1778 F100.00 
G01 X-14.7799 Y11.9253 F100.00 
G01 X-14.7799 Y12.7963 
G01 X-14.7862 Y12.8281 
G01 X-14.7987 Y12.8582 
G01 X-14.8168 Y12.8852 
G01 X-14.8398 Y12.9082 
G01 X-14.8668 Y12.9263 
G01 X-14.8968 Y12.9388 
G01 X-14.9287 Y12.9451 
G01 X-15.2497 Y12.9451 
G01 X-15.2497 Y12.8689 
G01 X-14.9273 Y12.8689 
G01 X-14.8946 Y12.8554 
G01 X-14.8696 Y12.8304 
G01 X-14.8561 Y12.7977 
G01 X-14.8561 Y11.9253 
G00 Z2.5400 
G00 X-17.6561 Y12.7977 
G01 Z-0.1778 F100.00 
G01 X-17.6561 Y10.0623 F100.00 
G01 X-17.6696 Y10.0296 
G01 X-17.6946 Y10.0046 
G01 X-17.7273 Y9.9911 
G01 X-19.2834 Y9.9911 
G01 X-19.8247 Y9.4498 
G01 X-19.8247 Y5.8994 
G01 X-19.7776 Y5.8679 
G01 X-19.6591 Y5.7494 
G01 X-19.5659 Y5.6101 
G01 X-19.5018 Y5.4552 
G01 X-19.4691 Y5.2908 
G01 X-19.4691 Y3.5992 
G01 X-19.5018 Y3.4348 
G01 X-19.5659 Y3.2799 
G01 X-19.6591 Y3.1406 
G01 X-19.7776 Y3.0221 
G01 X-19.9169 Y2.9289 
G01 X-20.0718 Y2.8648 
G01 X-20.2362 Y2.8321 
G01 X-20.4038 Y2.8321 
G01 X-20.5682 Y2.8648 
G01 X-20.7231 Y2.9289 
G01 X-20.8624 Y3.0221 
G01 X-20.9809 Y3.1406 
G01 X-21.0741 Y3.2799 
G01 X-21.1382 Y3.4348 
G01 X-21.1709 Y3.5992 
G01 X-21.1709 Y5.2908 
G01 X-21.1382 Y5.4552 
G01 X-21.0741 Y5.6101 
G01 X-20.9809 Y5.7494 
G01 X-20.8624 Y5.8679 
G01 X-20.8153 Y5.8994 
G01 X-20.8153 Y9.7202 
G01 X-20.7815 Y9.8462 
G01 X-20.7163 Y9.9591 
G01 X-19.7408 Y10.9347 
G01 X-27.7348 Y10.9347 
G01 X-30.1759 Y8.4937 
G01 X-30.2888 Y8.4285 
G01 X-30.4148 Y8.3947 
G01 X-35.6252 Y8.3947 
G01 X-35.7512 Y8.4285 
G01 X-35.8641 Y8.4937 
G01 X-35.9563 Y8.5859 
G01 X-38.4963 Y11.1259 
G01 X-38.5615 Y11.2388 
G01 X-38.5953 Y11.3648 
G01 X-38.5953 Y16.5752 
G01 X-38.5615 Y16.7012 
G01 X-38.4963 Y16.8141 
G01 X-38.4041 Y16.9063 
G01 X-36.1841 Y19.1263 
G01 X-36.0712 Y19.1915 
G01 X-35.9452 Y19.2253 
G01 X-35.7639 Y19.2253 
G01 X-35.7639 Y19.3977 
G01 X-35.7504 Y19.4304 
G01 X-35.7254 Y19.4554 
G01 X-35.6927 Y19.4689 
G01 X-35.4203 Y19.4689 
G01 X-35.4203 Y19.4798 
G01 X-37.0352 Y21.0947 
G01 X-40.7968 Y21.0947 
G01 X-40.9228 Y21.1285 
G01 X-41.0057 Y21.1763 
G01 X-42.0146 Y21.1763 
G01 X-42.1790 Y21.2090 
G01 X-42.3338 Y21.2731 
G01 X-42.4732 Y21.3663 
G01 X-42.5917 Y21.4848 
G01 X-42.6849 Y21.6241 
G01 X-42.7490 Y21.7790 
G01 X-42.7817 Y21.9434 
G01 X-42.7817 Y22.1110 
G01 X-42.7490 Y22.2754 
G01 X-42.6849 Y22.4303 
G01 X-42.5917 Y22.5696 
G01 X-42.4732 Y22.6881 
G01 X-42.3338 Y22.7813 
G01 X-42.1790 Y22.8454 
G01 X-42.0146 Y22.8781 
G01 X-40.3230 Y22.8781 
G01 X-40.1586 Y22.8454 
G01 X-40.0037 Y22.7813 
G01 X-39.8644 Y22.6881 
G01 X-39.7459 Y22.5696 
G01 X-39.6527 Y22.4303 
G01 X-39.5886 Y22.2754 
G01 X-39.5559 Y22.1110 
G01 X-39.5559 Y22.0853 
G01 X-36.7648 Y22.0853 
G01 X-36.6388 Y22.0515 
G01 X-36.5259 Y21.9863 
G01 X-36.4337 Y21.8941 
G01 X-34.5287 Y19.9891 
G01 X-34.4635 Y19.8762 
G01 X-34.4297 Y19.7502 
G01 X-34.4297 Y19.4689 
G01 X-34.1573 Y19.4689 
G01 X-34.1246 Y19.4554 
G01 X-34.0996 Y19.4304 
G01 X-34.0861 Y19.3977 
G01 X-34.0861 Y18.0623 
G01 X-34.0996 Y18.0296 
G01 X-34.1246 Y18.0046 
G01 X-34.1573 Y17.9911 
G01 X-35.6927 Y17.9911 
G01 X-35.7254 Y18.0046 
G01 X-35.7504 Y18.0296 
G01 X-35.7639 Y18.0623 
G01 X-35.7639 Y18.1456 
G01 X-37.6047 Y16.3048 
G01 X-37.6047 Y11.6352 
G01 X-35.3548 Y9.3853 
G01 X-30.6852 Y9.3853 
G01 X-28.3363 Y11.7341 
G01 X-28.2441 Y11.8263 
G01 X-28.1312 Y11.8915 
G01 X-28.0052 Y11.9253 
G01 X-19.4339 Y11.9253 
G01 X-19.4339 Y12.7977 
G01 X-19.4204 Y12.8304 
G01 X-19.3954 Y12.8554 
G01 X-19.3627 Y12.8689 
G01 X-17.7273 Y12.8689 
G01 X-17.6946 Y12.8554 
G01 X-17.6696 Y12.8304 
G01 X-17.6561 Y12.7977 
G00 Z2.5400 
G00 X-17.2847 Y5.9931 
G01 Z-0.1778 F100.00 
G01 X-17.2847 Y5.8994 F100.00 
G01 X-17.2376 Y5.8679 
G01 X-17.1191 Y5.7494 
G01 X-17.0259 Y5.6101 
G01 X-16.9618 Y5.4552 
G01 X-16.9291 Y5.2908 
G01 X-16.9291 Y4.9403 
G01 X-16.8529 Y4.9403 
G01 X-16.8529 Y5.2800 
G01 X-16.8757 Y5.4241 
G01 X-16.9208 Y5.5629 
G01 X-16.9871 Y5.6929 
G01 X-17.0728 Y5.8110 
G01 X-17.1760 Y5.9142 
G01 X-17.2847 Y5.9931 
G00 Z2.5400 
G00 X-16.9291 Y3.9497 
G01 Z-0.1778 F100.00 
G01 X-16.9291 Y3.5992 F100.00 
G01 X-16.9618 Y3.4348 
G01 X-17.0259 Y3.2799 
G01 X-17.1191 Y3.1406 
G01 X-17.2376 Y3.0221 
G01 X-17.2847 Y2.9906 
G01 X-17.2847 Y2.8969 
G01 X-17.1760 Y2.9758 
G01 X-17.0728 Y3.0790 
G01 X-16.9871 Y3.1971 
G01 X-16.9208 Y3.3271 
G01 X-16.8757 Y3.4659 
G01 X-16.8529 Y3.6100 
G01 X-16.8529 Y3.9497 
G01 X-16.9291 Y3.9497 
G00 Z2.5400 
G00 X-25.1155 Y3.9442 
G01 Z-0.1778 F100.00 
G01 X-25.0865 Y3.8742 F100.00 
G01 X-25.0865 Y3.6205 
G01 X-25.1155 Y3.5505 
G01 X-25.1691 Y3.4969 
G01 X-25.4424 Y3.2235 
G01 X-25.4424 Y2.7307 
G01 X-25.4714 Y2.6607 
G01 X-25.5250 Y2.6071 
G01 X-25.5950 Y2.5781 
G01 X-25.6708 Y2.5781 
G01 X-25.7408 Y2.6071 
G01 X-25.7944 Y2.6607 
G01 X-25.8234 Y2.7307 
G01 X-25.8234 Y3.2235 
G01 X-26.1503 Y3.5505 
G01 X-26.1793 Y3.6205 
G01 X-26.1793 Y3.6963 
G01 X-26.1793 Y3.8742 
G01 X-26.1503 Y3.9442 
G01 X-26.0967 Y3.9978 
G01 X-26.0267 Y4.0268 
G01 X-25.9509 Y4.0268 
G01 X-25.8809 Y3.9978 
G01 X-25.8273 Y3.9442 
G01 X-25.7983 Y3.8742 
G01 X-25.7983 Y3.7373 
G01 X-25.6329 Y3.5719 
G01 X-25.4675 Y3.7373 
G01 X-25.4675 Y3.8742 
G01 X-25.4385 Y3.9442 
G01 X-25.3849 Y3.9978 
G01 X-25.3149 Y4.0268 
G01 X-25.2391 Y4.0268 
G01 X-25.1691 Y3.9978 
G01 X-25.1155 Y3.9442 
G00 Z2.5400 
G00 X-26.2849 Y3.9442 
G01 Z-0.1778 F100.00 
G01 X-26.2559 Y3.8742 F100.00 
G01 X-26.2559 Y2.7873 
G01 X-26.2522 Y2.7684 
G01 X-26.2559 Y2.7497 
G01 X-26.2559 Y2.7307 
G01 X-26.2633 Y2.7129 
G01 X-26.2671 Y2.6941 
G01 X-26.2777 Y2.6783 
G01 X-26.2849 Y2.6607 
G01 X-26.2985 Y2.6471 
G01 X-26.3092 Y2.6311 
G01 X-26.3251 Y2.6206 
G01 X-26.3385 Y2.6071 
G01 X-26.3563 Y2.5997 
G01 X-26.3723 Y2.5891 
G01 X-26.3910 Y2.5854 
G01 X-26.4085 Y2.5781 
G01 X-26.4278 Y2.5781 
G01 X-26.4466 Y2.5744 
G01 X-26.4653 Y2.5781 
G01 X-26.4843 Y2.5781 
G01 X-26.5021 Y2.5855 
G01 X-26.5209 Y2.5892 
G01 X-26.5368 Y2.5998 
G01 X-26.5543 Y2.6071 
G01 X-26.5679 Y2.6207 
G01 X-26.5839 Y2.6314 
G01 X-26.5945 Y2.6472 
G01 X-26.6079 Y2.6607 
G01 X-26.6153 Y2.6785 
G01 X-26.9677 Y3.2071 
G01 X-26.9677 Y2.7307 
G01 X-26.9967 Y2.6607 
G01 X-27.0503 Y2.6071 
G01 X-27.1203 Y2.5781 
G01 X-27.1961 Y2.5781 
G01 X-27.2661 Y2.6071 
G01 X-27.3197 Y2.6607 
G01 X-27.3487 Y2.7307 
G01 X-27.3487 Y3.8176 
G01 X-27.3525 Y3.8365 
G01 X-27.3487 Y3.8552 
G01 X-27.3487 Y3.8742 
G01 X-27.3414 Y3.8920 
G01 X-27.3376 Y3.9108 
G01 X-27.3270 Y3.9266 
G01 X-27.3197 Y3.9442 
G01 X-27.3061 Y3.9578 
G01 X-27.2954 Y3.9738 
G01 X-27.2796 Y3.9844 
G01 X-27.2661 Y3.9978 
G01 X-27.2484 Y4.0052 
G01 X-27.2324 Y4.0158 
G01 X-27.2137 Y4.0195 
G01 X-27.1961 Y4.0268 
G01 X-27.1769 Y4.0268 
G01 X-27.1580 Y4.0305 
G01 X-27.1394 Y4.0268 
G01 X-27.1203 Y4.0268 
G01 X-27.1026 Y4.0194 
G01 X-27.0837 Y4.0157 
G01 X-27.0679 Y4.0051 
G01 X-27.0503 Y3.9978 
G01 X-27.0367 Y3.9842 
G01 X-27.0207 Y3.9735 
G01 X-27.0102 Y3.9577 
G01 X-26.9967 Y3.9442 
G01 X-26.9894 Y3.9264 
G01 X-26.6369 Y3.3978 
G01 X-26.6369 Y3.8742 
G01 X-26.6079 Y3.9442 
G01 X-26.5543 Y3.9978 
G01 X-26.4843 Y4.0268 
G01 X-26.4085 Y4.0268 
G01 X-26.3385 Y3.9978 
G01 X-26.2849 Y3.9442 
G00 Z2.5400 
G00 X-27.4204 Y3.9442 
G01 Z-0.1778 F100.00 
G01 X-27.3914 Y3.8742 F100.00 
G01 X-27.3914 Y3.7984 
G01 X-27.4204 Y3.7284 
G01 X-27.4740 Y3.6748 
G01 X-27.5440 Y3.6458 
G01 X-27.5694 Y3.6458 
G01 X-27.5694 Y2.9591 
G01 X-27.5440 Y2.9591 
G01 X-27.4740 Y2.9301 
G01 X-27.4204 Y2.8765 
G01 X-27.3914 Y2.8065 
G01 X-27.3914 Y2.7307 
G01 X-27.4204 Y2.6607 
G01 X-27.4740 Y2.6071 
G01 X-27.5440 Y2.5781 
G01 X-27.9757 Y2.5781 
G01 X-28.0457 Y2.6071 
G01 X-28.0993 Y2.6607 
G01 X-28.1283 Y2.7307 
G01 X-28.1283 Y2.8065 
G01 X-28.0993 Y2.8765 
G01 X-28.0457 Y2.9301 
G01 X-27.9757 Y2.9591 
G01 X-27.9504 Y2.9591 
G01 X-27.9504 Y3.6458 
G01 X-27.9757 Y3.6458 
G01 X-28.0457 Y3.6748 
G01 X-28.0993 Y3.7284 
G01 X-28.1283 Y3.7984 
G01 X-28.1283 Y3.8742 
G01 X-28.0993 Y3.9442 
G01 X-28.0457 Y3.9978 
G01 X-27.9757 Y4.0268 
G01 X-27.5440 Y4.0268 
G01 X-27.4740 Y3.9978 
G01 X-27.4204 Y3.9442 
G00 Z2.5400 
G00 X-28.2339 Y3.9442 
G01 Z-0.1778 F100.00 
G01 X-28.2049 Y3.8742 F100.00 
G01 X-28.2049 Y3.7984 
G01 X-28.2339 Y3.7284 
G01 X-28.2875 Y3.6748 
G01 X-28.3575 Y3.6458 
G01 X-28.5608 Y3.6458 
G01 X-28.5608 Y2.7307 
G01 X-28.5898 Y2.6607 
G01 X-28.6434 Y2.6071 
G01 X-28.7134 Y2.5781 
G01 X-28.7892 Y2.5781 
G01 X-28.8592 Y2.6071 
G01 X-28.9128 Y2.6607 
G01 X-28.9418 Y2.7307 
G01 X-28.9418 Y3.6458 
G01 X-29.1451 Y3.6458 
G01 X-29.2151 Y3.6748 
G01 X-29.2687 Y3.7284 
G01 X-29.2977 Y3.7984 
G01 X-29.2977 Y3.8742 
G01 X-29.2687 Y3.9442 
G01 X-29.2151 Y3.9978 
G01 X-29.1451 Y4.0268 
G01 X-28.3575 Y4.0268 
G01 X-28.2875 Y3.9978 
G01 X-28.2339 Y3.9442 
G00 Z2.5400 
G00 X-29.4033 Y3.9442 
G01 Z-0.1778 F100.00 
G01 X-29.3743 Y3.8742 F100.00 
G01 X-29.3743 Y3.7984 
G01 X-29.4033 Y3.7284 
G01 X-29.4569 Y3.6748 
G01 X-29.5269 Y3.6458 
G01 X-29.7302 Y3.6458 
G01 X-29.7302 Y2.7307 
G01 X-29.7592 Y2.6607 
G01 X-29.8128 Y2.6071 
G01 X-29.8828 Y2.5781 
G01 X-29.9586 Y2.5781 
G01 X-30.0286 Y2.6071 
G01 X-30.0822 Y2.6607 
G01 X-30.1112 Y2.7307 
G01 X-30.1112 Y3.6458 
G01 X-30.3145 Y3.6458 
G01 X-30.3845 Y3.6748 
G01 X-30.4381 Y3.7284 
G01 X-30.4671 Y3.7984 
G01 X-30.4671 Y3.8742 
G01 X-30.4381 Y3.9442 
G01 X-30.3845 Y3.9978 
G01 X-30.3145 Y4.0268 
G01 X-29.5269 Y4.0268 
G01 X-29.4569 Y3.9978 
G01 X-29.4033 Y3.9442 
G00 Z2.5400 
G00 X-30.5727 Y3.5883 
G01 Z-0.1778 F100.00 
G01 X-30.5437 Y3.5183 F100.00 
G01 X-30.5437 Y2.7307 
G01 X-30.5727 Y2.6607 
G01 X-30.6263 Y2.6071 
G01 X-30.6963 Y2.5781 
G01 X-30.7721 Y2.5781 
G01 X-30.8421 Y2.6071 
G01 X-30.8957 Y2.6607 
G01 X-30.9247 Y2.7307 
G01 X-30.9247 Y3.1120 
G01 X-31.2555 Y3.1120 
G01 X-31.2555 Y2.7307 
G01 X-31.2845 Y2.6607 
G01 X-31.3381 Y2.6071 
G01 X-31.4081 Y2.5781 
G01 X-31.4839 Y2.5781 
G01 X-31.5539 Y2.6071 
G01 X-31.6075 Y2.6607 
G01 X-31.6365 Y2.7307 
G01 X-31.6365 Y3.5183 
G01 X-31.6075 Y3.5883 
G01 X-31.2516 Y3.9442 
G01 X-31.1980 Y3.9978 
G01 X-31.1562 Y4.0151 
G01 X-31.1280 Y4.0268 
G01 X-31.0522 Y4.0268 
G01 X-31.0224 Y4.0145 
G01 X-30.9822 Y3.9978 
G01 X-30.9759 Y3.9915 
G01 X-30.9286 Y3.9442 
G01 X-30.5727 Y3.5883 
G00 Z2.5400 
G00 X-31.0901 Y3.5669 
G01 Z-0.1778 F100.00 
G01 X-31.1641 Y3.4930 F100.00 
G01 X-31.0162 Y3.4930 
G01 X-31.0901 Y3.5669 
G00 Z2.5400 
G00 X-31.7957 Y2.7521 
G01 Z-0.1778 F100.00 
G01 X-31.7421 Y2.6986 F100.00 
G01 X-31.7131 Y2.6285 
G01 X-31.7131 Y2.5528 
G01 X-31.7421 Y2.4827 
G01 X-31.7957 Y2.4291 
G01 X-31.8657 Y2.4002 
G01 X-32.6533 Y2.4002 
G01 X-32.7233 Y2.4291 
G01 X-32.7769 Y2.4827 
G01 X-32.8059 Y2.5528 
G01 X-32.8059 Y2.6285 
G01 X-32.7769 Y2.6986 
G01 X-32.7233 Y2.7521 
G01 X-32.6533 Y2.7811 
G01 X-31.8657 Y2.7811 
G01 X-31.7957 Y2.7521 
G00 Z2.5400 
G00 X-31.4759 Y2.1218 
G01 Z-0.1778 F100.00 
G01 X-31.4059 Y2.0928 F100.00 
G01 X-31.3523 Y2.0392 
G01 X-31.3233 Y1.9692 
G01 X-31.3233 Y1.8934 
G01 X-31.3523 Y1.8234 
G01 X-31.4059 Y1.7698 
G01 X-31.4759 Y1.7408 
G01 X-32.0351 Y1.7408 
G01 X-32.0351 Y1.5880 
G01 X-31.8318 Y1.5880 
G01 X-31.7618 Y1.5590 
G01 X-31.7082 Y1.5054 
G01 X-31.6792 Y1.4353 
G01 X-31.6792 Y1.3596 
G01 X-31.7082 Y1.2895 
G01 X-31.7618 Y1.2360 
G01 X-31.8318 Y1.2070 
G01 X-32.0351 Y1.2070 
G01 X-32.0351 Y1.0541 
G01 X-31.4759 Y1.0541 
G01 X-31.4059 Y1.0251 
G01 X-31.3523 Y0.9715 
G01 X-31.3233 Y0.9015 
G01 X-31.3233 Y0.8257 
G01 X-31.3523 Y0.7557 
G01 X-31.4059 Y0.7021 
G01 X-31.4759 Y0.6731 
G01 X-32.2635 Y0.6731 
G01 X-32.3335 Y0.7021 
G01 X-32.3871 Y0.7557 
G01 X-32.4161 Y0.8257 
G01 X-32.4161 Y1.9692 
G01 X-32.3871 Y2.0392 
G01 X-32.3335 Y2.0928 
G01 X-32.2635 Y2.1218 
G01 X-32.1877 Y2.1218 
G01 X-31.4759 Y2.1218 
G00 Z2.5400 
G00 X-31.0398 Y2.0392 
G01 Z-0.1778 F100.00 
G01 X-30.9898 Y2.0892 F100.00 
G01 X-30.9862 Y2.0928 
G01 X-30.9460 Y2.1095 
G01 X-30.9162 Y2.1218 
G01 X-30.4845 Y2.1218 
G01 X-30.4266 Y2.0978 
G01 X-30.4145 Y2.0928 
G01 X-30.1829 Y1.8613 
G01 X-30.1539 Y1.7913 
G01 X-30.1539 Y1.5375 
G01 X-30.1829 Y1.4675 
G01 X-30.2365 Y1.4139 
G01 X-30.5963 Y1.0541 
G01 X-30.3065 Y1.0541 
G01 X-30.2365 Y1.0251 
G01 X-30.1829 Y0.9715 
G01 X-30.1539 Y0.9015 
G01 X-30.1539 Y0.8257 
G01 X-30.1829 Y0.7557 
G01 X-30.2365 Y0.7021 
G01 X-30.3065 Y0.6731 
G01 X-31.0941 Y0.6731 
G01 X-31.1641 Y0.7021 
G01 X-31.2177 Y0.7557 
G01 X-31.2467 Y0.8257 
G01 X-31.2467 Y0.9015 
G01 X-31.2177 Y0.9715 
G01 X-30.5349 Y1.6543 
G01 X-30.5349 Y1.6745 
G01 X-30.6013 Y1.7408 
G01 X-30.7994 Y1.7408 
G01 X-30.9483 Y1.5919 
G01 X-31.0183 Y1.5629 
G01 X-31.0941 Y1.5629 
G01 X-31.1641 Y1.5919 
G01 X-31.2177 Y1.6454 
G01 X-31.2467 Y1.7155 
G01 X-31.2467 Y1.7913 
G01 X-31.2177 Y1.8613 
G01 X-31.0398 Y2.0392 
G00 Z2.5400 
G00 X-32.6997 Y2.0392 
G01 Z-0.1778 F100.00 
G01 X-32.6997 Y2.0392 F100.00 
G01 X-32.5217 Y1.8613 
G01 X-32.4927 Y1.7913 
G01 X-32.4927 Y1.7155 
G01 X-32.5217 Y1.6454 
G01 X-32.5753 Y1.5919 
G01 X-32.6453 Y1.5629 
G01 X-32.7211 Y1.5629 
G01 X-32.7911 Y1.5919 
G01 X-32.9401 Y1.7408 
G01 X-33.1382 Y1.7408 
G01 X-33.2045 Y1.6745 
G01 X-33.2045 Y1.6543 
G01 X-33.1382 Y1.5880 
G01 X-32.8233 Y1.5880 
G01 X-32.7934 Y1.5756 
G01 X-32.7533 Y1.5590 
G01 X-32.7497 Y1.5554 
G01 X-32.6997 Y1.5054 
G01 X-32.5253 Y1.3310 
G01 X-32.5217 Y1.3274 
G01 X-32.4927 Y1.2574 
G01 X-32.4927 Y1.0037 
G01 X-32.5217 Y0.9336 
G01 X-32.6997 Y0.7557 
G01 X-32.7533 Y0.7021 
G01 X-32.8233 Y0.6731 
G01 X-33.2550 Y0.6731 
G01 X-33.3250 Y0.7021 
G01 X-33.5565 Y0.9336 
G01 X-33.5855 Y1.0037 
G01 X-33.5855 Y1.0794 
G01 X-33.5565 Y1.1495 
G01 X-33.5029 Y1.2030 
G01 X-33.4329 Y1.2320 
G01 X-33.3571 Y1.2320 
G01 X-33.2871 Y1.2030 
G01 X-33.1382 Y1.0541 
G01 X-32.9401 Y1.0541 
G01 X-32.8737 Y1.1205 
G01 X-32.8737 Y1.1406 
G01 X-32.9401 Y1.2070 
G01 X-33.2550 Y1.2070 
G01 X-33.3250 Y1.2360 
G01 X-33.3786 Y1.2895 
G01 X-33.5565 Y1.4675 
G01 X-33.5855 Y1.5375 
G01 X-33.5855 Y1.7913 
G01 X-33.5565 Y1.8613 
G01 X-33.5529 Y1.8648 
G01 X-33.3786 Y2.0392 
G01 X-33.3285 Y2.0892 
G01 X-33.3250 Y2.0928 
G01 X-33.2848 Y2.1095 
G01 X-33.2550 Y2.1218 
G01 X-32.8233 Y2.1218 
G01 X-32.7951 Y2.1101 
G01 X-32.7533 Y2.0928 
G01 X-32.6997 Y2.0392 
G00 Z2.5400 
G00 X-33.6911 Y2.0392 
G01 Z-0.1778 F100.00 
G01 X-33.6621 Y1.9692 F100.00 
G01 X-33.6621 Y0.8823 
G01 X-33.6584 Y0.8634 
G01 X-33.6621 Y0.8447 
G01 X-33.6621 Y0.8257 
G01 X-33.6695 Y0.8079 
G01 X-33.6732 Y0.7891 
G01 X-33.6838 Y0.7733 
G01 X-33.6911 Y0.7557 
G01 X-33.7047 Y0.7421 
G01 X-33.7154 Y0.7261 
G01 X-33.7312 Y0.7156 
G01 X-33.7447 Y0.7021 
G01 X-33.7625 Y0.6947 
G01 X-33.7785 Y0.6841 
G01 X-33.7971 Y0.6804 
G01 X-33.8147 Y0.6731 
G01 X-33.8340 Y0.6731 
G01 X-33.8528 Y0.6694 
G01 X-33.8715 Y0.6731 
G01 X-33.8905 Y0.6731 
G01 X-33.9083 Y0.6805 
G01 X-33.9271 Y0.6842 
G01 X-33.9429 Y0.6948 
G01 X-33.9605 Y0.7021 
G01 X-33.9741 Y0.7157 
G01 X-33.9901 Y0.7264 
G01 X-34.0007 Y0.7422 
G01 X-34.0141 Y0.7557 
G01 X-34.0215 Y0.7735 
G01 X-34.3739 Y1.3021 
G01 X-34.3739 Y0.8257 
G01 X-34.4029 Y0.7557 
G01 X-34.4565 Y0.7021 
G01 X-34.5265 Y0.6731 
G01 X-34.6023 Y0.6731 
G01 X-34.6723 Y0.7021 
G01 X-34.7259 Y0.7557 
G01 X-34.7549 Y0.8257 
G01 X-34.7549 Y1.9126 
G01 X-34.7586 Y1.9315 
G01 X-34.7549 Y1.9502 
G01 X-34.7549 Y1.9692 
G01 X-34.7475 Y1.9870 
G01 X-34.7438 Y2.0058 
G01 X-34.7332 Y2.0216 
G01 X-34.7259 Y2.0392 
G01 X-34.7123 Y2.0528 
G01 X-34.7016 Y2.0688 
G01 X-34.6858 Y2.0794 
G01 X-34.6723 Y2.0928 
G01 X-34.6546 Y2.1002 
G01 X-34.6386 Y2.1108 
G01 X-34.6199 Y2.1145 
G01 X-34.6023 Y2.1218 
G01 X-34.5831 Y2.1218 
G01 X-34.5642 Y2.1255 
G01 X-34.5456 Y2.1218 
G01 X-34.5265 Y2.1218 
G01 X-34.5088 Y2.1144 
G01 X-34.4899 Y2.1107 
G01 X-34.4741 Y2.1001 
G01 X-34.4565 Y2.0928 
G01 X-34.4429 Y2.0792 
G01 X-34.4269 Y2.0685 
G01 X-34.4164 Y2.0527 
G01 X-34.4029 Y2.0392 
G01 X-34.3956 Y2.0215 
G01 X-34.0431 Y1.4928 
G01 X-34.0431 Y1.9692 
G01 X-34.0141 Y2.0392 
G01 X-33.9605 Y2.0928 
G01 X-33.8905 Y2.1218 
G01 X-33.8147 Y2.1218 
G01 X-33.7447 Y2.0928 
G01 X-33.6911 Y2.0392 
G00 Z2.5400 
G00 X-33.8227 Y2.5781 
G01 Z-0.1778 F100.00 
G01 X-33.8927 Y2.6071 F100.00 
G01 X-33.9463 Y2.6607 
G01 X-33.9753 Y2.7307 
G01 X-33.9753 Y3.8742 
G01 X-33.9463 Y3.9442 
G01 X-33.8927 Y3.9978 
G01 X-33.8227 Y4.0268 
G01 X-33.2131 Y4.0268 
G01 X-33.1849 Y4.0151 
G01 X-33.1431 Y3.9978 
G01 X-33.0895 Y3.9442 
G01 X-32.9115 Y3.7663 
G01 X-32.8825 Y3.6963 
G01 X-32.8825 Y2.9087 
G01 X-32.9115 Y2.8386 
G01 X-32.9651 Y2.7851 
G01 X-33.1431 Y2.6071 
G01 X-33.2131 Y2.5781 
G01 X-33.8227 Y2.5781 
G00 Z2.5400 
G00 X-34.0809 Y2.6607 
G01 Z-0.1778 F100.00 
G01 X-34.1345 Y2.6071 F100.00 
G01 X-34.2045 Y2.5781 
G01 X-34.9921 Y2.5781 
G01 X-35.0621 Y2.6071 
G01 X-35.1157 Y2.6607 
G01 X-35.1447 Y2.7307 
G01 X-35.1447 Y2.8065 
G01 X-35.1447 Y3.8742 
G01 X-35.1157 Y3.9442 
G01 X-35.0621 Y3.9978 
G01 X-34.9921 Y4.0268 
G01 X-34.9163 Y4.0268 
G01 X-34.8463 Y3.9978 
G01 X-34.7927 Y3.9442 
G01 X-34.7637 Y3.8742 
G01 X-34.7637 Y2.9591 
G01 X-34.2045 Y2.9591 
G01 X-34.1345 Y2.9301 
G01 X-34.0809 Y2.8765 
G01 X-34.0519 Y2.8065 
G01 X-34.0519 Y2.7307 
G01 X-34.0809 Y2.6607 
G00 Z2.5400 
G00 X-33.5943 Y2.9591 
G01 Z-0.1778 F100.00 
G01 X-33.3299 Y2.9591 F100.00 
G01 X-33.2635 Y3.0255 
G01 X-33.2635 Y3.5795 
G01 X-33.3299 Y3.6458 
G01 X-33.5943 Y3.6458 
G01 X-33.5943 Y2.9591 
G00 Z2.5400 
G00 X-35.3039 Y2.9301 
G01 Z-0.1778 F100.00 
G01 X-35.2503 Y2.8765 F100.00 
G01 X-35.2213 Y2.8065 
G01 X-35.2213 Y2.7307 
G01 X-35.2503 Y2.6607 
G01 X-35.3039 Y2.6071 
G01 X-35.3739 Y2.5781 
G01 X-36.1615 Y2.5781 
G01 X-36.2315 Y2.6071 
G01 X-36.2851 Y2.6607 
G01 X-36.3141 Y2.7307 
G01 X-36.3141 Y3.8742 
G01 X-36.2851 Y3.9442 
G01 X-36.2315 Y3.9978 
G01 X-36.1615 Y4.0268 
G01 X-36.0857 Y4.0268 
G01 X-35.3739 Y4.0268 
G01 X-35.3039 Y3.9978 
G01 X-35.2503 Y3.9442 
G01 X-35.2213 Y3.8742 
G01 X-35.2213 Y3.7984 
G01 X-35.2503 Y3.7284 
G01 X-35.3039 Y3.6748 
G01 X-35.3739 Y3.6458 
G01 X-35.9331 Y3.6458 
G01 X-35.9331 Y3.4930 
G01 X-35.7298 Y3.4930 
G01 X-35.6598 Y3.4640 
G01 X-35.6062 Y3.4104 
G01 X-35.5772 Y3.3403 
G01 X-35.5772 Y3.2646 
G01 X-35.6062 Y3.1945 
G01 X-35.6598 Y3.1410 
G01 X-35.7298 Y3.1120 
G01 X-35.9331 Y3.1120 
G01 X-35.9331 Y2.9591 
G01 X-35.3739 Y2.9591 
G01 X-35.3039 Y2.9301 
G00 Z2.5400 
G00 X-34.9841 Y2.1218 
G01 Z-0.1778 F100.00 
G01 X-34.9141 Y2.0928 F100.00 
G01 X-34.8605 Y2.0392 
G01 X-34.8315 Y1.9692 
G01 X-34.8315 Y1.8934 
G01 X-34.8605 Y1.8234 
G01 X-34.9141 Y1.7698 
G01 X-34.9841 Y1.7408 
G01 X-35.5433 Y1.7408 
G01 X-35.5433 Y1.5880 
G01 X-35.3400 Y1.5880 
G01 X-35.2700 Y1.5590 
G01 X-35.2164 Y1.5054 
G01 X-35.1874 Y1.4353 
G01 X-35.1874 Y1.3596 
G01 X-35.2164 Y1.2895 
G01 X-35.2700 Y1.2360 
G01 X-35.3400 Y1.2070 
G01 X-35.5433 Y1.2070 
G01 X-35.5433 Y1.0541 
G01 X-34.9841 Y1.0541 
G01 X-34.9141 Y1.0251 
G01 X-34.8605 Y0.9715 
G01 X-34.8315 Y0.9015 
G01 X-34.8315 Y0.8257 
G01 X-34.8605 Y0.7557 
G01 X-34.9141 Y0.7021 
G01 X-34.9841 Y0.6731 
G01 X-35.7717 Y0.6731 
G01 X-35.8417 Y0.7021 
G01 X-35.8953 Y0.7557 
G01 X-35.9243 Y0.8257 
G01 X-35.9243 Y1.9692 
G01 X-35.8953 Y2.0392 
G01 X-35.8417 Y2.0928 
G01 X-35.7717 Y2.1218 
G01 X-35.6959 Y2.1218 
G01 X-34.9841 Y2.1218 
G00 Z2.5400 
G00 X-36.2614 Y2.0928 
G01 Z-0.1778 F100.00 
G01 X-36.0299 Y1.8613 F100.00 
G01 X-36.0009 Y1.7913 
G01 X-36.0009 Y1.7155 
G01 X-36.0299 Y1.6454 
G01 X-36.0835 Y1.5919 
G01 X-36.1535 Y1.5629 
G01 X-36.2293 Y1.5629 
G01 X-36.2993 Y1.5919 
G01 X-36.4483 Y1.7408 
G01 X-36.6463 Y1.7408 
G01 X-36.7127 Y1.6745 
G01 X-36.7127 Y1.6543 
G01 X-36.6463 Y1.5880 
G01 X-36.3315 Y1.5880 
G01 X-36.3016 Y1.5756 
G01 X-36.2614 Y1.5590 
G01 X-36.2579 Y1.5554 
G01 X-36.2079 Y1.5054 
G01 X-36.0335 Y1.3310 
G01 X-36.0299 Y1.3274 
G01 X-36.0009 Y1.2574 
G01 X-36.0009 Y1.0037 
G01 X-36.0299 Y0.9336 
G01 X-36.2079 Y0.7557 
G01 X-36.2614 Y0.7021 
G01 X-36.3315 Y0.6731 
G01 X-36.7632 Y0.6731 
G01 X-36.8332 Y0.7021 
G01 X-37.0647 Y0.9336 
G01 X-37.0937 Y1.0037 
G01 X-37.0937 Y1.0794 
G01 X-37.0647 Y1.1495 
G01 X-37.0111 Y1.2030 
G01 X-36.9411 Y1.2320 
G01 X-36.8653 Y1.2320 
G01 X-36.7953 Y1.2030 
G01 X-36.6463 Y1.0541 
G01 X-36.4483 Y1.0541 
G01 X-36.3819 Y1.1205 
G01 X-36.3819 Y1.1406 
G01 X-36.4483 Y1.2070 
G01 X-36.7632 Y1.2070 
G01 X-36.8332 Y1.2360 
G01 X-36.8868 Y1.2895 
G01 X-37.0647 Y1.4675 
G01 X-37.0937 Y1.5375 
G01 X-37.0937 Y1.7913 
G01 X-37.0647 Y1.8613 
G01 X-37.0611 Y1.8648 
G01 X-36.8868 Y2.0392 
G01 X-36.8367 Y2.0892 
G01 X-36.8332 Y2.0928 
G01 X-36.7930 Y2.1095 
G01 X-36.7632 Y2.1218 
G01 X-36.3315 Y2.1218 
G01 X-36.2736 Y2.0978 
G01 X-36.2614 Y2.0928 
G00 Z2.5400 
G00 X-36.3858 Y2.6607 
G01 Z-0.1778 F100.00 
G01 X-36.4394 Y2.6071 F100.00 
G01 X-36.5094 Y2.5781 
G01 X-36.9411 Y2.5781 
G01 X-37.0111 Y2.6071 
G01 X-37.0647 Y2.6607 
G01 X-37.0937 Y2.7307 
G01 X-37.0937 Y2.8065 
G01 X-37.0647 Y2.8765 
G01 X-37.0111 Y2.9301 
G01 X-36.9411 Y2.9591 
G01 X-36.9158 Y2.9591 
G01 X-36.9158 Y3.6458 
G01 X-36.9411 Y3.6458 
G01 X-37.0111 Y3.6748 
G01 X-37.0647 Y3.7284 
G01 X-37.0937 Y3.7984 
G01 X-37.0937 Y3.8742 
G01 X-37.0647 Y3.9442 
G01 X-37.0111 Y3.9978 
G01 X-36.9411 Y4.0268 
G01 X-36.5094 Y4.0268 
G01 X-36.4394 Y3.9978 
G01 X-36.3858 Y3.9442 
G01 X-36.3568 Y3.8742 
G01 X-36.3568 Y3.7984 
G01 X-36.3858 Y3.7284 
G01 X-36.4394 Y3.6748 
G01 X-36.5094 Y3.6458 
G01 X-36.5348 Y3.6458 
G01 X-36.5348 Y2.9591 
G01 X-36.5094 Y2.9591 
G01 X-36.4394 Y2.9301 
G01 X-36.3858 Y2.8765 
G01 X-36.3568 Y2.8065 
G01 X-36.3568 Y2.7307 
G01 X-36.3858 Y2.6607 
G00 Z2.5400 
G00 X-37.1993 Y2.6607 
G01 Z-0.1778 F100.00 
G01 X-37.2529 Y2.6071 F100.00 
G01 X-37.3229 Y2.5781 
G01 X-37.3987 Y2.5781 
G01 X-37.4687 Y2.6071 
G01 X-37.5223 Y2.6607 
G01 X-37.5513 Y2.7307 
G01 X-37.5513 Y3.1120 
G01 X-37.8821 Y3.1120 
G01 X-37.8821 Y2.7307 
G01 X-37.9111 Y2.6607 
G01 X-37.9647 Y2.6071 
G01 X-38.0347 Y2.5781 
G01 X-38.1105 Y2.5781 
G01 X-38.1805 Y2.6071 
G01 X-38.2341 Y2.6607 
G01 X-38.2631 Y2.7307 
G01 X-38.2631 Y3.8742 
G01 X-38.2341 Y3.9442 
G01 X-38.1805 Y3.9978 
G01 X-38.1105 Y4.0268 
G01 X-38.0347 Y4.0268 
G01 X-37.9647 Y3.9978 
G01 X-37.9111 Y3.9442 
G01 X-37.8821 Y3.8742 
G01 X-37.8821 Y3.4930 
G01 X-37.5513 Y3.4930 
G01 X-37.5513 Y3.8742 
G01 X-37.5223 Y3.9442 
G01 X-37.4687 Y3.9978 
G01 X-37.3987 Y4.0268 
G01 X-37.3229 Y4.0268 
G01 X-37.2529 Y3.9978 
G01 X-37.1993 Y3.9442 
G01 X-37.1703 Y3.8742 
G01 X-37.1703 Y2.7307 
G01 X-37.1993 Y2.6607 
G00 Z2.5400 
G00 X-37.2529 Y2.0928 
G01 Z-0.1778 F100.00 
G01 X-37.1993 Y2.0392 F100.00 
G01 X-37.1703 Y1.9692 
G01 X-37.1703 Y1.8934 
G01 X-37.1993 Y1.8234 
G01 X-37.2529 Y1.7698 
G01 X-37.3229 Y1.7408 
G01 X-37.5262 Y1.7408 
G01 X-37.5262 Y0.8257 
G01 X-37.5552 Y0.7557 
G01 X-37.6088 Y0.7021 
G01 X-37.6788 Y0.6731 
G01 X-37.7546 Y0.6731 
G01 X-37.8246 Y0.7021 
G01 X-37.8782 Y0.7557 
G01 X-37.9072 Y0.8257 
G01 X-37.9072 Y1.7408 
G01 X-38.1105 Y1.7408 
G01 X-38.1805 Y1.7698 
G01 X-38.2341 Y1.8234 
G01 X-38.2631 Y1.8934 
G01 X-38.2631 Y1.9692 
G01 X-38.2341 Y2.0392 
G01 X-38.1805 Y2.0928 
G01 X-38.1105 Y2.1218 
G01 X-37.3229 Y2.1218 
G01 X-37.2529 Y2.0928 
G00 Z2.5400 
G00 X-38.7782 Y2.0928 
G01 Z-0.1778 F100.00 
G01 X-38.7782 Y2.0928 F100.00 
G01 X-38.7719 Y2.0865 
G01 X-38.7246 Y2.0392 
G01 X-38.3750 Y1.6896 
G01 X-38.3687 Y1.6833 
G01 X-38.3397 Y1.6133 
G01 X-38.3397 Y0.8257 
G01 X-38.3687 Y0.7557 
G01 X-38.4223 Y0.7021 
G01 X-38.4923 Y0.6731 
G01 X-38.5681 Y0.6731 
G01 X-38.6381 Y0.7021 
G01 X-38.6917 Y0.7557 
G01 X-38.7207 Y0.8257 
G01 X-38.7207 Y1.2070 
G01 X-39.0515 Y1.2070 
G01 X-39.0515 Y0.8257 
G01 X-39.0805 Y0.7557 
G01 X-39.1341 Y0.7021 
G01 X-39.2041 Y0.6731 
G01 X-39.2799 Y0.6731 
G01 X-39.3499 Y0.7021 
G01 X-39.4035 Y0.7557 
G01 X-39.4325 Y0.8257 
G01 X-39.4325 Y1.6133 
G01 X-39.4035 Y1.6833 
G01 X-39.0476 Y2.0392 
G01 X-38.9940 Y2.0928 
G01 X-38.9522 Y2.1101 
G01 X-38.9240 Y2.1218 
G01 X-38.8482 Y2.1218 
G01 X-38.8184 Y2.1095 
G01 X-38.7782 Y2.0928 
G00 Z2.5400 
G00 X-38.8861 Y1.6619 
G01 Z-0.1778 F100.00 
G01 X-38.9601 Y1.5880 F100.00 
G01 X-38.8121 Y1.5880 
G01 X-38.8861 Y1.6619 
G00 Z2.5400 
G00 X-39.5091 Y1.5375 
G01 Z-0.1778 F100.00 
G01 X-39.5381 Y1.4675 F100.00 
G01 X-39.6081 Y1.3975 
G01 X-39.5417 Y1.3310 
G01 X-39.5381 Y1.3274 
G01 X-39.5091 Y1.2574 
G01 X-39.5091 Y1.0037 
G01 X-39.5381 Y0.9336 
G01 X-39.7160 Y0.7557 
G01 X-39.7696 Y0.7021 
G01 X-39.8396 Y0.6731 
G01 X-40.4493 Y0.6731 
G01 X-40.5193 Y0.7021 
G01 X-40.5729 Y0.7557 
G01 X-40.6019 Y0.8257 
G01 X-40.6019 Y1.4353 
G01 X-40.6019 Y1.8934 
G01 X-40.6019 Y1.9692 
G01 X-40.5729 Y2.0392 
G01 X-40.5193 Y2.0928 
G01 X-40.4493 Y2.1218 
G01 X-39.8396 Y2.1218 
G01 X-39.8098 Y2.1095 
G01 X-39.7696 Y2.0928 
G01 X-39.7661 Y2.0892 
G01 X-39.7160 Y2.0392 
G01 X-39.5417 Y1.8648 
G01 X-39.5381 Y1.8613 
G01 X-39.5091 Y1.7913 
G01 X-39.5091 Y1.5375 
G00 Z2.5400 
G00 X-39.8901 Y1.6543 
G01 Z-0.1778 F100.00 
G01 X-39.8901 Y1.6745 F100.00 
G01 X-39.9564 Y1.7408 
G01 X-40.2209 Y1.7408 
G01 X-40.2209 Y1.5880 
G01 X-39.9564 Y1.5880 
G01 X-39.8901 Y1.6543 
G00 Z2.5400 
G00 X-39.8901 Y1.1406 
G01 Z-0.1778 F100.00 
G01 X-39.9564 Y1.2070 F100.00 
G01 X-40.2209 Y1.2070 
G01 X-40.2209 Y1.0541 
G01 X-39.9564 Y1.0541 
G01 X-39.8901 Y1.1205 
G01 X-39.8901 Y1.1406 
G00 Z2.5400 
G00 X-39.8075 Y2.6071 
G01 Z-0.1778 F100.00 
G01 X-39.8611 Y2.6607 F100.00 
G01 X-40.0555 Y2.8551 
G01 X-40.3035 Y2.6071 
G01 X-40.3735 Y2.5781 
G01 X-40.4493 Y2.5781 
G01 X-40.5193 Y2.6071 
G01 X-40.5729 Y2.6607 
G01 X-40.6019 Y2.7307 
G01 X-40.6019 Y2.8065 
G01 X-40.6019 Y3.8742 
G01 X-40.5729 Y3.9442 
G01 X-40.5193 Y3.9978 
G01 X-40.4493 Y4.0268 
G01 X-40.3735 Y4.0268 
G01 X-40.3035 Y3.9978 
G01 X-40.2499 Y3.9442 
G01 X-40.2209 Y3.8742 
G01 X-40.2209 Y3.2285 
G01 X-40.2170 Y3.2324 
G01 X-40.1634 Y3.2860 
G01 X-40.0934 Y3.3150 
G01 X-40.0176 Y3.3150 
G01 X-39.9476 Y3.2860 
G01 X-39.8901 Y3.2285 
G01 X-39.8901 Y3.8742 
G01 X-39.8611 Y3.9442 
G01 X-39.8075 Y3.9978 
G01 X-39.7375 Y4.0268 
G01 X-39.6617 Y4.0268 
G01 X-39.5917 Y3.9978 
G01 X-39.5381 Y3.9442 
G01 X-39.5091 Y3.8742 
G01 X-39.5091 Y2.7307 
G01 X-39.5381 Y2.6607 
G01 X-39.5917 Y2.6071 
G01 X-39.6617 Y2.5781 
G01 X-39.7375 Y2.5781 
G01 X-39.8075 Y2.6071 
G00 Z2.5400 
G00 X-39.1720 Y2.6071 
G01 Z-0.1778 F100.00 
G01 X-39.4035 Y2.8386 F100.00 
G01 X-39.4325 Y2.9087 
G01 X-39.4325 Y2.9844 
G01 X-39.4035 Y3.0545 
G01 X-39.3499 Y3.1080 
G01 X-39.2799 Y3.1370 
G01 X-39.2041 Y3.1370 
G01 X-39.1341 Y3.1080 
G01 X-38.9851 Y2.9591 
G01 X-38.7871 Y2.9591 
G01 X-38.7207 Y3.0255 
G01 X-38.7207 Y3.0456 
G01 X-38.7871 Y3.1120 
G01 X-39.1019 Y3.1120 
G01 X-39.1720 Y3.1410 
G01 X-39.2255 Y3.1945 
G01 X-39.4035 Y3.3725 
G01 X-39.4325 Y3.4425 
G01 X-39.4325 Y3.6963 
G01 X-39.4035 Y3.7663 
G01 X-39.3999 Y3.7698 
G01 X-39.2255 Y3.9442 
G01 X-39.1755 Y3.9942 
G01 X-39.1720 Y3.9978 
G01 X-39.1318 Y4.0145 
G01 X-39.1019 Y4.0268 
G01 X-38.6703 Y4.0268 
G01 X-38.6421 Y4.0151 
G01 X-38.6002 Y3.9978 
G01 X-38.5466 Y3.9442 
G01 X-38.3687 Y3.7663 
G01 X-38.3397 Y3.6963 
G01 X-38.3397 Y3.6205 
G01 X-38.3687 Y3.5504 
G01 X-38.4223 Y3.4969 
G01 X-38.4923 Y3.4679 
G01 X-38.5681 Y3.4679 
G01 X-38.6381 Y3.4969 
G01 X-38.7871 Y3.6458 
G01 X-38.9851 Y3.6458 
G01 X-39.0515 Y3.5795 
G01 X-39.0515 Y3.5593 
G01 X-38.9851 Y3.4930 
G01 X-38.6703 Y3.4930 
G01 X-38.6404 Y3.4806 
G01 X-38.6002 Y3.4640 
G01 X-38.5967 Y3.4604 
G01 X-38.5466 Y3.4104 
G01 X-38.3723 Y3.2360 
G01 X-38.3687 Y3.2324 
G01 X-38.3397 Y3.1624 
G01 X-38.3397 Y2.9087 
G01 X-38.3687 Y2.8386 
G01 X-38.5466 Y2.6607 
G01 X-38.6002 Y2.6071 
G01 X-38.6703 Y2.5781 
G01 X-39.1019 Y2.5781 
G01 X-39.1720 Y2.6071 
G00 Z2.5400 
G00 X-44.1967 Y1.9754 
G01 Z-0.1778 F100.00 
G01 X-44.1045 Y1.8832 F100.00 
G01 X-43.7446 Y1.5233 
G01 X-43.6794 Y1.4104 
G01 X-43.6456 Y1.2844 
G01 X-43.6456 Y1.1540 
G01 X-43.6794 Y1.0280 
G01 X-43.7446 Y0.9151 
G01 X-43.8368 Y0.8229 
G01 X-43.9498 Y0.7577 
G01 X-44.0757 Y0.7239 
G01 X-44.4045 Y0.7239 
G01 X-44.4239 Y0.7203 
G01 X-44.4695 Y0.7239 
G01 X-44.5152 Y0.7239 
G01 X-44.5289 Y0.7276 
G01 X-44.5490 Y0.7286 
G01 X-44.5553 Y0.7307 
G01 X-44.5618 Y0.7312 
G01 X-44.5814 Y0.7381 
G01 X-44.5898 Y0.7390 
G01 X-44.6319 Y0.7552 
G01 X-44.6412 Y0.7577 
G01 X-44.6448 Y0.7598 
G01 X-44.6881 Y0.7738 
G01 X-44.6992 Y0.7810 
G01 X-44.7115 Y0.7857 
G01 X-44.7349 Y0.8028 
G01 X-44.7469 Y0.8081 
G01 X-44.7712 Y0.8278 
G01 X-44.7975 Y0.8449 
G01 X-44.8063 Y0.8547 
G01 X-44.8299 Y0.8718 
G01 X-44.8381 Y0.8819 
G01 X-44.8482 Y0.8901 
G01 X-44.8653 Y0.9137 
G01 X-44.8751 Y0.9225 
G01 X-44.8922 Y0.9488 
G01 X-44.9119 Y0.9731 
G01 X-44.9172 Y0.9851 
G01 X-44.9343 Y1.0085 
G01 X-44.9390 Y1.0208 
G01 X-44.9462 Y1.0318 
G01 X-44.9602 Y1.0752 
G01 X-44.9623 Y1.0788 
G01 X-44.9648 Y1.0881 
G01 X-44.9810 Y1.1302 
G01 X-44.9819 Y1.1386 
G01 X-44.9888 Y1.1582 
G01 X-44.9893 Y1.1647 
G01 X-44.9914 Y1.1710 
G01 X-44.9924 Y1.1911 
G01 X-44.9961 Y1.2048 
G01 X-44.9961 Y1.2506 
G01 X-44.9997 Y1.2962 
G01 X-44.9961 Y1.3155 
G01 X-44.9961 Y1.6443 
G01 X-44.9623 Y1.7702 
G01 X-44.8971 Y1.8832 
G01 X-44.8049 Y1.9754 
G01 X-44.6920 Y2.0406 
G01 X-44.5660 Y2.0744 
G01 X-44.4356 Y2.0744 
G01 X-44.3096 Y2.0406 
G01 X-44.1967 Y1.9754 
G00 Z2.5400 
G00 X-43.9213 Y16.5509 
G01 Z-0.1778 F100.00 
G01 X-44.0135 Y16.6431 F100.00 
G01 X-44.7541 Y17.3837 
G01 X-44.8463 Y17.4759 
G01 X-44.9115 Y17.5888 
G01 X-44.9453 Y17.7148 
G01 X-44.9453 Y26.7352 
G01 X-44.9115 Y26.8612 
G01 X-44.8463 Y26.9741 
G01 X-39.8653 Y31.9552 
G01 X-39.8653 Y34.3552 
G01 X-39.8315 Y34.4812 
G01 X-39.7663 Y34.5941 
G01 X-38.4963 Y35.8641 
G01 X-38.4041 Y35.9563 
G01 X-38.2912 Y36.0215 
G01 X-38.1652 Y36.0553 
G01 X-30.8212 Y36.0553 
G01 X-30.6952 Y36.0215 
G01 X-30.5823 Y35.9563 
G01 X-28.7248 Y34.0989 
G01 X-28.6348 Y34.1889 
G01 X-28.5819 Y34.2243 
G01 X-28.5539 Y34.3288 
G01 X-28.4887 Y34.4417 
G01 X-27.0663 Y35.8641 
G01 X-26.9741 Y35.9563 
G01 X-26.8612 Y36.0215 
G01 X-26.7352 Y36.0553 
G01 X-8.8248 Y36.0553 
G01 X-8.6988 Y36.0215 
G01 X-8.5859 Y35.9563 
G01 X-4.6837 Y32.0541 
G01 X-4.6185 Y31.9412 
G01 X-4.5847 Y31.8152 
G01 X-4.5847 Y22.7948 
G01 X-4.6185 Y22.6688 
G01 X-4.6837 Y22.5559 
G01 X-5.9537 Y21.2859 
G01 X-6.0459 Y21.1937 
G01 X-6.1588 Y21.1285 
G01 X-6.2848 Y21.0947 
G01 X-10.4297 Y21.0947 
G01 X-10.4297 Y18.5839 
G01 X-10.1073 Y18.5839 
G01 X-10.0746 Y18.5704 
G01 X-10.0496 Y18.5454 
G01 X-10.0361 Y18.5127 
G01 X-10.0361 Y15.7773 
G01 X-10.0496 Y15.7446 
G01 X-10.0746 Y15.7196 
G01 X-10.1073 Y15.7061 
G01 X-11.7427 Y15.7061 
G01 X-11.7754 Y15.7196 
G01 X-11.8004 Y15.7446 
G01 X-11.8139 Y15.7773 
G01 X-11.8139 Y18.5127 
G01 X-11.8004 Y18.5454 
G01 X-11.7754 Y18.5704 
G01 X-11.7427 Y18.5839 
G01 X-11.4203 Y18.5839 
G01 X-11.4203 Y21.0947 
G01 X-15.3052 Y21.0947 
G01 X-15.4312 Y21.1285 
G01 X-15.5441 Y21.1937 
G01 X-15.6363 Y21.2859 
G01 X-16.7152 Y22.3647 
G01 X-17.9961 Y22.3647 
G01 X-17.9961 Y22.0923 
G01 X-18.0096 Y22.0596 
G01 X-18.0346 Y22.0346 
G01 X-18.0673 Y22.0211 
G01 X-19.4027 Y22.0211 
G01 X-19.4354 Y22.0346 
G01 X-19.4604 Y22.0596 
G01 X-19.4739 Y22.0923 
G01 X-19.4739 Y23.6277 
G01 X-19.4604 Y23.6604 
G01 X-19.4354 Y23.6854 
G01 X-19.4027 Y23.6989 
G01 X-18.0673 Y23.6989 
G01 X-18.0346 Y23.6854 
G01 X-18.0096 Y23.6604 
G01 X-17.9961 Y23.6277 
G01 X-17.9961 Y23.3553 
G01 X-16.4448 Y23.3553 
G01 X-16.3188 Y23.3215 
G01 X-16.2059 Y23.2563 
G01 X-15.0348 Y22.0853 
G01 X-11.4203 Y22.0853 
G01 X-11.4203 Y23.7627 
G01 X-11.4322 Y23.7707 
G01 X-11.5507 Y23.8892 
G01 X-11.6439 Y24.0285 
G01 X-11.7080 Y24.1834 
G01 X-11.7407 Y24.3478 
G01 X-11.7407 Y26.0394 
G01 X-11.7080 Y26.2038 
G01 X-11.6439 Y26.3587 
G01 X-11.5507 Y26.4980 
G01 X-11.4322 Y26.6165 
G01 X-11.2928 Y26.7097 
G01 X-11.1380 Y26.7738 
G01 X-10.9736 Y26.8065 
G01 X-10.8060 Y26.8065 
G01 X-10.6416 Y26.7738 
G01 X-10.4867 Y26.7097 
G01 X-10.3474 Y26.6165 
G01 X-10.2289 Y26.4980 
G01 X-10.1357 Y26.3587 
G01 X-10.0716 Y26.2038 
G01 X-10.0389 Y26.0394 
G01 X-10.0389 Y24.3478 
G01 X-10.0716 Y24.1834 
G01 X-10.1357 Y24.0285 
G01 X-10.2289 Y23.8892 
G01 X-10.3474 Y23.7707 
G01 X-10.4297 Y23.7157 
G01 X-10.4297 Y22.0853 
G01 X-6.5552 Y22.0853 
G01 X-5.5753 Y23.0652 
G01 X-5.5753 Y31.5448 
G01 X-9.0952 Y35.0647 
G01 X-26.4648 Y35.0647 
G01 X-27.4453 Y34.0842 
G01 X-27.4315 Y34.0704 
G01 X-27.3383 Y33.9310 
G01 X-27.2742 Y33.7762 
G01 X-27.2415 Y33.6118 
G01 X-27.2415 Y31.9202 
G01 X-27.2742 Y31.7558 
G01 X-27.3383 Y31.6009 
G01 X-27.4315 Y31.4616 
G01 X-27.5500 Y31.3431 
G01 X-27.6893 Y31.2499 
G01 X-27.8442 Y31.1858 
G01 X-28.0086 Y31.1531 
G01 X-28.1762 Y31.1531 
G01 X-28.3406 Y31.1858 
G01 X-28.4955 Y31.2499 
G01 X-28.6348 Y31.3431 
G01 X-28.7533 Y31.4616 
G01 X-28.8465 Y31.6009 
G01 X-28.9106 Y31.7558 
G01 X-28.9433 Y31.9202 
G01 X-28.9433 Y32.9164 
G01 X-31.0916 Y35.0647 
G01 X-33.1797 Y35.0647 
G01 X-33.1597 Y34.9902 
G01 X-33.1597 Y33.4389 
G01 X-32.8873 Y33.4389 
G01 X-32.8546 Y33.4254 
G01 X-32.8296 Y33.4004 
G01 X-32.8161 Y33.3677 
G01 X-32.8161 Y32.0323 
G01 X-32.8296 Y31.9996 
G01 X-32.8546 Y31.9746 
G01 X-32.8873 Y31.9611 
G01 X-34.4227 Y31.9611 
G01 X-34.4554 Y31.9746 
G01 X-34.4804 Y31.9996 
G01 X-34.4939 Y32.0323 
G01 X-34.4939 Y33.3677 
G01 X-34.4804 Y33.4004 
G01 X-34.4554 Y33.4254 
G01 X-34.4227 Y33.4389 
G01 X-34.1503 Y33.4389 
G01 X-34.1503 Y34.7198 
G01 X-34.4952 Y35.0647 
G01 X-37.8948 Y35.0647 
G01 X-38.8747 Y34.0848 
G01 X-38.8747 Y31.6848 
G01 X-38.9085 Y31.5588 
G01 X-38.9737 Y31.4459 
G01 X-39.0659 Y31.3537 
G01 X-43.9547 Y26.4648 
G01 X-43.9547 Y17.9852 
G01 X-43.4120 Y17.4425 
G01 X-42.6232 Y17.4425 
G01 X-42.5917 Y17.4896 
G01 X-42.4732 Y17.6081 
G01 X-42.3338 Y17.7013 
G01 X-42.1790 Y17.7654 
G01 X-42.0146 Y17.7981 
G01 X-40.3230 Y17.7981 
G01 X-40.1586 Y17.7654 
G01 X-40.0037 Y17.7013 
G01 X-39.8644 Y17.6081 
G01 X-39.7459 Y17.4896 
G01 X-39.6527 Y17.3502 
G01 X-39.5886 Y17.1954 
G01 X-39.5559 Y17.0310 
G01 X-39.5559 Y16.8634 
G01 X-39.5886 Y16.6990 
G01 X-39.6527 Y16.5441 
G01 X-39.7459 Y16.4048 
G01 X-39.8644 Y16.2863 
G01 X-40.0037 Y16.1931 
G01 X-40.1586 Y16.1290 
G01 X-40.3230 Y16.0963 
G01 X-42.0146 Y16.0963 
G01 X-42.1790 Y16.1290 
G01 X-42.3338 Y16.1931 
G01 X-42.4732 Y16.2863 
G01 X-42.5917 Y16.4048 
G01 X-42.6232 Y16.4519 
G01 X-43.6824 Y16.4519 
G01 X-43.8084 Y16.4857 
G01 X-43.9213 Y16.5509 
G00 Z2.5400 
G00 X-43.3317 Y17.9733 
G01 Z-0.1778 F100.00 
G01 X-43.4239 Y18.0655 F100.00 
G01 X-43.4891 Y18.1784 
G01 X-43.5229 Y18.3044 
G01 X-43.5229 Y18.4348 
G01 X-43.5229 Y18.5510 
G01 X-43.5270 Y18.5900 
G01 X-43.5229 Y18.6159 
G01 X-43.5229 Y18.6421 
G01 X-43.5127 Y18.6800 
G01 X-43.5066 Y18.7188 
G01 X-43.4959 Y18.7427 
G01 X-43.4891 Y18.7681 
G01 X-43.4695 Y18.8021 
G01 X-43.4535 Y18.8380 
G01 X-43.4370 Y18.8583 
G01 X-43.4239 Y18.8810 
G01 X-43.3962 Y18.9088 
G01 X-43.3715 Y18.9393 
G01 X-43.3503 Y18.9547 
G01 X-43.3317 Y18.9732 
G01 X-43.2977 Y18.9929 
G01 X-43.2659 Y19.0159 
G01 X-43.2415 Y19.0253 
G01 X-43.2188 Y19.0384 
G01 X-43.1808 Y19.0486 
G01 X-43.1442 Y19.0627 
G01 X-43.1181 Y19.0654 
G01 X-43.0928 Y19.0722 
G01 X-43.0535 Y19.0722 
G01 X-43.0145 Y19.0763 
G01 X-42.9886 Y19.0722 
G01 X-42.9624 Y19.0722 
G01 X-42.9244 Y19.0620 
G01 X-42.8857 Y19.0559 
G01 X-42.8617 Y19.0452 
G01 X-42.8364 Y19.0384 
G01 X-42.8024 Y19.0188 
G01 X-42.7665 Y19.0028 
G01 X-42.7462 Y18.9863 
G01 X-42.7235 Y18.9732 
G01 X-42.6957 Y18.9455 
G01 X-42.6652 Y18.9207 
G01 X-42.6498 Y18.8995 
G01 X-42.6313 Y18.8810 
G01 X-42.6252 Y18.8704 
G01 X-42.5907 Y18.8360 
G01 X-42.5647 Y18.8160 
G01 X-42.5448 Y18.7901 
G01 X-42.5216 Y18.7669 
G01 X-42.5052 Y18.7385 
G01 X-42.4853 Y18.7126 
G01 X-42.4728 Y18.6823 
G01 X-42.4564 Y18.6540 
G01 X-42.4479 Y18.6223 
G01 X-42.4354 Y18.5921 
G01 X-42.4311 Y18.5596 
G01 X-42.4227 Y18.5280 
G01 X-42.4227 Y18.4952 
G01 X-42.4184 Y18.4628 
G01 X-42.4227 Y18.4303 
G01 X-42.4227 Y18.3976 
G01 X-42.4311 Y18.3660 
G01 X-42.4354 Y18.3335 
G01 X-42.4479 Y18.3032 
G01 X-42.4564 Y18.2716 
G01 X-42.4728 Y18.2432 
G01 X-42.4853 Y18.2130 
G01 X-42.5053 Y18.1870 
G01 X-42.5216 Y18.1587 
G01 X-42.5448 Y18.1355 
G01 X-42.5647 Y18.1095 
G01 X-42.5907 Y18.0896 
G01 X-42.6138 Y18.0664 
G01 X-42.6416 Y18.0505 
G01 X-42.7187 Y17.9733 
G01 X-42.8317 Y17.9080 
G01 X-42.9577 Y17.8743 
G01 X-43.0928 Y17.8743 
G01 X-43.2188 Y17.9080 
G01 X-43.3317 Y17.9733 
G00 Z2.5400 
G00 X-42.4732 Y18.8263 
G01 Z-0.1778 F100.00 
G01 X-42.5917 Y18.9448 F100.00 
G01 X-42.6849 Y19.0841 
G01 X-42.7490 Y19.2390 
G01 X-42.7817 Y19.4034 
G01 X-42.7817 Y19.5710 
G01 X-42.7490 Y19.7354 
G01 X-42.6849 Y19.8903 
G01 X-42.5917 Y20.0296 
G01 X-42.4732 Y20.1481 
G01 X-42.3338 Y20.2413 
G01 X-42.1790 Y20.3054 
G01 X-42.0146 Y20.3381 
G01 X-40.3230 Y20.3381 
G01 X-40.1586 Y20.3054 
G01 X-40.0037 Y20.2413 
G01 X-39.8644 Y20.1481 
G01 X-39.7459 Y20.0296 
G01 X-39.7144 Y19.9825 
G01 X-39.6203 Y19.9825 
G01 X-39.6220 Y19.9891 
G01 X-39.6280 Y20.0008 
G01 X-39.6389 Y20.0519 
G01 X-39.6524 Y20.1024 
G01 X-39.6524 Y20.1155 
G01 X-39.6551 Y20.1284 
G01 X-39.6524 Y20.1806 
G01 X-39.6524 Y20.2328 
G01 X-39.6490 Y20.2455 
G01 X-39.6483 Y20.2586 
G01 X-39.6322 Y20.3083 
G01 X-39.6186 Y20.3588 
G01 X-39.6120 Y20.3702 
G01 X-39.6080 Y20.3827 
G01 X-39.5796 Y20.4265 
G01 X-39.5534 Y20.4717 
G01 X-39.5441 Y20.4810 
G01 X-39.5370 Y20.4920 
G01 X-39.4981 Y20.5270 
G01 X-39.4612 Y20.5639 
G01 X-39.4498 Y20.5705 
G01 X-39.4400 Y20.5793 
G01 X-39.3935 Y20.6030 
G01 X-39.3483 Y20.6291 
G01 X-39.3356 Y20.6325 
G01 X-39.3238 Y20.6385 
G01 X-39.2728 Y20.6494 
G01 X-39.2223 Y20.6629 
G01 X-39.2091 Y20.6629 
G01 X-39.1963 Y20.6656 
G01 X-39.1441 Y20.6629 
G01 X-37.3540 Y20.6629 
G01 X-37.2280 Y20.6291 
G01 X-37.1151 Y20.5639 
G01 X-37.0228 Y20.4717 
G01 X-36.6325 Y20.0813 
G01 X-36.6209 Y20.0698 
G01 X-36.5402 Y19.9891 
G01 X-36.4750 Y19.8762 
G01 X-36.4413 Y19.7502 
G01 X-36.4413 Y19.6198 
G01 X-36.4427 Y19.6144 
G01 X-36.4750 Y19.4938 
G01 X-36.5388 Y19.3834 
G01 X-36.6324 Y19.2887 
G01 X-38.4583 Y17.4628 
G01 X-38.4782 Y17.4369 
G01 X-38.5042 Y17.4169 
G01 X-38.5273 Y17.3938 
G01 X-38.5557 Y17.3774 
G01 X-38.5817 Y17.3575 
G01 X-38.6119 Y17.3449 
G01 X-38.6403 Y17.3286 
G01 X-38.6719 Y17.3201 
G01 X-38.7022 Y17.3076 
G01 X-38.7346 Y17.3033 
G01 X-38.7662 Y17.2948 
G01 X-38.7990 Y17.2948 
G01 X-38.8315 Y17.2905 
G01 X-38.8639 Y17.2948 
G01 X-38.8967 Y17.2948 
G01 X-38.9283 Y17.3033 
G01 X-38.9608 Y17.3076 
G01 X-38.9910 Y17.3201 
G01 X-39.0226 Y17.3286 
G01 X-39.0510 Y17.3449 
G01 X-39.0812 Y17.3575 
G01 X-39.1072 Y17.3774 
G01 X-39.1356 Y17.3938 
G01 X-39.1587 Y17.4169 
G01 X-39.1847 Y17.4369 
G01 X-39.2046 Y17.4628 
G01 X-39.2278 Y17.4860 
G01 X-39.2442 Y17.5144 
G01 X-39.2641 Y17.5403 
G01 X-39.2766 Y17.5706 
G01 X-39.2930 Y17.5989 
G01 X-39.3015 Y17.6306 
G01 X-39.3194 Y17.6738 
G01 X-39.6960 Y18.0505 
G01 X-39.7238 Y18.0664 
G01 X-39.7469 Y18.0896 
G01 X-39.7729 Y18.1095 
G01 X-39.7928 Y18.1355 
G01 X-39.8160 Y18.1587 
G01 X-39.8323 Y18.1870 
G01 X-39.8523 Y18.2130 
G01 X-39.8648 Y18.2432 
G01 X-39.8812 Y18.2716 
G01 X-39.8896 Y18.3032 
G01 X-39.9022 Y18.3335 
G01 X-39.9064 Y18.3660 
G01 X-39.9149 Y18.3976 
G01 X-39.9149 Y18.4303 
G01 X-39.9192 Y18.4628 
G01 X-39.9149 Y18.4952 
G01 X-39.9149 Y18.5280 
G01 X-39.9065 Y18.5596 
G01 X-39.9022 Y18.5921 
G01 X-39.8897 Y18.6223 
G01 X-39.8812 Y18.6540 
G01 X-39.8648 Y18.6823 
G01 X-39.8523 Y18.7126 
G01 X-39.8323 Y18.7385 
G01 X-39.8160 Y18.7669 
G01 X-39.7928 Y18.7901 
G01 X-39.7729 Y18.8160 
G01 X-39.7469 Y18.8360 
G01 X-39.6996 Y18.8832 
G01 X-39.6207 Y18.9919 
G01 X-39.7144 Y18.9919 
G01 X-39.7459 Y18.9448 
G01 X-39.8644 Y18.8263 
G01 X-40.0037 Y18.7331 
G01 X-40.1586 Y18.6690 
G01 X-40.3230 Y18.6363 
G01 X-42.0146 Y18.6363 
G01 X-42.1790 Y18.6690 
G01 X-42.3338 Y18.7331 
G01 X-42.4732 Y18.8263 
G00 Z2.5400 
G00 X-42.6652 Y20.0537 
G01 Z-0.1778 F100.00 
G01 X-42.6957 Y20.0289 F100.00 
G01 X-42.7235 Y20.0012 
G01 X-42.7462 Y19.9881 
G01 X-42.7665 Y19.9716 
G01 X-42.8024 Y19.9556 
G01 X-42.8364 Y19.9360 
G01 X-42.8617 Y19.9292 
G01 X-42.8857 Y19.9185 
G01 X-42.9244 Y19.9124 
G01 X-42.9624 Y19.9022 
G01 X-42.9886 Y19.9022 
G01 X-43.0145 Y19.8981 
G01 X-43.0535 Y19.9022 
G01 X-43.0928 Y19.9022 
G01 X-43.1181 Y19.9090 
G01 X-43.1442 Y19.9117 
G01 X-43.1808 Y19.9258 
G01 X-43.2188 Y19.9360 
G01 X-43.2415 Y19.9491 
G01 X-43.2659 Y19.9584 
G01 X-43.2977 Y19.9815 
G01 X-43.3317 Y20.0012 
G01 X-43.3503 Y20.0197 
G01 X-43.3715 Y20.0351 
G01 X-43.3962 Y20.0656 
G01 X-43.4239 Y20.0934 
G01 X-43.4370 Y20.1161 
G01 X-43.4535 Y20.1364 
G01 X-43.4695 Y20.1723 
G01 X-43.4891 Y20.2063 
G01 X-43.4959 Y20.2316 
G01 X-43.5066 Y20.2556 
G01 X-43.5127 Y20.2944 
G01 X-43.5229 Y20.3323 
G01 X-43.5229 Y20.3585 
G01 X-43.5270 Y20.3844 
G01 X-43.5229 Y20.4234 
G01 X-43.5229 Y20.6747 
G01 X-43.5018 Y20.7535 
G01 X-43.4891 Y20.8007 
G01 X-43.4799 Y20.8168 
G01 X-43.4239 Y20.9137 
G01 X-43.3317 Y21.0059 
G01 X-43.2188 Y21.0711 
G01 X-43.1870 Y21.0796 
G01 X-43.0928 Y21.1048 
G01 X-42.9624 Y21.1048 
G01 X-42.8837 Y21.0837 
G01 X-42.8364 Y21.0711 
G01 X-42.8204 Y21.0618 
G01 X-42.7235 Y21.0059 
G01 X-42.6415 Y20.9239 
G01 X-42.6138 Y20.9079 
G01 X-42.5907 Y20.8848 
G01 X-42.5647 Y20.8649 
G01 X-42.5448 Y20.8389 
G01 X-42.5216 Y20.8157 
G01 X-42.5053 Y20.7874 
G01 X-42.4853 Y20.7614 
G01 X-42.4728 Y20.7311 
G01 X-42.4564 Y20.7028 
G01 X-42.4479 Y20.6712 
G01 X-42.4354 Y20.6409 
G01 X-42.4311 Y20.6084 
G01 X-42.4227 Y20.5768 
G01 X-42.4227 Y20.5441 
G01 X-42.4184 Y20.5116 
G01 X-42.4227 Y20.4791 
G01 X-42.4227 Y20.4464 
G01 X-42.4311 Y20.4148 
G01 X-42.4354 Y20.3823 
G01 X-42.4479 Y20.3521 
G01 X-42.4564 Y20.3204 
G01 X-42.4728 Y20.2921 
G01 X-42.4853 Y20.2618 
G01 X-42.5052 Y20.2359 
G01 X-42.5216 Y20.2075 
G01 X-42.5448 Y20.1843 
G01 X-42.5647 Y20.1584 
G01 X-42.5907 Y20.1384 
G01 X-42.6252 Y20.1040 
G01 X-42.6313 Y20.0934 
G01 X-42.6498 Y20.0749 
G01 X-42.6652 Y20.0537 
G00 Z2.5400 
G00 X-42.7235 Y23.0485 
G01 Z-0.1778 F100.00 
G01 X-42.7235 Y23.0485 F100.00 
G01 X-42.8175 Y22.9942 
G01 X-42.8364 Y22.9833 
G01 X-42.8814 Y22.9713 
G01 X-42.9624 Y22.9496 
G01 X-43.0928 Y22.9496 
G01 X-43.1830 Y22.9737 
G01 X-43.2188 Y22.9833 
G01 X-43.3317 Y23.0485 
G01 X-43.4225 Y23.1393 
G01 X-43.4782 Y23.2348 
G01 X-43.4891 Y23.2537 
G01 X-43.5012 Y23.2987 
G01 X-43.5229 Y23.3796 
G01 X-43.5229 Y26.1460 
G01 X-43.4891 Y26.2720 
G01 X-43.4239 Y26.3849 
G01 X-43.3317 Y26.4772 
G01 X-38.8684 Y30.9405 
G01 X-38.5840 Y31.2248 
G01 X-38.4429 Y31.5656 
G01 X-38.4429 Y33.7660 
G01 X-38.4091 Y33.8920 
G01 X-38.3439 Y34.0049 
G01 X-38.2517 Y34.0972 
G01 X-37.9072 Y34.4417 
G01 X-37.8149 Y34.5339 
G01 X-37.7020 Y34.5991 
G01 X-37.5760 Y34.6329 
G01 X-35.0122 Y34.6329 
G01 X-34.8862 Y34.5991 
G01 X-34.7733 Y34.5339 
G01 X-34.6811 Y34.4417 
G01 X-34.6159 Y34.3288 
G01 X-34.5821 Y34.2028 
G01 X-34.5821 Y34.0492 
G01 X-34.6159 Y33.9233 
G01 X-34.6811 Y33.8103 
G01 X-34.7733 Y33.7181 
G01 X-34.8464 Y33.6450 
G01 X-34.9257 Y33.4536 
G01 X-34.9257 Y31.9464 
G01 X-34.9151 Y31.9207 
G01 X-34.8979 Y31.8793 
G01 X-34.8809 Y31.7500 
G01 X-34.8979 Y31.6207 
G01 X-34.9195 Y31.5685 
G01 X-34.9257 Y31.5536 
G01 X-34.9257 Y30.0464 
G01 X-34.8464 Y29.8550 
G01 X-34.7625 Y29.7711 
G01 X-34.7365 Y29.7511 
G01 X-34.7165 Y29.7252 
G01 X-34.6934 Y29.7020 
G01 X-34.6888 Y29.6940 
G01 X-34.6651 Y29.6803 
G01 X-34.6418 Y29.6570 
G01 X-34.6157 Y29.6369 
G01 X-34.5959 Y29.6111 
G01 X-34.5729 Y29.5881 
G01 X-34.5564 Y29.5596 
G01 X-34.5363 Y29.5334 
G01 X-34.5239 Y29.5033 
G01 X-34.5076 Y29.4752 
G01 X-34.4991 Y29.4433 
G01 X-34.4865 Y29.4129 
G01 X-34.4823 Y29.3806 
G01 X-34.4739 Y29.3492 
G01 X-34.4739 Y29.3159 
G01 X-34.4696 Y29.2836 
G01 X-34.4739 Y29.2513 
G01 X-34.4739 Y29.2181 
G01 X-34.4827 Y29.1852 
G01 X-34.4868 Y29.1543 
G01 X-34.4987 Y29.1256 
G01 X-34.5076 Y29.0921 
G01 X-34.5253 Y29.0614 
G01 X-34.5368 Y29.0338 
G01 X-34.5549 Y29.0102 
G01 X-34.5729 Y28.9791 
G01 X-34.5987 Y28.9532 
G01 X-34.6162 Y28.9304 
G01 X-34.6390 Y28.9130 
G01 X-34.6651 Y28.8869 
G01 X-34.6977 Y28.8681 
G01 X-34.7198 Y28.8511 
G01 X-34.7454 Y28.8405 
G01 X-34.7780 Y28.8217 
G01 X-34.8151 Y28.8117 
G01 X-34.8403 Y28.8013 
G01 X-34.8673 Y28.7978 
G01 X-34.9040 Y28.7880 
G01 X-34.9427 Y28.7879 
G01 X-34.9696 Y28.7844 
G01 X-34.9964 Y28.7880 
G01 X-35.0344 Y28.7880 
G01 X-35.0718 Y28.7980 
G01 X-35.0989 Y28.8015 
G01 X-35.1240 Y28.8120 
G01 X-35.1604 Y28.8217 
G01 X-35.1936 Y28.8409 
G01 X-35.2206 Y28.8521 
G01 X-35.2436 Y28.8698 
G01 X-35.2733 Y28.8869 
G01 X-35.2981 Y28.9117 
G01 X-35.3240 Y28.9315 
G01 X-35.3438 Y28.9574 
G01 X-35.3602 Y28.9738 
G01 X-35.8317 Y29.1691 
G01 X-36.3419 Y29.1691 
G01 X-36.8134 Y28.9738 
G01 X-37.0527 Y28.7345 
G01 X-37.1656 Y28.6693 
G01 X-37.2916 Y28.6356 
G01 X-37.4220 Y28.6356 
G01 X-37.4543 Y28.6442 
G01 X-37.5480 Y28.6693 
G01 X-37.6609 Y28.7345 
G01 X-37.7531 Y28.8267 
G01 X-37.9002 Y28.9738 
G01 X-38.3717 Y29.1691 
G01 X-38.8819 Y29.1691 
G01 X-39.3534 Y28.9738 
G01 X-39.7142 Y28.6130 
G01 X-39.9095 Y28.1415 
G01 X-39.9095 Y26.1073 
G01 X-39.7142 Y25.6358 
G01 X-39.6529 Y25.5745 
G01 X-39.6362 Y25.5456 
G01 X-39.5877 Y25.4615 
G01 X-39.5814 Y25.4382 
G01 X-39.5539 Y25.3355 
G01 X-39.5539 Y25.1067 
G01 X-39.5750 Y25.0279 
G01 X-39.5876 Y24.9807 
G01 X-39.5969 Y24.9647 
G01 X-39.6529 Y24.8678 
G01 X-39.7275 Y24.7931 
G01 X-39.9057 Y24.3629 
G01 X-39.9057 Y23.7400 
G01 X-39.9395 Y23.6140 
G01 X-40.0047 Y23.5011 
G01 X-40.0969 Y23.4089 
G01 X-40.2098 Y23.3437 
G01 X-40.3358 Y23.3099 
G01 X-42.1859 Y23.3099 
G01 X-42.6574 Y23.1146 
G01 X-42.7221 Y23.0499 
G00 Z2.5400 
G00 X-39.2060 Y23.5561 
G01 Z-0.1778 F100.00 
G01 X-39.3089 Y23.6590 F100.00 
G01 X-39.3898 Y23.7800 
G01 X-39.4455 Y23.9145 
G01 X-39.4739 Y24.0572 
G01 X-39.4739 Y24.2028 
G01 X-39.4455 Y24.3455 
G01 X-39.3898 Y24.4800 
G01 X-39.3089 Y24.6010 
G01 X-39.2060 Y24.7039 
G01 X-39.1221 Y24.7600 
G01 X-39.1221 Y25.6700 
G01 X-39.1692 Y25.7015 
G01 X-39.2877 Y25.8200 
G01 X-39.3809 Y25.9593 
G01 X-39.4450 Y26.1142 
G01 X-39.4777 Y26.2786 
G01 X-39.4777 Y27.9702 
G01 X-39.4450 Y28.1346 
G01 X-39.3809 Y28.2894 
G01 X-39.2877 Y28.4288 
G01 X-39.1692 Y28.5473 
G01 X-39.0299 Y28.6405 
G01 X-38.8750 Y28.7046 
G01 X-38.7106 Y28.7373 
G01 X-38.5430 Y28.7373 
G01 X-38.3786 Y28.7046 
G01 X-38.2237 Y28.6405 
G01 X-38.0844 Y28.5473 
G01 X-37.9659 Y28.4288 
G01 X-37.8727 Y28.2894 
G01 X-37.8086 Y28.1346 
G01 X-37.7759 Y27.9702 
G01 X-37.7759 Y26.2786 
G01 X-37.8086 Y26.1142 
G01 X-37.8727 Y25.9593 
G01 X-37.9659 Y25.8200 
G01 X-38.0844 Y25.7015 
G01 X-38.1315 Y25.6700 
G01 X-38.1315 Y24.5568 
G01 X-38.0802 Y24.4800 
G01 X-38.0245 Y24.3455 
G01 X-37.9961 Y24.2028 
G01 X-37.9961 Y24.0572 
G01 X-38.0245 Y23.9145 
G01 X-38.0802 Y23.7800 
G01 X-38.1611 Y23.6590 
G01 X-38.2640 Y23.5561 
G01 X-38.3850 Y23.4752 
G01 X-38.5195 Y23.4195 
G01 X-38.6622 Y23.3911 
G01 X-38.8078 Y23.3911 
G01 X-38.9505 Y23.4195 
G01 X-39.0850 Y23.4752 
G01 X-39.2060 Y23.5561 
G00 Z2.5400 
G00 X-37.7691 Y23.4402 
G01 Z-0.1778 F100.00 
G01 X-37.7691 Y23.4402 F100.00 
G01 X-37.7030 Y23.4785 
G01 X-37.6562 Y23.5055 
G01 X-37.5950 Y23.5219 
G01 X-37.5302 Y23.5392 
G01 X-37.4665 Y23.5392 
G01 X-37.3998 Y23.5392 
G01 X-37.3292 Y23.5203 
G01 X-37.2738 Y23.5055 
G01 X-37.1903 Y23.4573 
G01 X-37.1609 Y23.4403 
G01 X-37.1294 Y23.4087 
G01 X-37.0686 Y23.3480 
G01 X-37.0371 Y23.3165 
G01 X-36.9986 Y23.2498 
G01 X-36.9719 Y23.2036 
G01 X-36.9554 Y23.1418 
G01 X-36.9382 Y23.0776 
G01 X-36.9382 Y23.0131 
G01 X-36.9382 Y22.9472 
G01 X-36.9573 Y22.8759 
G01 X-36.9719 Y22.8212 
G01 X-37.0205 Y22.7371 
G01 X-37.0371 Y22.7083 
G01 X-37.0981 Y22.6473 
G01 X-37.1293 Y22.6161 
G01 X-37.1961 Y22.5775 
G01 X-37.2423 Y22.5509 
G01 X-37.3041 Y22.5343 
G01 X-37.3682 Y22.5171 
G01 X-37.4327 Y22.5171 
G01 X-37.4987 Y22.5171 
G01 X-37.5617 Y22.5171 
G01 X-37.6877 Y22.5509 
G01 X-37.8006 Y22.6161 
G01 X-37.8929 Y22.7083 
G01 X-37.9581 Y22.8212 
G01 X-37.9918 Y22.9472 
G01 X-37.9918 Y23.0776 
G01 X-37.9581 Y23.2036 
G01 X-37.8929 Y23.3165 
G01 X-37.8006 Y23.4087 
G01 X-37.7691 Y23.4402 
G00 Z2.5400 
G00 X-36.6660 Y23.5561 
G01 Z-0.1778 F100.00 
G01 X-36.7689 Y23.6590 F100.00 
G01 X-36.8498 Y23.7800 
G01 X-36.9055 Y23.9145 
G01 X-36.9339 Y24.0572 
G01 X-36.9339 Y24.2028 
G01 X-36.9055 Y24.3455 
G01 X-36.8498 Y24.4800 
G01 X-36.7689 Y24.6010 
G01 X-36.6660 Y24.7039 
G01 X-36.5821 Y24.7600 
G01 X-36.5821 Y25.6700 
G01 X-36.6292 Y25.7015 
G01 X-36.7477 Y25.8200 
G01 X-36.8409 Y25.9593 
G01 X-36.9050 Y26.1142 
G01 X-36.9377 Y26.2786 
G01 X-36.9377 Y27.9702 
G01 X-36.9050 Y28.1346 
G01 X-36.8409 Y28.2894 
G01 X-36.7477 Y28.4288 
G01 X-36.6292 Y28.5473 
G01 X-36.4898 Y28.6405 
G01 X-36.3350 Y28.7046 
G01 X-36.1706 Y28.7373 
G01 X-36.0030 Y28.7373 
G01 X-35.8386 Y28.7046 
G01 X-35.6837 Y28.6405 
G01 X-35.5444 Y28.5473 
G01 X-35.4259 Y28.4288 
G01 X-35.3327 Y28.2894 
G01 X-35.2686 Y28.1346 
G01 X-35.2359 Y27.9702 
G01 X-35.2359 Y26.2786 
G01 X-35.2686 Y26.1142 
G01 X-35.3327 Y25.9593 
G01 X-35.4259 Y25.8200 
G01 X-35.5444 Y25.7015 
G01 X-35.5915 Y25.6700 
G01 X-35.5915 Y24.5568 
