( Made using CamBam - http://www.cambam.co.uk )
( Grbl Post Processor )
( batsense_outer 3/3/2018 8:59:51 PM )
( T2 : 2.0 )
G21 G90
G0 Z3.0
( T2 : 2.0 )
T2
( Profil1 )
( T2 : 2.0 )
T2
G17
M3 S1000
G0 X-46.0 Y-1.0
G0 Z1.0
G1 F100.0 Z-0.3
G1 X0.0
G3 X1.0 Y0.0 I0.0 J1.0
G1 Y38.0
G3 X0.0 Y39.0 I-1.0 J0.0
G1 X-46.0
G3 X-47.0 Y38.0 I0.0 J-1.0
G1 Y0.0
G3 X-46.0 Y-1.0 I1.0 J0.0
G1 Z-0.6
G1 X0.0
G3 X1.0 Y0.0 I0.0 J1.0
G1 Y38.0
G3 X0.0 Y39.0 I-1.0 J0.0
G1 X-46.0
G3 X-47.0 Y38.0 I0.0 J-1.0
G1 Y0.0
G3 X-46.0 Y-1.0 I1.0 J0.0
G1 Z-0.9
G1 X0.0
G3 X1.0 Y0.0 I0.0 J1.0
G1 Y38.0
G3 X0.0 Y39.0 I-1.0 J0.0
G1 X-46.0
G3 X-47.0 Y38.0 I0.0 J-1.0
G1 Y0.0
G3 X-46.0 Y-1.0 I1.0 J0.0
G1 Z-1.2
G1 X0.0
G3 X1.0 Y0.0 I0.0 J1.0
G1 Y38.0
G3 X0.0 Y39.0 I-1.0 J0.0
G1 X-46.0
G3 X-47.0 Y38.0 I0.0 J-1.0
G1 Y0.0
G3 X-46.0 Y-1.0 I1.0 J0.0
G1 Z-1.5
G1 X0.0
G3 X1.0 Y0.0 I0.0 J1.0
G1 Y38.0
G3 X0.0 Y39.0 I-1.0 J0.0
G1 X-46.0
G3 X-47.0 Y38.0 I0.0 J-1.0
G1 Y0.0
G3 X-46.0 Y-1.0 I1.0 J0.0
G1 Z-1.8
G1 X0.0
G3 X1.0 Y0.0 I0.0 J1.0
G1 Y38.0
G3 X0.0 Y39.0 I-1.0 J0.0
G1 X-46.0
G3 X-47.0 Y38.0 I0.0 J-1.0
G1 Y0.0
G3 X-46.0 Y-1.0 I1.0 J0.0
G1 Z-2.1
G1 X0.0
G3 X1.0 Y0.0 I0.0 J1.0
G1 Y38.0
G3 X0.0 Y39.0 I-1.0 J0.0
G1 X-46.0
G3 X-47.0 Y38.0 I0.0 J-1.0
G1 Y0.0
G3 X-46.0 Y-1.0 I1.0 J0.0
G1 Z-2.4
G1 X0.0
G3 X1.0 Y0.0 I0.0 J1.0
G1 Y38.0
G3 X0.0 Y39.0 I-1.0 J0.0
G1 X-46.0
G3 X-47.0 Y38.0 I0.0 J-1.0
G1 Y0.0
G3 X-46.0 Y-1.0 I1.0 J0.0
G1 Z-2.7
G1 X0.0
G3 X1.0 Y0.0 I0.0 J1.0
G1 Y38.0
G3 X0.0 Y39.0 I-1.0 J0.0
G1 X-46.0
G3 X-47.0 Y38.0 I0.0 J-1.0
G1 Y0.0
G3 X-46.0 Y-1.0 I1.0 J0.0
G1 Z-3.0
G1 X0.0
G3 X1.0 Y0.0 I0.0 J1.0
G1 Y38.0
G3 X0.0 Y39.0 I-1.0 J0.0
G1 X-46.0
G3 X-47.0 Y38.0 I0.0 J-1.0
G1 Y0.0
G3 X-46.0 Y-1.0 I1.0 J0.0
G0 Z3.0
M5
