(.../pcb-gcode-3.6.2.4/pcb-gcode.ulp)
(Copyright 2005 - 2012 by John Johnson)
(See readme.txt for licensing terms.)
(This file generated from the board:)
(.../workspace_pcbgcode/BATSENSE/attiny_batsense.brd)
(Current profile is .../pcb-gcode-3.6.2.4/profiles/generic.pp  )
(This file generated 03.03.2018 21:22)
(Settings from pcb-machine.h)
(spindle on time = 3.0000)
(spindle speed = 20000.0000)
(tool change at 0.0000 0.0000 1.0000 )
(feed rate xy = F0.00  )
(feed rate z  = F3.94  )
(Z Axis Settings)
(  High     Up        Down     Drill)
(0.5000 	0.1000 	-0.0070 	-0.1181 )
(Settings from pcb-defaults.h)
(isolate min = 0.0000)
(isolate max = 0.0150)
(isolate step = 0.0040)
(Generated bottom outlines, bottom drill, )
(Unit of measure: inch)
( Tool|       Size       |  Min Sub |  Max Sub |   Count )
( T01  0.350mm 0.0138in 0.0000in 0.0000in )
( T02  0.813mm 0.0320in 0.0000in 0.0000in )
( T03  1.016mm 0.0400in 0.0000in 0.0000in )
( T04  2.800mm 0.1102in 0.0000in 0.0000in )
(Inch Mode)
G20
(Absolute Coordinates)
G90
S20000
G00 Z0.5000 
G00 X0.0000 Y0.0000 
M03
G04 P3.000000
M05
G00 Z1.0000 
M06 T01  ; 0.0138 
G01 Z0.0000 F3.94  
M06 
G00 Z0.1000 
M03
G04 P3.000000
G00 X-0.1000 Y1.0500 
G01 Z-0.1181 F3.94  
G00 Z0.1000 
G00 X-0.3000 Y1.1500 
G01 Z-0.1181 F3.94  
G00 Z0.1000 
G00 X-0.8500 Y1.1000 
G01 Z-0.1181 F3.94  
G00 Z0.1000 
G00 X-0.8500 Y0.7000 
G01 Z-0.1181 F3.94  
G00 Z0.1000 
G00 X-1.1500 Y0.6000 
G01 Z-0.1181 F3.94  
G00 Z0.1000 
G00 X-1.5000 Y0.7500 
G01 Z-0.1181 F3.94  
G00 Z0.1000 
M05
G00 Z1.0000 
G00 X0.0000 Y0.0000 
M06 T02  ; 0.0320 
G01 Z0.0000 F3.94  
M06 
G00 Z0.1000 
M03
G04 P3.000000
G00 X-0.3500 Y1.2500 
G01 Z-0.1181 F3.94  
G00 Z0.1000 
G00 X-0.4500 Y1.2500 
G01 Z-0.1181 F3.94  
G00 Z0.1000 
M05
G00 Z1.0000 
G00 X0.0000 Y0.0000 
M06 T03  ; 0.0400 
G01 Z0.0000 F3.94  
M06 
G00 Z0.1000 
M03
G04 P3.000000
G00 X-0.3287 Y0.9919 
G01 Z-0.1181 F3.94  
G00 Z0.1000 
G00 X-0.4287 Y0.9919 
G01 Z-0.1181 F3.94  
G00 Z0.1000 
G00 X-0.5287 Y0.9919 
G01 Z-0.1181 F3.94  
G00 Z0.1000 
G00 X-0.8060 Y1.2900 
G01 Z-0.1181 F3.94  
G00 Z0.1000 
G00 X-0.9060 Y1.2900 
G01 Z-0.1181 F3.94  
G00 Z0.1000 
G00 X-1.0060 Y1.2900 
G01 Z-0.1181 F3.94  
G00 Z0.1000 
G00 X-1.1060 Y1.2900 
G01 Z-0.1181 F3.94  
G00 Z0.1000 
G00 X-1.1213 Y1.0681 
G01 Z-0.1181 F3.94  
G00 Z0.1000 
G00 X-1.2213 Y1.0681 
G01 Z-0.1181 F3.94  
G00 Z0.1000 
G00 X-1.3213 Y1.0681 
G01 Z-0.1181 F3.94  
G00 Z0.1000 
G00 X-1.4213 Y1.0681 
G01 Z-0.1181 F3.94  
G00 Z0.1000 
G00 X-1.5213 Y1.0681 
G01 Z-0.1181 F3.94  
G00 Z0.1000 
G00 X-1.6208 Y0.8672 
G01 Z-0.1181 F3.94  
G00 Z0.1000 
G00 X-1.6208 Y0.7672 
G01 Z-0.1181 F3.94  
G00 Z0.1000 
G00 X-1.6208 Y0.6672 
G01 Z-0.1181 F3.94  
G00 Z0.1000 
G00 X-1.0213 Y1.0681 
G01 Z-0.1181 F3.94  
G00 Z0.1000 
G00 X-0.8000 Y0.1750 
G01 Z-0.1181 F3.94  
G00 Z0.1000 
G00 X-0.7000 Y0.1750 
G01 Z-0.1181 F3.94  
G00 Z0.1000 
M05
G00 Z1.0000 
G00 X0.0000 Y0.0000 
M06 T04  ; 0.1102 
G01 Z0.0000 F3.94  
M06 
G00 Z0.1000 
M03
G04 P3.000000
G00 X-0.1394 Y0.1250 
G01 Z-0.1181 F3.94  
G00 Z0.1000 
G00 X-1.0315 Y0.2939 
G01 Z-0.1181 F3.94  
G00 Z0.1000 
G00 X-1.6220 Y0.2939 
G01 Z-0.1181 F3.94  
G00 Z0.1000 
G00 X-1.6803 Y0.1250 
G01 Z-0.1181 F3.94  
G00 Z0.1000 
G00 X-1.6803 Y1.3250 
G01 Z-0.1181 F3.94  
G00 Z0.1000 
G00 X-0.1394 Y1.3250 
G01 Z-0.1181 F3.94  
G00 Z0.1000 
T01 
G00 Z0.5000 
M05
M02
