(.../pcb-gcode-3.6.2.4/pcb-gcode.ulp)
(Copyright 2005 - 2012 by John Johnson)
(See readme.txt for licensing terms.)
(This file generated from the board:)
(.../workspace_pcbgcode/BATSENSE/attiny_batsense.brd)
(Current profile is .../pcb-gcode-3.6.2.4/profiles/generic.pp  )
(This file generated 03.03.2018 21:22)
(Settings from pcb-machine.h)
(spindle on time = 3.0000)
(  Tool Size)
(0.0070 )
(spindle speed = 30000.0000)
(tool change at 0.0000 0.0000 1.0000 )
(feed rate xy = F3.94  )
(feed rate z  = F3.94  )
(Z Axis Settings)
(  High     Up        Down     Drill)
(0.5000 	0.1000 	-0.0070 	-0.1181 )
(Settings from pcb-defaults.h)
(isolate min = 0.0000)
(isolate max = 0.0150)
(isolate step = 0.0040)
(Generated bottom outlines, bottom drill, )
(Unit of measure: inch)
(Inch Mode)
G20
(Absolute Coordinates)
G90
S30000
G00 Z0.5000 
G00 X0.0000 Y0.0000 
M03
G04 P3.000000
G00 Z0.1000 
G00 X-0.0343 Y0.0350 
G01 Z-0.0070 F3.94  
G01 X-0.0347 Y0.0347 F3.94  
G01 X-0.0350 Y0.0343 
G01 X-0.0360 Y0.0336 
G01 X-0.0363 Y0.0333 
G01 X-0.0374 Y0.0326 
G01 X-0.0383 Y0.0318 
G01 X-0.0388 Y0.0316 
G01 X-0.0397 Y0.0309 
G01 X-0.0402 Y0.0307 
G01 X-0.0406 Y0.0305 
G01 X-0.0423 Y0.0299 
G01 X-0.0425 Y0.0298 
G01 X-0.0428 Y0.0297 
G01 X-0.0445 Y0.0291 
G01 X-0.0448 Y0.0291 
G01 X-0.0456 Y0.0288 
G01 X-0.0459 Y0.0288 
G01 X-0.0461 Y0.0287 
G01 X-0.0469 Y0.0286 
G01 X-0.0474 Y0.0285 
G01 X-0.0492 Y0.0285 
G01 X-0.0510 Y0.0284 
G01 X-0.0518 Y0.0285 
G01 X-0.0844 Y0.0285 
G01 X-0.0892 Y0.0298 
G01 X-0.0894 Y0.0298 
G01 X-0.0938 Y0.0324 
G01 X-0.0975 Y0.0360 
G01 X-0.1000 Y0.0405 
G01 X-0.1014 Y0.0454 
G01 X-0.1014 Y0.0506 
G01 X-0.1001 Y0.0553 
G01 X-0.1000 Y0.0555 
G01 X-0.0975 Y0.0600 
G01 X-0.0938 Y0.0636 
G01 X-0.0753 Y0.0822 
G01 X-0.0665 Y0.1033 
G01 X-0.0662 Y0.1046 
G01 X-0.0655 Y0.1057 
G01 X-0.0650 Y0.1069 
G01 X-0.0642 Y0.1079 
G01 X-0.0636 Y0.1090 
G01 X-0.0627 Y0.1099 
G01 X-0.0619 Y0.1109 
G01 X-0.0609 Y0.1117 
G01 X-0.0600 Y0.1126 
G01 X-0.0589 Y0.1133 
G01 X-0.0578 Y0.1141 
G01 X-0.0566 Y0.1146 
G01 X-0.0555 Y0.1152 
G01 X-0.0543 Y0.1155 
G01 X-0.0531 Y0.1160 
G01 X-0.0518 Y0.1162 
G01 X-0.0506 Y0.1165 
G01 X-0.0493 Y0.1165 
G01 X-0.0480 Y0.1167 
G01 X-0.0467 Y0.1165 
G01 X-0.0454 Y0.1165 
G01 X-0.0442 Y0.1162 
G01 X-0.0429 Y0.1160 
G01 X-0.0417 Y0.1155 
G01 X-0.0405 Y0.1152 
G01 X-0.0394 Y0.1146 
G01 X-0.0382 Y0.1141 
G01 X-0.0371 Y0.1133 
G01 X-0.0360 Y0.1126 
G01 X-0.0351 Y0.1117 
G01 X-0.0341 Y0.1109 
G01 X-0.0333 Y0.1099 
G01 X-0.0324 Y0.1090 
G01 X-0.0318 Y0.1079 
G01 X-0.0310 Y0.1069 
G01 X-0.0305 Y0.1057 
G01 X-0.0298 Y0.1046 
G01 X-0.0295 Y0.1033 
G01 X-0.0290 Y0.1021 
G01 X-0.0288 Y0.1008 
G01 X-0.0285 Y0.0996 
G01 X-0.0285 Y0.0983 
G01 X-0.0283 Y0.0970 
G01 X-0.0285 Y0.0958 
G01 X-0.0285 Y0.0518 
G01 X-0.0284 Y0.0510 
G01 X-0.0285 Y0.0492 
G01 X-0.0285 Y0.0474 
G01 X-0.0286 Y0.0469 
G01 X-0.0287 Y0.0461 
G01 X-0.0288 Y0.0459 
G01 X-0.0288 Y0.0456 
G01 X-0.0291 Y0.0448 
G01 X-0.0291 Y0.0445 
G01 X-0.0297 Y0.0428 
G01 X-0.0298 Y0.0425 
G01 X-0.0299 Y0.0423 
G01 X-0.0305 Y0.0406 
G01 X-0.0307 Y0.0402 
G01 X-0.0309 Y0.0397 
G01 X-0.0316 Y0.0388 
G01 X-0.0318 Y0.0383 
G01 X-0.0326 Y0.0374 
G01 X-0.0333 Y0.0363 
G01 X-0.0336 Y0.0360 
G01 X-0.0343 Y0.0350 
G00 Z0.1000 
G00 X-0.0360 Y0.1374 
G01 Z-0.0070 F3.94  
G01 X-0.0371 Y0.1367 F3.94  
G01 X-0.0382 Y0.1359 
G01 X-0.0394 Y0.1354 
G01 X-0.0405 Y0.1348 
G01 X-0.0417 Y0.1345 
G01 X-0.0429 Y0.1340 
G01 X-0.0442 Y0.1338 
G01 X-0.0454 Y0.1335 
G01 X-0.0467 Y0.1335 
G01 X-0.0480 Y0.1333 
G01 X-0.0493 Y0.1335 
G01 X-0.0506 Y0.1335 
G01 X-0.0518 Y0.1338 
G01 X-0.0531 Y0.1340 
G01 X-0.0543 Y0.1345 
G01 X-0.0555 Y0.1348 
G01 X-0.0566 Y0.1354 
G01 X-0.0578 Y0.1359 
G01 X-0.0589 Y0.1367 
G01 X-0.0600 Y0.1374 
G01 X-0.0609 Y0.1383 
G01 X-0.0619 Y0.1391 
G01 X-0.0627 Y0.1401 
G01 X-0.0636 Y0.1410 
G01 X-0.0642 Y0.1421 
G01 X-0.0650 Y0.1431 
G01 X-0.0655 Y0.1443 
G01 X-0.0662 Y0.1454 
G01 X-0.0665 Y0.1467 
G01 X-0.0753 Y0.1678 
G01 X-0.0965 Y0.1891 
G01 X-0.1243 Y0.2006 
G01 X-0.1544 Y0.2006 
G01 X-0.1822 Y0.1891 
G01 X-0.2035 Y0.1678 
G01 X-0.2150 Y0.1400 
G01 X-0.2150 Y0.1100 
G01 X-0.2035 Y0.0822 
G01 X-0.1849 Y0.0636 
G01 X-0.1817 Y0.0604 
G01 X-0.1813 Y0.0600 
G01 X-0.1788 Y0.0557 
G01 X-0.1787 Y0.0555 
G01 X-0.1774 Y0.0506 
G01 X-0.1774 Y0.0454 
G01 X-0.1774 Y0.0452 
G01 X-0.1787 Y0.0405 
G01 X-0.1812 Y0.0361 
G01 X-0.1849 Y0.0324 
G01 X-0.1892 Y0.0299 
G01 X-0.1894 Y0.0298 
G01 X-0.1943 Y0.0285 
G01 X-1.1922 Y0.0285 
G01 X-1.1935 Y0.0288 
G01 X-1.1972 Y0.0298 
G01 X-1.2016 Y0.0324 
G01 X-1.2052 Y0.0360 
G01 X-1.2078 Y0.0405 
G01 X-1.2091 Y0.0454 
G01 X-1.2091 Y0.0506 
G01 X-1.2088 Y0.0518 
G01 X-1.2078 Y0.0555 
G01 X-1.2052 Y0.0600 
G01 X-1.2016 Y0.0636 
G01 X-1.1960 Y0.0693 
G01 X-1.1925 Y0.0775 
G01 X-1.1925 Y0.0865 
G01 X-1.1961 Y0.0952 
G01 X-1.1981 Y0.0998 
G01 X-1.1981 Y0.0999 
G01 X-1.1982 Y0.1004 
G01 X-1.1988 Y0.1050 
G01 X-1.1981 Y0.1101 
G01 X-1.1918 Y0.1253 
G01 X-1.1887 Y0.1294 
G01 X-1.1846 Y0.1325 
G01 X-1.1788 Y0.1349 
G01 X-1.1761 Y0.1360 
G01 X-1.1741 Y0.1369 
G01 X-1.1711 Y0.1373 
G01 X-1.1690 Y0.1376 
G01 X-1.1670 Y0.1373 
G01 X-1.1639 Y0.1369 
G01 X-1.1628 Y0.1364 
G01 X-1.1592 Y0.1349 
G01 X-1.1581 Y0.1345 
G01 X-1.1492 Y0.1345 
G01 X-1.1405 Y0.1381 
G01 X-1.1370 Y0.1395 
G01 X-1.1357 Y0.1401 
G01 X-1.1322 Y0.1405 
G01 X-1.1306 Y0.1407 
G01 X-1.1291 Y0.1405 
G01 X-1.1255 Y0.1401 
G01 X-1.1244 Y0.1396 
G01 X-1.1208 Y0.1381 
G01 X-1.1121 Y0.1345 
G01 X-1.1031 Y0.1345 
G01 X-1.1021 Y0.1349 
G01 X-1.0974 Y0.1369 
G01 X-1.0941 Y0.1373 
G01 X-1.0923 Y0.1376 
G01 X-1.0905 Y0.1373 
G01 X-1.0872 Y0.1369 
G01 X-1.0824 Y0.1349 
G01 X-1.0814 Y0.1345 
G01 X-1.0417 Y0.1345 
G01 X-1.0412 Y0.1347 
G01 X-1.0406 Y0.1351 
G01 X-1.0388 Y0.1357 
G01 X-1.0370 Y0.1364 
G01 X-1.0364 Y0.1365 
G01 X-1.0358 Y0.1367 
G01 X-1.0339 Y0.1369 
G01 X-1.0319 Y0.1371 
G01 X-1.0313 Y0.1370 
G01 X-1.0306 Y0.1371 
G01 X-1.0288 Y0.1367 
G01 X-1.0269 Y0.1365 
G01 X-1.0263 Y0.1362 
G01 X-1.0246 Y0.1359 
G01 X-1.0227 Y0.1356 
G01 X-1.0221 Y0.1354 
G01 X-1.0215 Y0.1352 
G01 X-1.0200 Y0.1345 
G01 X-1.0184 Y0.1346 
G01 X-1.0178 Y0.1345 
G01 X-1.0171 Y0.1345 
G01 X-1.0156 Y0.1341 
G01 X-1.0140 Y0.1345 
G01 X-1.0133 Y0.1345 
G01 X-1.0127 Y0.1346 
G01 X-1.0111 Y0.1345 
G01 X-1.0096 Y0.1352 
G01 X-1.0090 Y0.1354 
G01 X-1.0084 Y0.1356 
G01 X-1.0065 Y0.1359 
G01 X-1.0049 Y0.1362 
G01 X-1.0042 Y0.1365 
G01 X-1.0036 Y0.1365 
G01 X-1.0030 Y0.1367 
G01 X-1.0015 Y0.1368 
G01 X-1.0004 Y0.1370 
G01 X-1.0000 Y0.1370 
G01 X-0.9991 Y0.1371 
G01 X-0.9985 Y0.1370 
G01 X-0.9978 Y0.1371 
G01 X-0.9962 Y0.1368 
G01 X-0.9953 Y0.1367 
G01 X-0.9949 Y0.1366 
G01 X-0.9940 Y0.1365 
G01 X-0.9934 Y0.1362 
G01 X-0.9928 Y0.1361 
G01 X-0.9913 Y0.1353 
G01 X-0.9905 Y0.1351 
G01 X-0.9902 Y0.1349 
G01 X-0.9893 Y0.1345 
G01 X-0.9766 Y0.1345 
G01 X-0.9717 Y0.1332 
G01 X-0.9672 Y0.1306 
G01 X-0.9669 Y0.1303 
G01 X-0.9586 Y0.1268 
G01 X-0.9190 Y0.1268 
G01 X-0.9107 Y0.1303 
G01 X-0.9044 Y0.1366 
G01 X-0.9010 Y0.1449 
G01 X-0.9010 Y0.1538 
G01 X-0.9044 Y0.1621 
G01 X-0.9107 Y0.1684 
G01 X-0.9190 Y0.1718 
G01 X-0.9301 Y0.1718 
G01 X-0.9350 Y0.1732 
G01 X-0.9395 Y0.1757 
G01 X-0.9431 Y0.1794 
G01 X-0.9457 Y0.1838 
G01 X-0.9470 Y0.1888 
G01 X-0.9470 Y0.2075 
G01 X-0.9504 Y0.2158 
G01 X-0.9567 Y0.2221 
G01 X-0.9596 Y0.2233 
G01 X-0.9604 Y0.2236 
G01 X-0.9625 Y0.2253 
G01 X-0.9645 Y0.2268 
G01 X-0.9676 Y0.2308 
G01 X-0.9684 Y0.2328 
G01 X-0.9696 Y0.2356 
G01 X-0.9703 Y0.2407 
G01 X-0.9696 Y0.2458 
G01 X-0.9559 Y0.2789 
G01 X-0.9559 Y0.3089 
G01 X-0.9674 Y0.3367 
G01 X-0.9887 Y0.3580 
G01 X-1.0165 Y0.3695 
G01 X-1.0465 Y0.3695 
G01 X-1.0743 Y0.3580 
G01 X-1.0956 Y0.3367 
G01 X-1.1071 Y0.3089 
G01 X-1.1071 Y0.2789 
G01 X-1.0967 Y0.2537 
G01 X-1.0960 Y0.2526 
G01 X-1.0957 Y0.2513 
G01 X-1.0952 Y0.2501 
G01 X-1.0950 Y0.2489 
G01 X-1.0947 Y0.2476 
G01 X-1.0947 Y0.2463 
G01 X-1.0945 Y0.2450 
G01 X-1.0947 Y0.2438 
G01 X-1.0947 Y0.2425 
G01 X-1.0950 Y0.2412 
G01 X-1.0952 Y0.2399 
G01 X-1.0957 Y0.2388 
G01 X-1.0960 Y0.2375 
G01 X-1.0967 Y0.2364 
G01 X-1.0972 Y0.2352 
G01 X-1.0980 Y0.2342 
G01 X-1.0986 Y0.2331 
G01 X-1.0995 Y0.2322 
G01 X-1.1003 Y0.2311 
G01 X-1.1013 Y0.2303 
G01 X-1.1022 Y0.2294 
G01 X-1.1034 Y0.2288 
G01 X-1.1044 Y0.2280 
G01 X-1.1056 Y0.2275 
G01 X-1.1067 Y0.2269 
G01 X-1.1079 Y0.2265 
G01 X-1.1091 Y0.2260 
G01 X-1.1104 Y0.2259 
G01 X-1.1116 Y0.2255 
G01 X-1.1129 Y0.2255 
G01 X-1.1142 Y0.2254 
G01 X-1.1155 Y0.2255 
G01 X-1.1735 Y0.2255 
G01 X-1.1745 Y0.2251 
G01 X-1.1792 Y0.2231 
G01 X-1.1825 Y0.2227 
G01 X-1.1843 Y0.2225 
G01 X-1.1861 Y0.2227 
G01 X-1.1894 Y0.2231 
G01 X-1.1942 Y0.2251 
G01 X-1.1952 Y0.2255 
G01 X-1.2042 Y0.2255 
G01 X-1.2088 Y0.2236 
G01 X-1.2124 Y0.2221 
G01 X-1.2263 Y0.2083 
G01 X-1.2298 Y0.2047 
G01 X-1.2299 Y0.2046 
G01 X-1.2344 Y0.2021 
G01 X-1.2379 Y0.2011 
G01 X-1.2393 Y0.2007 
G01 X-1.2445 Y0.2007 
G01 X-1.2494 Y0.2021 
G01 X-1.2539 Y0.2046 
G01 X-1.2574 Y0.2082 
G01 X-1.2641 Y0.2149 
G01 X-1.2713 Y0.2221 
G01 X-1.2796 Y0.2255 
G01 X-1.3116 Y0.2255 
G01 X-1.3203 Y0.2219 
G01 X-1.3250 Y0.2200 
G01 X-1.3301 Y0.2193 
G01 X-1.3352 Y0.2200 
G01 X-1.3400 Y0.2219 
G01 X-1.3487 Y0.2255 
G01 X-1.4497 Y0.2255 
G01 X-1.4507 Y0.2251 
G01 X-1.4543 Y0.2237 
G01 X-1.4555 Y0.2231 
G01 X-1.4582 Y0.2228 
G01 X-1.4606 Y0.2225 
G01 X-1.4629 Y0.2228 
G01 X-1.4657 Y0.2231 
G01 X-1.4668 Y0.2236 
G01 X-1.4704 Y0.2251 
G01 X-1.4714 Y0.2255 
G01 X-1.4804 Y0.2255 
G01 X-1.4823 Y0.2247 
G01 X-1.4840 Y0.2245 
G01 X-1.4874 Y0.2241 
G01 X-1.4907 Y0.2245 
G01 X-1.4925 Y0.2247 
G01 X-1.4945 Y0.2255 
G01 X-1.5053 Y0.2255 
G01 X-1.5073 Y0.2254 
G01 X-1.5079 Y0.2255 
G01 X-1.5085 Y0.2255 
G01 X-1.5118 Y0.2255 
G01 X-1.5188 Y0.2255 
G01 X-1.5207 Y0.2247 
G01 X-1.5210 Y0.2247 
G01 X-1.5258 Y0.2241 
G01 X-1.5305 Y0.2247 
G01 X-1.5309 Y0.2247 
G01 X-1.5328 Y0.2255 
G01 X-1.5381 Y0.2255 
G01 X-1.5393 Y0.2254 
G01 X-1.5406 Y0.2255 
G01 X-1.5419 Y0.2255 
G01 X-1.5431 Y0.2259 
G01 X-1.5444 Y0.2260 
G01 X-1.5456 Y0.2265 
G01 X-1.5469 Y0.2269 
G01 X-1.5480 Y0.2275 
G01 X-1.5492 Y0.2280 
G01 X-1.5502 Y0.2288 
G01 X-1.5513 Y0.2294 
G01 X-1.5522 Y0.2303 
G01 X-1.5532 Y0.2311 
G01 X-1.5540 Y0.2322 
G01 X-1.5549 Y0.2331 
G01 X-1.5556 Y0.2342 
G01 X-1.5564 Y0.2352 
G01 X-1.5569 Y0.2364 
G01 X-1.5575 Y0.2375 
G01 X-1.5578 Y0.2388 
G01 X-1.5583 Y0.2399 
G01 X-1.5585 Y0.2412 
G01 X-1.5588 Y0.2425 
G01 X-1.5588 Y0.2438 
G01 X-1.5590 Y0.2450 
G01 X-1.5588 Y0.2463 
G01 X-1.5588 Y0.2476 
G01 X-1.5585 Y0.2489 
G01 X-1.5583 Y0.2501 
G01 X-1.5578 Y0.2513 
G01 X-1.5575 Y0.2526 
G01 X-1.5569 Y0.2537 
G01 X-1.5464 Y0.2789 
G01 X-1.5464 Y0.3089 
G01 X-1.5579 Y0.3367 
G01 X-1.5792 Y0.3580 
G01 X-1.6070 Y0.3695 
G01 X-1.6371 Y0.3695 
G01 X-1.6649 Y0.3580 
G01 X-1.6862 Y0.3367 
G01 X-1.6977 Y0.3089 
G01 X-1.6977 Y0.2789 
G01 X-1.6862 Y0.2511 
G01 X-1.6708 Y0.2357 
G01 X-1.6675 Y0.2325 
G01 X-1.6672 Y0.2321 
G01 X-1.6647 Y0.2278 
G01 X-1.6646 Y0.2276 
G01 X-1.6633 Y0.2227 
G01 X-1.6633 Y0.2176 
G01 X-1.6633 Y0.2173 
G01 X-1.6646 Y0.2126 
G01 X-1.6671 Y0.2082 
G01 X-1.6708 Y0.2045 
G01 X-1.6751 Y0.2020 
G01 X-1.6753 Y0.2019 
G01 X-1.6802 Y0.2006 
G01 X-1.6954 Y0.2006 
G01 X-1.7231 Y0.1891 
G01 X-1.7364 Y0.1759 
G01 X-1.7397 Y0.1726 
G01 X-1.7400 Y0.1722 
G01 X-1.7443 Y0.1697 
G01 X-1.7445 Y0.1697 
G01 X-1.7494 Y0.1683 
G01 X-1.7546 Y0.1683 
G01 X-1.7548 Y0.1684 
G01 X-1.7595 Y0.1697 
G01 X-1.7639 Y0.1722 
G01 X-1.7676 Y0.1759 
G01 X-1.7701 Y0.1802 
G01 X-1.7702 Y0.1803 
G01 X-1.7715 Y0.1853 
G01 X-1.7715 Y0.6254 
G01 X-1.7704 Y0.6293 
G01 X-1.7702 Y0.6303 
G01 X-1.7683 Y0.6335 
G01 X-1.7676 Y0.6348 
G01 X-1.7640 Y0.6384 
G01 X-1.7616 Y0.6398 
G01 X-1.7595 Y0.6410 
G01 X-1.7586 Y0.6412 
G01 X-1.7546 Y0.6423 
G01 X-1.7494 Y0.6423 
G01 X-1.7455 Y0.6413 
G01 X-1.7445 Y0.6410 
G01 X-1.7413 Y0.6391 
G01 X-1.7400 Y0.6384 
G01 X-1.7379 Y0.6363 
G01 X-1.7245 Y0.6307 
G01 X-1.6912 Y0.6307 
G01 X-1.6863 Y0.6294 
G01 X-1.6818 Y0.6268 
G01 X-1.6794 Y0.6244 
G01 X-1.6609 Y0.6167 
G01 X-1.5808 Y0.6167 
G01 X-1.5646 Y0.6234 
G01 X-1.5635 Y0.6240 
G01 X-1.5623 Y0.6244 
G01 X-1.5611 Y0.6249 
G01 X-1.5598 Y0.6250 
G01 X-1.5586 Y0.6254 
G01 X-1.5573 Y0.6254 
G01 X-1.5560 Y0.6255 
G01 X-1.5547 Y0.6254 
G01 X-1.5534 Y0.6254 
G01 X-1.5522 Y0.6250 
G01 X-1.5509 Y0.6249 
G01 X-1.5497 Y0.6244 
G01 X-1.5485 Y0.6240 
G01 X-1.5474 Y0.6234 
G01 X-1.5462 Y0.6229 
G01 X-1.5451 Y0.6221 
G01 X-1.5440 Y0.6215 
G01 X-1.5431 Y0.6206 
G01 X-1.5421 Y0.6198 
G01 X-1.5413 Y0.6188 
G01 X-1.5404 Y0.6178 
G01 X-1.5398 Y0.6167 
G01 X-1.5390 Y0.6157 
G01 X-1.5385 Y0.6145 
G01 X-1.5378 Y0.6134 
G01 X-1.5375 Y0.6121 
G01 X-1.5370 Y0.6110 
G01 X-1.5368 Y0.6097 
G01 X-1.5365 Y0.6084 
G01 X-1.5365 Y0.6071 
G01 X-1.5363 Y0.6059 
G01 X-1.5365 Y0.6046 
G01 X-1.5365 Y0.4427 
G01 X-1.5309 Y0.4293 
G01 X-1.4319 Y0.3303 
G01 X-1.4207 Y0.3191 
G01 X-1.4073 Y0.3135 
G01 X-1.1927 Y0.3135 
G01 X-1.1793 Y0.3191 
G01 X-1.0888 Y0.4096 
G01 X-1.0843 Y0.4122 
G01 X-1.0794 Y0.4135 
G01 X-0.8561 Y0.4135 
G01 X-0.8549 Y0.4137 
G01 X-0.8536 Y0.4135 
G01 X-0.8523 Y0.4135 
G01 X-0.8511 Y0.4132 
G01 X-0.8498 Y0.4130 
G01 X-0.8486 Y0.4125 
G01 X-0.8473 Y0.4122 
G01 X-0.8462 Y0.4115 
G01 X-0.8450 Y0.4110 
G01 X-0.8440 Y0.4102 
G01 X-0.8429 Y0.4096 
G01 X-0.8420 Y0.4087 
G01 X-0.8410 Y0.4079 
G01 X-0.8402 Y0.4069 
G01 X-0.8393 Y0.4060 
G01 X-0.8386 Y0.4049 
G01 X-0.8378 Y0.4038 
G01 X-0.8373 Y0.4026 
G01 X-0.8367 Y0.4015 
G01 X-0.8364 Y0.4003 
G01 X-0.8359 Y0.3991 
G01 X-0.8357 Y0.3978 
G01 X-0.8354 Y0.3966 
G01 X-0.8354 Y0.3953 
G01 X-0.8352 Y0.3940 
G01 X-0.8354 Y0.3927 
G01 X-0.8354 Y0.3914 
G01 X-0.8357 Y0.3902 
G01 X-0.8359 Y0.3889 
G01 X-0.8364 Y0.3877 
G01 X-0.8365 Y0.3872 
G01 X-0.8365 Y0.2454 
G01 X-0.8378 Y0.2405 
G01 X-0.8404 Y0.2360 
G01 X-0.8428 Y0.2336 
G01 X-0.8505 Y0.2150 
G01 X-0.8505 Y0.1350 
G01 X-0.8428 Y0.1164 
G01 X-0.8286 Y0.1022 
G01 X-0.8100 Y0.0945 
G01 X-0.7900 Y0.0945 
G01 X-0.7714 Y0.1022 
G01 X-0.7566 Y0.1170 
G01 X-0.7559 Y0.1181 
G01 X-0.7550 Y0.1190 
G01 X-0.7542 Y0.1200 
G01 X-0.7532 Y0.1208 
G01 X-0.7523 Y0.1217 
G01 X-0.7512 Y0.1224 
G01 X-0.7502 Y0.1232 
G01 X-0.7490 Y0.1237 
G01 X-0.7479 Y0.1243 
G01 X-0.7466 Y0.1246 
G01 X-0.7454 Y0.1251 
G01 X-0.7441 Y0.1253 
G01 X-0.7429 Y0.1256 
G01 X-0.7416 Y0.1256 
G01 X-0.7403 Y0.1258 
G01 X-0.7391 Y0.1256 
G01 X-0.7378 Y0.1256 
G01 X-0.7365 Y0.1253 
G01 X-0.7352 Y0.1251 
G01 X-0.7341 Y0.1246 
G01 X-0.7328 Y0.1243 
G01 X-0.7317 Y0.1237 
G01 X-0.7305 Y0.1232 
G01 X-0.7295 Y0.1224 
G01 X-0.7284 Y0.1217 
G01 X-0.7274 Y0.1208 
G01 X-0.7264 Y0.1200 
G01 X-0.7256 Y0.1190 
G01 X-0.7238 Y0.1172 
G01 X-0.7195 Y0.1141 
G01 X-0.7195 Y0.1177 
G01 X-0.7214 Y0.1190 
G01 X-0.7260 Y0.1236 
G01 X-0.7297 Y0.1291 
G01 X-0.7322 Y0.1352 
G01 X-0.7335 Y0.1417 
G01 X-0.7335 Y0.2083 
G01 X-0.7322 Y0.2148 
G01 X-0.7297 Y0.2209 
G01 X-0.7260 Y0.2264 
G01 X-0.7214 Y0.2310 
G01 X-0.7195 Y0.2323 
G01 X-0.7195 Y0.2359 
G01 X-0.7238 Y0.2328 
G01 X-0.7256 Y0.2310 
G01 X-0.7264 Y0.2300 
G01 X-0.7274 Y0.2292 
G01 X-0.7284 Y0.2283 
G01 X-0.7295 Y0.2276 
G01 X-0.7305 Y0.2268 
G01 X-0.7317 Y0.2263 
G01 X-0.7328 Y0.2257 
G01 X-0.7341 Y0.2254 
G01 X-0.7352 Y0.2249 
G01 X-0.7365 Y0.2247 
G01 X-0.7378 Y0.2244 
G01 X-0.7391 Y0.2244 
G01 X-0.7403 Y0.2242 
G01 X-0.7416 Y0.2244 
G01 X-0.7429 Y0.2244 
G01 X-0.7441 Y0.2247 
G01 X-0.7454 Y0.2249 
G01 X-0.7466 Y0.2254 
G01 X-0.7479 Y0.2257 
G01 X-0.7490 Y0.2263 
G01 X-0.7502 Y0.2268 
G01 X-0.7512 Y0.2276 
G01 X-0.7523 Y0.2283 
G01 X-0.7532 Y0.2292 
G01 X-0.7542 Y0.2300 
G01 X-0.7550 Y0.2310 
G01 X-0.7559 Y0.2319 
G01 X-0.7566 Y0.2330 
G01 X-0.7596 Y0.2360 
G01 X-0.7622 Y0.2405 
G01 X-0.7635 Y0.2454 
G01 X-0.7635 Y0.3594 
G01 X-0.7622 Y0.3644 
G01 X-0.7596 Y0.3688 
G01 X-0.7560 Y0.3725 
G01 X-0.7515 Y0.3750 
G01 X-0.7466 Y0.3764 
G01 X-0.6945 Y0.3764 
G01 X-0.6870 Y0.3795 
G01 X-0.6800 Y0.3864 
G01 X-0.6794 Y0.3874 
G01 X-0.6789 Y0.3878 
G01 X-0.6785 Y0.3883 
G01 X-0.6770 Y0.3895 
G01 X-0.6768 Y0.3896 
G01 X-0.6767 Y0.3898 
G01 X-0.6755 Y0.3908 
G01 X-0.6750 Y0.3911 
G01 X-0.6745 Y0.3915 
G01 X-0.6727 Y0.3922 
G01 X-0.6709 Y0.3931 
G01 X-0.6703 Y0.3932 
G01 X-0.6697 Y0.3934 
G01 X-0.6678 Y0.3937 
G01 X-0.6659 Y0.3941 
G01 X-0.6653 Y0.3940 
G01 X-0.6646 Y0.3941 
G01 X-0.6627 Y0.3938 
G01 X-0.6608 Y0.3937 
G01 X-0.6602 Y0.3935 
G01 X-0.6595 Y0.3934 
G01 X-0.6577 Y0.3927 
G01 X-0.6559 Y0.3921 
G01 X-0.6554 Y0.3917 
G01 X-0.6548 Y0.3915 
G01 X-0.6541 Y0.3910 
G01 X-0.6533 Y0.3906 
G01 X-0.6520 Y0.3904 
G01 X-0.6274 Y0.3904 
G01 X-0.6261 Y0.3905 
G01 X-0.6248 Y0.3904 
G01 X-0.6235 Y0.3904 
G01 X-0.6223 Y0.3900 
G01 X-0.6210 Y0.3898 
G01 X-0.6198 Y0.3894 
G01 X-0.6186 Y0.3890 
G01 X-0.6174 Y0.3884 
G01 X-0.6162 Y0.3879 
G01 X-0.6152 Y0.3871 
G01 X-0.6141 Y0.3865 
G01 X-0.6132 Y0.3855 
G01 X-0.6122 Y0.3848 
G01 X-0.6114 Y0.3837 
G01 X-0.6105 Y0.3828 
G01 X-0.6098 Y0.3817 
G01 X-0.6090 Y0.3807 
G01 X-0.6086 Y0.3795 
G01 X-0.6079 Y0.3784 
G01 X-0.6076 Y0.3771 
G01 X-0.6071 Y0.3759 
G01 X-0.6069 Y0.3747 
G01 X-0.6066 Y0.3734 
G01 X-0.6066 Y0.3721 
G01 X-0.6064 Y0.3709 
G01 X-0.6066 Y0.3696 
G01 X-0.6066 Y0.3683 
G01 X-0.6069 Y0.3670 
G01 X-0.6071 Y0.3658 
G01 X-0.6076 Y0.3646 
G01 X-0.6079 Y0.3633 
G01 X-0.6086 Y0.3622 
G01 X-0.6105 Y0.3575 
G01 X-0.6105 Y0.3025 
G01 X-0.6071 Y0.2943 
G01 X-0.6007 Y0.2879 
G01 X-0.5925 Y0.2845 
G01 X-0.5835 Y0.2845 
G01 X-0.5748 Y0.2881 
G01 X-0.5701 Y0.2901 
G01 X-0.5650 Y0.2907 
G01 X-0.5599 Y0.2901 
G01 X-0.5551 Y0.2881 
G01 X-0.5464 Y0.2845 
G01 X-0.5375 Y0.2845 
G01 X-0.5369 Y0.2847 
G01 X-0.5364 Y0.2851 
G01 X-0.5345 Y0.2857 
G01 X-0.5328 Y0.2864 
G01 X-0.5321 Y0.2865 
G01 X-0.5315 Y0.2867 
G01 X-0.5296 Y0.2869 
G01 X-0.5277 Y0.2871 
G01 X-0.5270 Y0.2870 
G01 X-0.5264 Y0.2871 
G01 X-0.5245 Y0.2867 
G01 X-0.5226 Y0.2865 
G01 X-0.5220 Y0.2862 
G01 X-0.5204 Y0.2859 
G01 X-0.5184 Y0.2856 
G01 X-0.5178 Y0.2854 
G01 X-0.5172 Y0.2852 
G01 X-0.5157 Y0.2845 
G01 X-0.5141 Y0.2846 
G01 X-0.5135 Y0.2845 
G01 X-0.5129 Y0.2845 
G01 X-0.5113 Y0.2841 
G01 X-0.5097 Y0.2845 
G01 X-0.5091 Y0.2845 
G01 X-0.5084 Y0.2846 
G01 X-0.5068 Y0.2845 
G01 X-0.5048 Y0.2853 
G01 X-0.5045 Y0.2853 
G01 X-0.4998 Y0.2860 
G01 X-0.4951 Y0.2854 
G01 X-0.4947 Y0.2853 
G01 X-0.4927 Y0.2845 
G01 X-0.4702 Y0.2845 
G01 X-0.4684 Y0.2845 
G01 X-0.4674 Y0.2849 
G01 X-0.4639 Y0.2864 
G01 X-0.4626 Y0.2869 
G01 X-0.4600 Y0.2872 
G01 X-0.4576 Y0.2876 
G01 X-0.4552 Y0.2873 
G01 X-0.4525 Y0.2869 
G01 X-0.4514 Y0.2864 
G01 X-0.4477 Y0.2849 
G01 X-0.4467 Y0.2845 
G01 X-0.4244 Y0.2845 
G01 X-0.4224 Y0.2845 
G01 X-0.4214 Y0.2849 
G01 X-0.4178 Y0.2864 
G01 X-0.4166 Y0.2869 
G01 X-0.4139 Y0.2872 
G01 X-0.4115 Y0.2876 
G01 X-0.4092 Y0.2873 
G01 X-0.4064 Y0.2869 
G01 X-0.4053 Y0.2864 
G01 X-0.4017 Y0.2849 
G01 X-0.4006 Y0.2845 
G01 X-0.3782 Y0.2845 
G01 X-0.3763 Y0.2845 
G01 X-0.3744 Y0.2853 
G01 X-0.3727 Y0.2855 
G01 X-0.3693 Y0.2860 
G01 X-0.3660 Y0.2855 
G01 X-0.3642 Y0.2853 
G01 X-0.3623 Y0.2845 
G01 X-0.3226 Y0.2845 
G01 X-0.3207 Y0.2853 
G01 X-0.3204 Y0.2853 
G01 X-0.3156 Y0.2860 
G01 X-0.3109 Y0.2854 
G01 X-0.3105 Y0.2853 
G01 X-0.3086 Y0.2845 
G01 X-0.2861 Y0.2845 
G01 X-0.2843 Y0.2845 
G01 X-0.2823 Y0.2853 
G01 X-0.2806 Y0.2855 
G01 X-0.2772 Y0.2860 
G01 X-0.2739 Y0.2855 
G01 X-0.2721 Y0.2853 
G01 X-0.2702 Y0.2845 
G01 X-0.2612 Y0.2845 
G01 X-0.2602 Y0.2849 
G01 X-0.2595 Y0.2852 
G01 X-0.2555 Y0.2869 
G01 X-0.2504 Y0.2876 
G01 X-0.2492 Y0.2874 
G01 X-0.2453 Y0.2869 
G01 X-0.2405 Y0.2849 
G01 X-0.2395 Y0.2845 
G01 X-0.2306 Y0.2845 
G01 X-0.2286 Y0.2853 
G01 X-0.2267 Y0.2856 
G01 X-0.2235 Y0.2860 
G01 X-0.2204 Y0.2856 
G01 X-0.2184 Y0.2853 
G01 X-0.2165 Y0.2845 
G01 X-0.1940 Y0.2845 
G01 X-0.1922 Y0.2845 
G01 X-0.1902 Y0.2853 
G01 X-0.1886 Y0.2855 
G01 X-0.1852 Y0.2860 
G01 X-0.1819 Y0.2855 
G01 X-0.1801 Y0.2853 
G01 X-0.1781 Y0.2845 
G01 X-0.1480 Y0.2845 
G01 X-0.1462 Y0.2845 
G01 X-0.1451 Y0.2849 
G01 X-0.1416 Y0.2864 
G01 X-0.1404 Y0.2869 
G01 X-0.1377 Y0.2872 
G01 X-0.1353 Y0.2876 
G01 X-0.1330 Y0.2873 
G01 X-0.1302 Y0.2869 
G01 X-0.1291 Y0.2864 
G01 X-0.1254 Y0.2849 
G01 X-0.1244 Y0.2845 
G01 X-0.1019 Y0.2845 
G01 X-0.1001 Y0.2845 
G01 X-0.0966 Y0.2860 
G01 X-0.0918 Y0.2879 
G01 X-0.0898 Y0.2900 
G01 X-0.0863 Y0.2935 
G01 X-0.0851 Y0.2947 
G01 X-0.0835 Y0.2963 
G01 X-0.0807 Y0.2990 
G01 X-0.0799 Y0.2999 
G01 X-0.0778 Y0.3019 
G01 X-0.0744 Y0.3102 
G01 X-0.0744 Y0.3171 
G01 X-0.0744 Y0.3205 
G01 X-0.0744 Y0.3211 
G01 X-0.0745 Y0.3216 
G01 X-0.0744 Y0.3236 
G01 X-0.0744 Y0.3498 
G01 X-0.0778 Y0.3581 
G01 X-0.0851 Y0.3654 
G01 X-0.0887 Y0.3690 
G01 X-0.0918 Y0.3721 
G01 X-0.1001 Y0.3755 
G01 X-0.1110 Y0.3755 
G01 X-0.1130 Y0.3754 
G01 X-0.1136 Y0.3755 
G01 X-0.1141 Y0.3755 
G01 X-0.1173 Y0.3755 
G01 X-0.1244 Y0.3755 
G01 X-0.1254 Y0.3751 
G01 X-0.1290 Y0.3737 
G01 X-0.1302 Y0.3731 
G01 X-0.1329 Y0.3728 
G01 X-0.1353 Y0.3725 
G01 X-0.1376 Y0.3728 
G01 X-0.1404 Y0.3731 
G01 X-0.1415 Y0.3736 
G01 X-0.1451 Y0.3751 
G01 X-0.1462 Y0.3755 
G01 X-0.1781 Y0.3755 
G01 X-0.1801 Y0.3747 
G01 X-0.1817 Y0.3745 
G01 X-0.1852 Y0.3741 
G01 X-0.1885 Y0.3745 
G01 X-0.1902 Y0.3747 
G01 X-0.1922 Y0.3755 
G01 X-0.2031 Y0.3755 
G01 X-0.2051 Y0.3754 
G01 X-0.2056 Y0.3755 
G01 X-0.2062 Y0.3755 
G01 X-0.2094 Y0.3755 
G01 X-0.2165 Y0.3755 
G01 X-0.2175 Y0.3751 
G01 X-0.2210 Y0.3737 
G01 X-0.2223 Y0.3731 
G01 X-0.2249 Y0.3728 
G01 X-0.2274 Y0.3725 
G01 X-0.2297 Y0.3728 
G01 X-0.2324 Y0.3731 
G01 X-0.2336 Y0.3736 
G01 X-0.2372 Y0.3751 
G01 X-0.2382 Y0.3755 
G01 X-0.2702 Y0.3755 
G01 X-0.2721 Y0.3747 
G01 X-0.2738 Y0.3745 
G01 X-0.2772 Y0.3741 
G01 X-0.2805 Y0.3745 
G01 X-0.2823 Y0.3747 
G01 X-0.2843 Y0.3755 
G01 X-0.2952 Y0.3755 
G01 X-0.2971 Y0.3754 
G01 X-0.2977 Y0.3755 
G01 X-0.2983 Y0.3755 
G01 X-0.3014 Y0.3755 
G01 X-0.3086 Y0.3755 
G01 X-0.3096 Y0.3751 
G01 X-0.3131 Y0.3737 
G01 X-0.3143 Y0.3731 
G01 X-0.3170 Y0.3728 
G01 X-0.3194 Y0.3725 
G01 X-0.3218 Y0.3728 
G01 X-0.3245 Y0.3731 
G01 X-0.3256 Y0.3736 
G01 X-0.3293 Y0.3751 
G01 X-0.3303 Y0.3755 
G01 X-0.3412 Y0.3755 
G01 X-0.3432 Y0.3754 
G01 X-0.3438 Y0.3755 
G01 X-0.3443 Y0.3755 
G01 X-0.3477 Y0.3755 
G01 X-0.3546 Y0.3755 
G01 X-0.3556 Y0.3751 
G01 X-0.3592 Y0.3737 
G01 X-0.3604 Y0.3731 
G01 X-0.3631 Y0.3728 
G01 X-0.3655 Y0.3725 
G01 X-0.3678 Y0.3728 
G01 X-0.3706 Y0.3731 
G01 X-0.3717 Y0.3736 
G01 X-0.3753 Y0.3751 
G01 X-0.3763 Y0.3755 
G01 X-0.3872 Y0.3755 
G01 X-0.3892 Y0.3754 
G01 X-0.3898 Y0.3755 
G01 X-0.3904 Y0.3755 
G01 X-0.3935 Y0.3755 
G01 X-0.4006 Y0.3755 
G01 X-0.4017 Y0.3751 
G01 X-0.4052 Y0.3737 
G01 X-0.4064 Y0.3731 
G01 X-0.4091 Y0.3728 
G01 X-0.4115 Y0.3725 
G01 X-0.4138 Y0.3728 
G01 X-0.4166 Y0.3731 
G01 X-0.4177 Y0.3736 
G01 X-0.4214 Y0.3751 
G01 X-0.4224 Y0.3755 
G01 X-0.4333 Y0.3755 
G01 X-0.4352 Y0.3754 
G01 X-0.4358 Y0.3755 
G01 X-0.4364 Y0.3755 
G01 X-0.4397 Y0.3755 
G01 X-0.4467 Y0.3755 
G01 X-0.4477 Y0.3751 
G01 X-0.4512 Y0.3737 
G01 X-0.4525 Y0.3731 
G01 X-0.4551 Y0.3728 
G01 X-0.4576 Y0.3725 
G01 X-0.4599 Y0.3728 
G01 X-0.4626 Y0.3731 
G01 X-0.4638 Y0.3736 
G01 X-0.4674 Y0.3751 
G01 X-0.4684 Y0.3755 
G01 X-0.4793 Y0.3755 
G01 X-0.4813 Y0.3754 
G01 X-0.4819 Y0.3755 
G01 X-0.4825 Y0.3755 
G01 X-0.4856 Y0.3755 
G01 X-0.4927 Y0.3755 
G01 X-0.4947 Y0.3747 
G01 X-0.4950 Y0.3747 
G01 X-0.4998 Y0.3741 
G01 X-0.5044 Y0.3747 
G01 X-0.5048 Y0.3747 
G01 X-0.5068 Y0.3755 
G01 X-0.5157 Y0.3755 
G01 X-0.5163 Y0.3753 
G01 X-0.5169 Y0.3749 
G01 X-0.5187 Y0.3743 
G01 X-0.5205 Y0.3736 
G01 X-0.5211 Y0.3735 
G01 X-0.5217 Y0.3733 
G01 X-0.5236 Y0.3732 
G01 X-0.5255 Y0.3729 
G01 X-0.5262 Y0.3730 
G01 X-0.5268 Y0.3730 
G01 X-0.5287 Y0.3733 
G01 X-0.5306 Y0.3736 
G01 X-0.5312 Y0.3738 
G01 X-0.5329 Y0.3742 
G01 X-0.5348 Y0.3744 
G01 X-0.5354 Y0.3747 
G01 X-0.5360 Y0.3748 
G01 X-0.5375 Y0.3755 
G01 X-0.5391 Y0.3754 
G01 X-0.5397 Y0.3755 
G01 X-0.5404 Y0.3755 
G01 X-0.5419 Y0.3760 
G01 X-0.5435 Y0.3755 
G01 X-0.5442 Y0.3755 
G01 X-0.5448 Y0.3754 
G01 X-0.5465 Y0.3755 
G01 X-0.5484 Y0.3747 
G01 X-0.5501 Y0.3745 
G01 X-0.5535 Y0.3741 
G01 X-0.5568 Y0.3745 
G01 X-0.5586 Y0.3747 
G01 X-0.5605 Y0.3755 
G01 X-0.5650 Y0.3755 
G01 X-0.5699 Y0.3769 
G01 X-0.5744 Y0.3794 
G01 X-0.5780 Y0.3831 
G01 X-0.5806 Y0.3875 
G01 X-0.5819 Y0.3925 
G01 X-0.5819 Y0.4305 
G01 X-0.5849 Y0.4305 
G01 X-0.5849 Y0.3962 
G01 X-0.5854 Y0.3949 
G01 X-0.5864 Y0.3939 
G01 X-0.5877 Y0.3934 
G01 X-0.6521 Y0.3934 
G01 X-0.6534 Y0.3939 
G01 X-0.6543 Y0.3949 
G01 X-0.6549 Y0.3962 
G01 X-0.6549 Y0.5038 
G01 X-0.6543 Y0.5051 
G01 X-0.6534 Y0.5061 
G01 X-0.6521 Y0.5066 
G01 X-0.6394 Y0.5066 
G01 X-0.6394 Y0.5096 
G01 X-0.6520 Y0.5096 
G01 X-0.6533 Y0.5094 
G01 X-0.6541 Y0.5090 
G01 X-0.6548 Y0.5085 
G01 X-0.6554 Y0.5083 
G01 X-0.6559 Y0.5079 
G01 X-0.6577 Y0.5073 
G01 X-0.6595 Y0.5066 
G01 X-0.6602 Y0.5065 
G01 X-0.6608 Y0.5063 
G01 X-0.6627 Y0.5062 
G01 X-0.6646 Y0.5059 
G01 X-0.6653 Y0.5060 
G01 X-0.6659 Y0.5059 
G01 X-0.6678 Y0.5063 
G01 X-0.6697 Y0.5066 
G01 X-0.6703 Y0.5068 
G01 X-0.6709 Y0.5069 
G01 X-0.6727 Y0.5078 
G01 X-0.6745 Y0.5085 
G01 X-0.6750 Y0.5089 
G01 X-0.6755 Y0.5092 
G01 X-0.6766 Y0.5102 
G01 X-0.6768 Y0.5104 
G01 X-0.6770 Y0.5105 
G01 X-0.6785 Y0.5117 
G01 X-0.6789 Y0.5122 
G01 X-0.6794 Y0.5126 
G01 X-0.6800 Y0.5136 
G01 X-0.6870 Y0.5205 
G01 X-0.6945 Y0.5236 
G01 X-0.7657 Y0.5236 
G01 X-0.7732 Y0.5205 
G01 X-0.7790 Y0.5148 
G01 X-0.7821 Y0.5072 
G01 X-0.7821 Y0.5034 
G01 X-0.7834 Y0.4985 
G01 X-0.7860 Y0.4940 
G01 X-0.7896 Y0.4904 
G01 X-0.7941 Y0.4878 
G01 X-0.7990 Y0.4865 
G01 X-1.1073 Y0.4865 
G01 X-1.1207 Y0.4809 
G01 X-1.1355 Y0.4661 
G01 X-1.2112 Y0.3904 
G01 X-1.2157 Y0.3878 
G01 X-1.2206 Y0.3865 
G01 X-1.3794 Y0.3865 
G01 X-1.3821 Y0.3872 
G01 X-1.3843 Y0.3878 
G01 X-1.3856 Y0.3886 
G01 X-1.3888 Y0.3904 
G01 X-1.3889 Y0.3905 
G01 X-1.3938 Y0.3954 
G01 X-1.3973 Y0.3989 
G01 X-1.3974 Y0.3990 
G01 X-1.3996 Y0.4027 
G01 X-1.4000 Y0.4035 
G01 X-1.4006 Y0.4057 
G01 X-1.4013 Y0.4084 
G01 X-1.4013 Y0.4136 
G01 X-1.4006 Y0.4162 
G01 X-1.4000 Y0.4185 
G01 X-1.3994 Y0.4196 
G01 X-1.3974 Y0.4230 
G01 X-1.3945 Y0.4259 
G01 X-1.3945 Y0.4335 
G01 X-1.4052 Y0.4335 
G01 X-1.4065 Y0.4340 
G01 X-1.4075 Y0.4350 
G01 X-1.4080 Y0.4363 
G01 X-1.4080 Y0.4431 
G01 X-1.4203 Y0.4431 
G01 X-1.4230 Y0.4416 
G01 X-1.4280 Y0.4402 
G01 X-1.4331 Y0.4402 
G01 X-1.4378 Y0.4415 
G01 X-1.4381 Y0.4416 
G01 X-1.4425 Y0.4441 
G01 X-1.4461 Y0.4477 
G01 X-1.4596 Y0.4612 
G01 X-1.4622 Y0.4657 
G01 X-1.4634 Y0.4704 
G01 X-1.4635 Y0.4706 
G01 X-1.4635 Y0.5013 
G01 X-1.4637 Y0.5026 
G01 X-1.4635 Y0.5039 
G01 X-1.4635 Y0.5051 
G01 X-1.4632 Y0.5064 
G01 X-1.4630 Y0.5077 
G01 X-1.4625 Y0.5089 
G01 X-1.4622 Y0.5101 
G01 X-1.4615 Y0.5112 
G01 X-1.4610 Y0.5124 
G01 X-1.4602 Y0.5134 
G01 X-1.4596 Y0.5146 
G01 X-1.4587 Y0.5155 
G01 X-1.4579 Y0.5165 
G01 X-1.4569 Y0.5173 
G01 X-1.4560 Y0.5182 
G01 X-1.4549 Y0.5188 
G01 X-1.4538 Y0.5196 
G01 X-1.4526 Y0.5201 
G01 X-1.4515 Y0.5208 
G01 X-1.4503 Y0.5211 
G01 X-1.4491 Y0.5216 
G01 X-1.4478 Y0.5217 
G01 X-1.4466 Y0.5221 
G01 X-1.4453 Y0.5221 
G01 X-1.4440 Y0.5222 
G01 X-1.4427 Y0.5221 
G01 X-1.4414 Y0.5221 
G01 X-1.4402 Y0.5217 
G01 X-1.4389 Y0.5216 
G01 X-1.4377 Y0.5211 
G01 X-1.4365 Y0.5208 
G01 X-1.4354 Y0.5201 
G01 X-1.4342 Y0.5196 
G01 X-1.4331 Y0.5188 
G01 X-1.4320 Y0.5182 
G01 X-1.4311 Y0.5173 
G01 X-1.4301 Y0.5165 
G01 X-1.4293 Y0.5155 
G01 X-1.4284 Y0.5146 
G01 X-1.4278 Y0.5134 
G01 X-1.4270 Y0.5124 
G01 X-1.4265 Y0.5112 
G01 X-1.4258 Y0.5101 
G01 X-1.4255 Y0.5089 
G01 X-1.4219 Y0.5002 
G01 X-1.4149 Y0.4932 
G01 X-1.4124 Y0.4888 
G01 X-1.4110 Y0.4838 
G01 X-1.4110 Y0.4821 
G01 X-1.4080 Y0.4821 
G01 X-1.4080 Y0.4889 
G01 X-1.4075 Y0.4902 
G01 X-1.4065 Y0.4912 
G01 X-1.4052 Y0.4917 
G01 X-1.3448 Y0.4917 
G01 X-1.3435 Y0.4912 
G01 X-1.3425 Y0.4902 
G01 X-1.3420 Y0.4889 
G01 X-1.3420 Y0.4821 
G01 X-1.3390 Y0.4821 
G01 X-1.3390 Y0.4838 
G01 X-1.3376 Y0.4888 
G01 X-1.3351 Y0.4932 
G01 X-1.3314 Y0.4968 
G01 X-1.3281 Y0.5002 
G01 X-1.3250 Y0.5077 
G01 X-1.3250 Y0.5671 
G01 X-1.3281 Y0.5746 
G01 X-1.3310 Y0.5775 
G01 X-1.3345 Y0.5810 
G01 X-1.3372 Y0.5856 
G01 X-1.3379 Y0.5884 
G01 X-1.3385 Y0.5905 
G01 X-1.3385 Y0.6092 
G01 X-1.3372 Y0.6141 
G01 X-1.3346 Y0.6186 
G01 X-1.3310 Y0.6222 
G01 X-1.3265 Y0.6248 
G01 X-1.3216 Y0.6261 
G01 X-1.2801 Y0.6261 
G01 X-1.2667 Y0.6317 
G01 X-1.2303 Y0.6681 
G01 X-1.2191 Y0.6793 
G01 X-1.2135 Y0.6927 
G01 X-1.2135 Y0.7823 
G01 X-1.2148 Y0.7854 
G01 X-1.2154 Y0.7865 
G01 X-1.2158 Y0.7877 
G01 X-1.2163 Y0.7889 
G01 X-1.2164 Y0.7902 
G01 X-1.2168 Y0.7914 
G01 X-1.2168 Y0.7927 
G01 X-1.2169 Y0.7940 
G01 X-1.2168 Y0.7953 
G01 X-1.2168 Y0.7966 
G01 X-1.2164 Y0.7978 
G01 X-1.2163 Y0.7991 
G01 X-1.2158 Y0.8003 
G01 X-1.2154 Y0.8015 
G01 X-1.2148 Y0.8026 
G01 X-1.2143 Y0.8038 
G01 X-1.2135 Y0.8049 
G01 X-1.2129 Y0.8060 
G01 X-1.2119 Y0.8069 
G01 X-1.2112 Y0.8079 
G01 X-1.2101 Y0.8087 
G01 X-1.2092 Y0.8096 
G01 X-1.2081 Y0.8102 
G01 X-1.2071 Y0.8110 
G01 X-1.2059 Y0.8115 
G01 X-1.2048 Y0.8122 
G01 X-1.2035 Y0.8125 
G01 X-1.2023 Y0.8130 
G01 X-1.2011 Y0.8132 
G01 X-1.1998 Y0.8135 
G01 X-1.1985 Y0.8135 
G01 X-1.1973 Y0.8137 
G01 X-1.1960 Y0.8135 
G01 X-0.6427 Y0.8135 
G01 X-0.6293 Y0.8191 
G01 X-0.6145 Y0.8339 
G01 X-0.5409 Y0.9075 
G01 X-0.5365 Y0.9100 
G01 X-0.5315 Y0.9114 
G01 X-0.5187 Y0.9114 
G01 X-0.5001 Y0.9191 
G01 X-0.4981 Y0.9211 
G01 X-0.4970 Y0.9218 
G01 X-0.4936 Y0.9237 
G01 X-0.4929 Y0.9239 
G01 X-0.4887 Y0.9250 
G01 X-0.4836 Y0.9250 
G01 X-0.4796 Y0.9239 
G01 X-0.4786 Y0.9237 
G01 X-0.4766 Y0.9225 
G01 X-0.4741 Y0.9211 
G01 X-0.4705 Y0.9175 
G01 X-0.4699 Y0.9163 
G01 X-0.4679 Y0.9130 
G01 X-0.4678 Y0.9123 
G01 X-0.4666 Y0.9081 
G01 X-0.4666 Y0.7576 
G01 X-0.4670 Y0.7564 
G01 X-0.4679 Y0.7527 
G01 X-0.4705 Y0.7482 
G01 X-0.4741 Y0.7446 
G01 X-0.4790 Y0.7398 
G01 X-0.4821 Y0.7322 
G01 X-0.4821 Y0.6178 
G01 X-0.4790 Y0.6102 
G01 X-0.4732 Y0.6045 
G01 X-0.4657 Y0.6014 
G01 X-0.3945 Y0.6014 
G01 X-0.3870 Y0.6045 
G01 X-0.3800 Y0.6114 
G01 X-0.3794 Y0.6124 
G01 X-0.3789 Y0.6128 
G01 X-0.3785 Y0.6133 
G01 X-0.3770 Y0.6145 
G01 X-0.3768 Y0.6146 
G01 X-0.3767 Y0.6148 
G01 X-0.3755 Y0.6158 
G01 X-0.3750 Y0.6161 
G01 X-0.3745 Y0.6165 
G01 X-0.3727 Y0.6172 
G01 X-0.3709 Y0.6181 
G01 X-0.3703 Y0.6182 
G01 X-0.3697 Y0.6184 
G01 X-0.3678 Y0.6187 
G01 X-0.3659 Y0.6191 
G01 X-0.3653 Y0.6190 
G01 X-0.3646 Y0.6191 
G01 X-0.3627 Y0.6188 
G01 X-0.3608 Y0.6187 
G01 X-0.3602 Y0.6185 
G01 X-0.3595 Y0.6184 
G01 X-0.3577 Y0.6177 
G01 X-0.3559 Y0.6171 
G01 X-0.3554 Y0.6167 
G01 X-0.3548 Y0.6165 
G01 X-0.3541 Y0.6160 
G01 X-0.3533 Y0.6156 
G01 X-0.3520 Y0.6154 
G01 X-0.3394 Y0.6154 
G01 X-0.3394 Y0.6184 
G01 X-0.3521 Y0.6184 
G01 X-0.3534 Y0.6189 
G01 X-0.3543 Y0.6199 
G01 X-0.3549 Y0.6212 
G01 X-0.3549 Y0.7288 
G01 X-0.3543 Y0.7301 
G01 X-0.3534 Y0.7311 
G01 X-0.3521 Y0.7316 
G01 X-0.3394 Y0.7316 
G01 X-0.3394 Y0.7346 
G01 X-0.3520 Y0.7346 
G01 X-0.3533 Y0.7344 
G01 X-0.3541 Y0.7340 
G01 X-0.3548 Y0.7335 
G01 X-0.3554 Y0.7333 
G01 X-0.3559 Y0.7329 
G01 X-0.3577 Y0.7323 
G01 X-0.3595 Y0.7316 
G01 X-0.3602 Y0.7315 
G01 X-0.3608 Y0.7313 
G01 X-0.3627 Y0.7312 
G01 X-0.3646 Y0.7309 
G01 X-0.3653 Y0.7310 
G01 X-0.3659 Y0.7309 
G01 X-0.3678 Y0.7313 
G01 X-0.3697 Y0.7316 
G01 X-0.3703 Y0.7318 
G01 X-0.3709 Y0.7319 
G01 X-0.3727 Y0.7328 
G01 X-0.3745 Y0.7335 
G01 X-0.3750 Y0.7339 
G01 X-0.3755 Y0.7342 
G01 X-0.3766 Y0.7352 
G01 X-0.3768 Y0.7354 
G01 X-0.3770 Y0.7355 
G01 X-0.3785 Y0.7367 
G01 X-0.3789 Y0.7372 
G01 X-0.3794 Y0.7376 
G01 X-0.3800 Y0.7386 
G01 X-0.3861 Y0.7446 
G01 X-0.3896 Y0.7481 
G01 X-0.3897 Y0.7482 
G01 X-0.3923 Y0.7527 
G01 X-0.3932 Y0.7563 
G01 X-0.3936 Y0.7576 
G01 X-0.3936 Y0.7966 
G01 X-0.3923 Y0.8015 
G01 X-0.3897 Y0.8060 
G01 X-0.3861 Y0.8096 
G01 X-0.3816 Y0.8122 
G01 X-0.3767 Y0.8135 
G01 X-0.2427 Y0.8135 
G01 X-0.2293 Y0.8191 
G01 X-0.2145 Y0.8339 
G01 X-0.1691 Y0.8793 
G01 X-0.1635 Y0.8927 
G01 X-0.1635 Y1.2324 
G01 X-0.1622 Y1.2374 
G01 X-0.1596 Y1.2419 
G01 X-0.1560 Y1.2455 
G01 X-0.1515 Y1.2481 
G01 X-0.1466 Y1.2494 
G01 X-0.1243 Y1.2494 
G01 X-0.0965 Y1.2609 
G01 X-0.0753 Y1.2822 
G01 X-0.0665 Y1.3033 
G01 X-0.0662 Y1.3046 
G01 X-0.0655 Y1.3057 
G01 X-0.0650 Y1.3069 
G01 X-0.0642 Y1.3079 
G01 X-0.0636 Y1.3090 
G01 X-0.0627 Y1.3099 
G01 X-0.0619 Y1.3109 
G01 X-0.0609 Y1.3117 
G01 X-0.0600 Y1.3126 
G01 X-0.0589 Y1.3133 
G01 X-0.0578 Y1.3141 
G01 X-0.0566 Y1.3146 
G01 X-0.0555 Y1.3152 
G01 X-0.0543 Y1.3155 
G01 X-0.0531 Y1.3160 
G01 X-0.0518 Y1.3162 
G01 X-0.0506 Y1.3165 
G01 X-0.0493 Y1.3165 
G01 X-0.0480 Y1.3167 
G01 X-0.0467 Y1.3165 
G01 X-0.0454 Y1.3165 
G01 X-0.0442 Y1.3162 
G01 X-0.0429 Y1.3160 
G01 X-0.0417 Y1.3155 
G01 X-0.0405 Y1.3152 
G01 X-0.0394 Y1.3146 
G01 X-0.0382 Y1.3141 
G01 X-0.0371 Y1.3133 
G01 X-0.0360 Y1.3126 
G01 X-0.0351 Y1.3117 
G01 X-0.0341 Y1.3109 
G01 X-0.0333 Y1.3099 
G01 X-0.0324 Y1.3090 
G01 X-0.0318 Y1.3079 
G01 X-0.0310 Y1.3069 
G01 X-0.0305 Y1.3057 
G01 X-0.0298 Y1.3046 
G01 X-0.0295 Y1.3033 
G01 X-0.0290 Y1.3021 
G01 X-0.0288 Y1.3008 
G01 X-0.0285 Y1.2996 
G01 X-0.0285 Y1.2983 
G01 X-0.0283 Y1.2970 
G01 X-0.0285 Y1.2958 
G01 X-0.0285 Y0.1542 
G01 X-0.0283 Y0.1530 
G01 X-0.0285 Y0.1517 
G01 X-0.0285 Y0.1504 
G01 X-0.0288 Y0.1492 
G01 X-0.0290 Y0.1479 
G01 X-0.0295 Y0.1467 
G01 X-0.0298 Y0.1454 
G01 X-0.0305 Y0.1443 
G01 X-0.0310 Y0.1431 
G01 X-0.0318 Y0.1421 
G01 X-0.0324 Y0.1410 
G01 X-0.0333 Y0.1401 
G01 X-0.0341 Y0.1391 
G01 X-0.0351 Y0.1383 
G01 X-0.0360 Y0.1374 
G00 Z0.1000 
G00 X-0.0923 Y0.3116 
G01 Z-0.0070 F3.94  
G01 X-0.1015 Y0.3023 F3.94  
G01 X-0.1035 Y0.3015 
G01 X-0.1210 Y0.3015 
G01 X-0.1230 Y0.3023 
G01 X-0.1307 Y0.3100 
G01 X-0.1323 Y0.3116 
G01 X-0.1331 Y0.3136 
G01 X-0.1331 Y0.3158 
G01 X-0.1331 Y0.3443 
G01 X-0.1331 Y0.3465 
G01 X-0.1323 Y0.3485 
G01 X-0.1230 Y0.3577 
G01 X-0.1211 Y0.3585 
G01 X-0.1035 Y0.3585 
G01 X-0.1015 Y0.3577 
G01 X-0.0938 Y0.3500 
G01 X-0.0923 Y0.3485 
G01 X-0.0914 Y0.3465 
G01 X-0.0914 Y0.3136 
G01 X-0.0923 Y0.3116 
G00 Z0.1000 
G00 X-0.1069 Y0.3125 
G01 Z-0.0070 F3.94  
G01 X-0.1024 Y0.3170 F3.94  
G01 X-0.1024 Y0.3321 
G01 X-0.1198 Y0.3147 
G01 X-0.1177 Y0.3125 
G01 X-0.1069 Y0.3125 
G00 Z0.1000 
G00 X-0.1221 Y0.3280 
G01 Z-0.0070 F3.94  
G01 X-0.1047 Y0.3454 F3.94  
G01 X-0.1069 Y0.3475 
G01 X-0.1177 Y0.3475 
G01 X-0.1221 Y0.3431 
G01 X-0.1221 Y0.3280 
G00 Z0.1000 
G00 X-0.1398 Y0.3270 
G01 Z-0.0070 F3.94  
G01 X-0.1383 Y0.3255 F3.94  
G01 X-0.1375 Y0.3234 
G01 X-0.1375 Y0.3136 
G01 X-0.1383 Y0.3116 
G01 X-0.1475 Y0.3023 
G01 X-0.1495 Y0.3015 
G01 X-0.1726 Y0.3015 
G01 X-0.1747 Y0.3015 
G01 X-0.1768 Y0.3023 
G01 X-0.1783 Y0.3039 
G01 X-0.1791 Y0.3059 
G01 X-0.1791 Y0.3541 
G01 X-0.1783 Y0.3562 
G01 X-0.1768 Y0.3577 
G01 X-0.1747 Y0.3585 
G01 X-0.1495 Y0.3585 
G01 X-0.1475 Y0.3577 
G01 X-0.1398 Y0.3500 
G01 X-0.1383 Y0.3485 
G01 X-0.1375 Y0.3465 
G01 X-0.1375 Y0.3366 
G01 X-0.1383 Y0.3346 
G01 X-0.1398 Y0.3330 
G01 X-0.1428 Y0.3300 
G01 X-0.1398 Y0.3270 
G00 Z0.1000 
G00 X-0.1485 Y0.3201 
G01 Z-0.0070 F3.94  
G01 X-0.1529 Y0.3245 F3.94  
G01 X-0.1681 Y0.3245 
G01 X-0.1681 Y0.3125 
G01 X-0.1529 Y0.3125 
G01 X-0.1485 Y0.3170 
G01 X-0.1485 Y0.3201 
G00 Z0.1000 
G00 X-0.1485 Y0.3400 
G01 Z-0.0070 F3.94  
G01 X-0.1485 Y0.3431 F3.94  
G01 X-0.1529 Y0.3475 
G01 X-0.1681 Y0.3475 
G01 X-0.1681 Y0.3355 
G01 X-0.1529 Y0.3355 
G01 X-0.1485 Y0.3400 
G00 Z0.1000 
G00 X-0.1835 Y0.3465 
G01 Z-0.0070 F3.94  
G01 X-0.1835 Y0.3136 F3.94  
G01 X-0.1843 Y0.3116 
G01 X-0.1936 Y0.3023 
G01 X-0.1955 Y0.3015 
G01 X-0.2131 Y0.3015 
G01 X-0.2151 Y0.3023 
G01 X-0.2228 Y0.3100 
G01 X-0.2243 Y0.3116 
G01 X-0.2252 Y0.3136 
G01 X-0.2252 Y0.3158 
G01 X-0.2252 Y0.3443 
G01 X-0.2252 Y0.3465 
G01 X-0.2243 Y0.3485 
G01 X-0.2151 Y0.3577 
G01 X-0.2132 Y0.3585 
G01 X-0.1956 Y0.3585 
G01 X-0.1936 Y0.3577 
G01 X-0.1859 Y0.3500 
G01 X-0.1843 Y0.3485 
G01 X-0.1835 Y0.3465 
G00 Z0.1000 
G00 X-0.1968 Y0.3454 
G01 Z-0.0070 F3.94  
G01 X-0.1989 Y0.3475 F3.94  
G01 X-0.2097 Y0.3475 
G01 X-0.2142 Y0.3431 
G01 X-0.2142 Y0.3280 
G01 X-0.1968 Y0.3454 
G00 Z0.1000 
G00 X-0.1945 Y0.3321 
G01 Z-0.0070 F3.94  
G01 X-0.2119 Y0.3147 F3.94  
G01 X-0.2097 Y0.3125 
G01 X-0.1989 Y0.3125 
G01 X-0.1945 Y0.3170 
G01 X-0.1945 Y0.3321 
G00 Z0.1000 
G00 X-0.2295 Y0.3289 
G01 Z-0.0070 F3.94  
G01 X-0.2304 Y0.3269 F3.94  
G01 X-0.2380 Y0.3192 
G01 X-0.2388 Y0.3185 
G01 X-0.2304 Y0.3101 
G01 X-0.2295 Y0.3081 
G01 X-0.2295 Y0.3059 
G01 X-0.2304 Y0.3039 
G01 X-0.2319 Y0.3023 
G01 X-0.2339 Y0.3015 
G01 X-0.2361 Y0.3015 
G01 X-0.2381 Y0.3023 
G01 X-0.2527 Y0.3168 
G01 X-0.2602 Y0.3168 
G01 X-0.2602 Y0.3059 
G01 X-0.2611 Y0.3039 
G01 X-0.2626 Y0.3023 
G01 X-0.2646 Y0.3015 
G01 X-0.2668 Y0.3015 
G01 X-0.2688 Y0.3023 
G01 X-0.2704 Y0.3039 
G01 X-0.2712 Y0.3059 
G01 X-0.2712 Y0.3541 
G01 X-0.2704 Y0.3562 
G01 X-0.2688 Y0.3577 
G01 X-0.2668 Y0.3585 
G01 X-0.2416 Y0.3585 
G01 X-0.2396 Y0.3577 
G01 X-0.2319 Y0.3500 
G01 X-0.2304 Y0.3485 
G01 X-0.2295 Y0.3465 
G01 X-0.2295 Y0.3289 
G00 Z0.1000 
G00 X-0.2405 Y0.3323 
G01 Z-0.0070 F3.94  
G01 X-0.2405 Y0.3431 F3.94  
G01 X-0.2450 Y0.3475 
G01 X-0.2602 Y0.3475 
G01 X-0.2602 Y0.3278 
G01 X-0.2450 Y0.3278 
G01 X-0.2405 Y0.3323 
G00 Z0.1000 
G00 X-0.2764 Y0.3346 
G01 Z-0.0070 F3.94  
G01 X-0.2810 Y0.3300 F3.94  
G01 X-0.2780 Y0.3270 
G01 X-0.2764 Y0.3255 
G01 X-0.2756 Y0.3234 
G01 X-0.2756 Y0.3136 
G01 X-0.2764 Y0.3116 
G01 X-0.2856 Y0.3023 
G01 X-0.2876 Y0.3015 
G01 X-0.3052 Y0.3015 
G01 X-0.3072 Y0.3023 
G01 X-0.3164 Y0.3116 
G01 X-0.3173 Y0.3136 
G01 X-0.3173 Y0.3158 
G01 X-0.3164 Y0.3178 
G01 X-0.3149 Y0.3193 
G01 X-0.3129 Y0.3202 
G01 X-0.3107 Y0.3202 
G01 X-0.3086 Y0.3193 
G01 X-0.3018 Y0.3125 
G01 X-0.2910 Y0.3125 
G01 X-0.2866 Y0.3170 
G01 X-0.2866 Y0.3201 
G01 X-0.2910 Y0.3245 
G01 X-0.2975 Y0.3245 
G01 X-0.2995 Y0.3254 
G01 X-0.3011 Y0.3269 
G01 X-0.3019 Y0.3289 
G01 X-0.3019 Y0.3311 
G01 X-0.3011 Y0.3331 
G01 X-0.2995 Y0.3347 
G01 X-0.2975 Y0.3355 
G01 X-0.2910 Y0.3355 
G01 X-0.2866 Y0.3400 
G01 X-0.2866 Y0.3431 
G01 X-0.2910 Y0.3475 
G01 X-0.3018 Y0.3475 
G01 X-0.3086 Y0.3407 
G01 X-0.3107 Y0.3399 
G01 X-0.3129 Y0.3399 
G01 X-0.3149 Y0.3407 
G01 X-0.3164 Y0.3423 
G01 X-0.3173 Y0.3443 
G01 X-0.3173 Y0.3465 
G01 X-0.3164 Y0.3485 
G01 X-0.3072 Y0.3577 
G01 X-0.3052 Y0.3585 
G01 X-0.2877 Y0.3585 
G01 X-0.2856 Y0.3577 
G01 X-0.2780 Y0.3500 
G01 X-0.2764 Y0.3485 
G01 X-0.2756 Y0.3465 
G01 X-0.2756 Y0.3366 
G01 X-0.2764 Y0.3346 
G00 Z0.1000 
G00 X-0.3224 Y0.3346 
G01 Z-0.0070 F3.94  
G01 X-0.3240 Y0.3330 F3.94  
G01 X-0.3445 Y0.3125 
G01 X-0.3260 Y0.3125 
G01 X-0.3240 Y0.3117 
G01 X-0.3224 Y0.3101 
G01 X-0.3216 Y0.3081 
G01 X-0.3216 Y0.3059 
G01 X-0.3224 Y0.3039 
G01 X-0.3240 Y0.3023 
G01 X-0.3260 Y0.3015 
G01 X-0.3589 Y0.3015 
G01 X-0.3609 Y0.3023 
G01 X-0.3625 Y0.3039 
G01 X-0.3633 Y0.3059 
G01 X-0.3633 Y0.3081 
G01 X-0.3625 Y0.3101 
G01 X-0.3609 Y0.3117 
G01 X-0.3326 Y0.3400 
G01 X-0.3326 Y0.3431 
G01 X-0.3371 Y0.3475 
G01 X-0.3479 Y0.3475 
G01 X-0.3547 Y0.3407 
G01 X-0.3567 Y0.3399 
G01 X-0.3589 Y0.3399 
G01 X-0.3609 Y0.3407 
G01 X-0.3625 Y0.3423 
G01 X-0.3633 Y0.3443 
G01 X-0.3633 Y0.3465 
G01 X-0.3625 Y0.3485 
G01 X-0.3532 Y0.3577 
G01 X-0.3512 Y0.3585 
G01 X-0.3337 Y0.3585 
G01 X-0.3317 Y0.3577 
G01 X-0.3301 Y0.3562 
G01 X-0.3224 Y0.3485 
G01 X-0.3216 Y0.3465 
G01 X-0.3216 Y0.3366 
G01 X-0.3224 Y0.3346 
G00 Z0.1000 
G00 X-0.3677 Y0.3465 
G01 Z-0.0070 F3.94  
G01 X-0.3677 Y0.3136 F3.94  
G01 X-0.3685 Y0.3116 
G01 X-0.3777 Y0.3023 
G01 X-0.3797 Y0.3015 
G01 X-0.3973 Y0.3015 
G01 X-0.3993 Y0.3023 
G01 X-0.4070 Y0.3100 
G01 X-0.4085 Y0.3116 
G01 X-0.4093 Y0.3136 
G01 X-0.4093 Y0.3158 
G01 X-0.4093 Y0.3443 
G01 X-0.4093 Y0.3465 
G01 X-0.4085 Y0.3485 
G01 X-0.3993 Y0.3577 
G01 X-0.3973 Y0.3585 
G01 X-0.3797 Y0.3585 
G01 X-0.3777 Y0.3577 
G01 X-0.3700 Y0.3500 
G01 X-0.3685 Y0.3485 
G01 X-0.3677 Y0.3465 
G00 Z0.1000 
G00 X-0.3809 Y0.3454 
G01 Z-0.0070 F3.94  
G01 X-0.3831 Y0.3475 F3.94  
G01 X-0.3939 Y0.3475 
G01 X-0.3983 Y0.3431 
G01 X-0.3983 Y0.3280 
G01 X-0.3809 Y0.3454 
G00 Z0.1000 
G00 X-0.3787 Y0.3321 
G01 Z-0.0070 F3.94  
G01 X-0.3961 Y0.3147 F3.94  
G01 X-0.3939 Y0.3125 
G01 X-0.3831 Y0.3125 
G01 X-0.3787 Y0.3170 
G01 X-0.3787 Y0.3321 
G00 Z0.1000 
G00 X-0.4137 Y0.3465 
G01 Z-0.0070 F3.94  
G01 X-0.4137 Y0.3136 F3.94  
G01 X-0.4145 Y0.3116 
G01 X-0.4237 Y0.3023 
G01 X-0.4258 Y0.3015 
G01 X-0.4433 Y0.3015 
G01 X-0.4453 Y0.3023 
G01 X-0.4469 Y0.3039 
G01 X-0.4545 Y0.3116 
G01 X-0.4554 Y0.3136 
G01 X-0.4554 Y0.3158 
G01 X-0.4545 Y0.3178 
G01 X-0.4530 Y0.3193 
G01 X-0.4510 Y0.3202 
G01 X-0.4488 Y0.3202 
G01 X-0.4468 Y0.3193 
G01 X-0.4399 Y0.3125 
G01 X-0.4291 Y0.3125 
G01 X-0.4247 Y0.3170 
G01 X-0.4247 Y0.3245 
G01 X-0.4433 Y0.3245 
G01 X-0.4453 Y0.3254 
G01 X-0.4545 Y0.3346 
G01 X-0.4554 Y0.3366 
G01 X-0.4554 Y0.3465 
G01 X-0.4545 Y0.3485 
G01 X-0.4453 Y0.3577 
G01 X-0.4433 Y0.3585 
G01 X-0.4258 Y0.3585 
G01 X-0.4237 Y0.3577 
G01 X-0.4222 Y0.3562 
G01 X-0.4145 Y0.3485 
G01 X-0.4137 Y0.3465 
G00 Z0.1000 
G00 X-0.4247 Y0.3431 
G01 Z-0.0070 F3.94  
G01 X-0.4291 Y0.3475 F3.94  
G01 X-0.4399 Y0.3475 
G01 X-0.4444 Y0.3431 
G01 X-0.4444 Y0.3400 
G01 X-0.4399 Y0.3355 
G01 X-0.4247 Y0.3355 
G01 X-0.4247 Y0.3431 
G00 Z0.1000 
G00 X-0.4597 Y0.3465 
G01 Z-0.0070 F3.94  
G01 X-0.4597 Y0.3366 F3.94  
G01 X-0.4606 Y0.3346 
G01 X-0.4651 Y0.3300 
G01 X-0.4621 Y0.3270 
G01 X-0.4606 Y0.3255 
G01 X-0.4597 Y0.3234 
G01 X-0.4597 Y0.3136 
G01 X-0.4606 Y0.3116 
G01 X-0.4698 Y0.3023 
G01 X-0.4718 Y0.3015 
G01 X-0.4893 Y0.3015 
G01 X-0.4914 Y0.3023 
G01 X-0.5006 Y0.3116 
G01 X-0.5014 Y0.3136 
G01 X-0.5014 Y0.3158 
G01 X-0.5006 Y0.3178 
G01 X-0.4990 Y0.3193 
G01 X-0.4970 Y0.3202 
G01 X-0.4948 Y0.3202 
G01 X-0.4928 Y0.3193 
G01 X-0.4860 Y0.3125 
G01 X-0.4752 Y0.3125 
G01 X-0.4707 Y0.3170 
G01 X-0.4707 Y0.3201 
G01 X-0.4752 Y0.3245 
G01 X-0.4817 Y0.3245 
G01 X-0.4837 Y0.3254 
G01 X-0.4852 Y0.3269 
G01 X-0.4861 Y0.3289 
G01 X-0.4861 Y0.3311 
G01 X-0.4852 Y0.3331 
G01 X-0.4837 Y0.3347 
G01 X-0.4817 Y0.3355 
G01 X-0.4752 Y0.3355 
G01 X-0.4707 Y0.3400 
G01 X-0.4707 Y0.3431 
G01 X-0.4752 Y0.3475 
G01 X-0.4860 Y0.3475 
G01 X-0.4928 Y0.3407 
G01 X-0.4948 Y0.3399 
G01 X-0.4970 Y0.3399 
G01 X-0.4990 Y0.3407 
G01 X-0.5006 Y0.3423 
G01 X-0.5014 Y0.3443 
G01 X-0.5014 Y0.3465 
G01 X-0.5006 Y0.3485 
G01 X-0.4914 Y0.3577 
G01 X-0.4894 Y0.3585 
G01 X-0.4718 Y0.3585 
G01 X-0.4698 Y0.3577 
G01 X-0.4621 Y0.3500 
G01 X-0.4606 Y0.3485 
G01 X-0.4597 Y0.3465 
G00 Z0.1000 
G00 X-0.5058 Y0.3541 
G01 Z-0.0070 F3.94  
G01 X-0.5058 Y0.3075 F3.94  
G01 X-0.5057 Y0.3070 
G01 X-0.5058 Y0.3065 
G01 X-0.5058 Y0.3059 
G01 X-0.5060 Y0.3054 
G01 X-0.5061 Y0.3048 
G01 X-0.5064 Y0.3044 
G01 X-0.5066 Y0.3039 
G01 X-0.5070 Y0.3035 
G01 X-0.5073 Y0.3030 
G01 X-0.5078 Y0.3027 
G01 X-0.5082 Y0.3023 
G01 X-0.5087 Y0.3021 
G01 X-0.5091 Y0.3018 
G01 X-0.5097 Y0.3017 
G01 X-0.5102 Y0.3015 
G01 X-0.5107 Y0.3015 
G01 X-0.5113 Y0.3014 
G01 X-0.5118 Y0.3015 
G01 X-0.5124 Y0.3015 
G01 X-0.5129 Y0.3017 
G01 X-0.5134 Y0.3018 
G01 X-0.5139 Y0.3021 
G01 X-0.5144 Y0.3023 
G01 X-0.5148 Y0.3027 
G01 X-0.5152 Y0.3030 
G01 X-0.5155 Y0.3035 
G01 X-0.5159 Y0.3039 
G01 X-0.5161 Y0.3044 
G01 X-0.5365 Y0.3349 
G01 X-0.5365 Y0.3059 
G01 X-0.5373 Y0.3039 
G01 X-0.5388 Y0.3023 
G01 X-0.5409 Y0.3015 
G01 X-0.5431 Y0.3015 
G01 X-0.5451 Y0.3023 
G01 X-0.5466 Y0.3039 
G01 X-0.5475 Y0.3059 
G01 X-0.5475 Y0.3525 
G01 X-0.5476 Y0.3530 
G01 X-0.5475 Y0.3536 
G01 X-0.5475 Y0.3541 
G01 X-0.5472 Y0.3546 
G01 X-0.5471 Y0.3552 
G01 X-0.5468 Y0.3556 
G01 X-0.5466 Y0.3562 
G01 X-0.5462 Y0.3565 
G01 X-0.5459 Y0.3570 
G01 X-0.5455 Y0.3573 
G01 X-0.5451 Y0.3577 
G01 X-0.5446 Y0.3579 
G01 X-0.5441 Y0.3582 
G01 X-0.5436 Y0.3583 
G01 X-0.5431 Y0.3585 
G01 X-0.5425 Y0.3585 
G01 X-0.5420 Y0.3586 
G01 X-0.5414 Y0.3585 
G01 X-0.5409 Y0.3585 
G01 X-0.5404 Y0.3583 
G01 X-0.5398 Y0.3582 
G01 X-0.5394 Y0.3579 
G01 X-0.5388 Y0.3577 
G01 X-0.5385 Y0.3573 
G01 X-0.5380 Y0.3570 
G01 X-0.5377 Y0.3565 
G01 X-0.5373 Y0.3562 
G01 X-0.5371 Y0.3556 
G01 X-0.5168 Y0.3252 
G01 X-0.5168 Y0.3541 
G01 X-0.5159 Y0.3562 
G01 X-0.5144 Y0.3577 
G01 X-0.5124 Y0.3585 
G01 X-0.5102 Y0.3585 
G01 X-0.5082 Y0.3577 
G01 X-0.5066 Y0.3562 
G01 X-0.5058 Y0.3541 
G00 Z0.1000 
G00 X-0.5542 Y0.3500 
G01 Z-0.0070 F3.94  
G01 X-0.5526 Y0.3485 F3.94  
G01 X-0.5518 Y0.3465 
G01 X-0.5518 Y0.3289 
G01 X-0.5526 Y0.3269 
G01 X-0.5542 Y0.3254 
G01 X-0.5603 Y0.3192 
G01 X-0.5619 Y0.3177 
G01 X-0.5639 Y0.3168 
G01 X-0.5825 Y0.3168 
G01 X-0.5825 Y0.3059 
G01 X-0.5833 Y0.3039 
G01 X-0.5849 Y0.3023 
G01 X-0.5869 Y0.3015 
G01 X-0.5891 Y0.3015 
G01 X-0.5911 Y0.3023 
G01 X-0.5927 Y0.3039 
G01 X-0.5935 Y0.3059 
G01 X-0.5935 Y0.3541 
G01 X-0.5927 Y0.3562 
G01 X-0.5911 Y0.3577 
G01 X-0.5891 Y0.3585 
G01 X-0.5639 Y0.3585 
G01 X-0.5619 Y0.3577 
G01 X-0.5542 Y0.3500 
G00 Z0.1000 
G00 X-0.5628 Y0.3431 
G01 Z-0.0070 F3.94  
G01 X-0.5673 Y0.3475 F3.94  
G01 X-0.5825 Y0.3475 
G01 X-0.5825 Y0.3278 
G01 X-0.5673 Y0.3278 
G01 X-0.5628 Y0.3323 
G01 X-0.5628 Y0.3431 
G00 Z0.1000 
G00 X-0.5819 Y0.4695 
G01 Z-0.0070 F3.94  
G01 X-0.5819 Y0.5038 F3.94  
G01 X-0.5821 Y0.5050 
G01 X-0.5826 Y0.5062 
G01 X-0.5833 Y0.5073 
G01 X-0.5842 Y0.5082 
G01 X-0.5853 Y0.5089 
G01 X-0.5865 Y0.5094 
G01 X-0.5877 Y0.5096 
G01 X-0.6004 Y0.5096 
G01 X-0.6004 Y0.5066 
G01 X-0.5877 Y0.5066 
G01 X-0.5864 Y0.5061 
G01 X-0.5854 Y0.5051 
G01 X-0.5849 Y0.5038 
G01 X-0.5849 Y0.4695 
G01 X-0.5819 Y0.4695 
G00 Z0.1000 
G00 X-0.6951 Y0.5038 
G01 Z-0.0070 F3.94  
G01 X-0.6951 Y0.3962 F3.94  
G01 X-0.6957 Y0.3949 
G01 X-0.6966 Y0.3939 
G01 X-0.6979 Y0.3934 
G01 X-0.7592 Y0.3934 
G01 X-0.7805 Y0.3720 
G01 X-0.7805 Y0.2323 
G01 X-0.7786 Y0.2310 
G01 X-0.7740 Y0.2264 
G01 X-0.7703 Y0.2209 
G01 X-0.7678 Y0.2148 
G01 X-0.7665 Y0.2083 
G01 X-0.7665 Y0.1417 
G01 X-0.7678 Y0.1352 
G01 X-0.7703 Y0.1291 
G01 X-0.7740 Y0.1236 
G01 X-0.7786 Y0.1190 
G01 X-0.7841 Y0.1153 
G01 X-0.7902 Y0.1128 
G01 X-0.7967 Y0.1115 
G01 X-0.8033 Y0.1115 
G01 X-0.8098 Y0.1128 
G01 X-0.8159 Y0.1153 
G01 X-0.8214 Y0.1190 
G01 X-0.8260 Y0.1236 
G01 X-0.8297 Y0.1291 
G01 X-0.8322 Y0.1352 
G01 X-0.8335 Y0.1417 
G01 X-0.8335 Y0.2083 
G01 X-0.8322 Y0.2148 
G01 X-0.8297 Y0.2209 
G01 X-0.8260 Y0.2264 
G01 X-0.8214 Y0.2310 
G01 X-0.8195 Y0.2323 
G01 X-0.8195 Y0.3827 
G01 X-0.8182 Y0.3876 
G01 X-0.8156 Y0.3921 
G01 X-0.7772 Y0.4305 
G01 X-1.0919 Y0.4305 
G01 X-1.1880 Y0.3344 
G01 X-1.1925 Y0.3318 
G01 X-1.1974 Y0.3305 
G01 X-1.4026 Y0.3305 
G01 X-1.4075 Y0.3318 
G01 X-1.4120 Y0.3344 
G01 X-1.4156 Y0.3380 
G01 X-1.5156 Y0.4380 
G01 X-1.5182 Y0.4425 
G01 X-1.5195 Y0.4474 
G01 X-1.5195 Y0.6526 
G01 X-1.5182 Y0.6575 
G01 X-1.5156 Y0.6620 
G01 X-1.5120 Y0.6656 
G01 X-1.4246 Y0.7530 
G01 X-1.4201 Y0.7556 
G01 X-1.4152 Y0.7569 
G01 X-1.4080 Y0.7569 
G01 X-1.4080 Y0.7637 
G01 X-1.4075 Y0.7650 
G01 X-1.4065 Y0.7660 
G01 X-1.4052 Y0.7665 
G01 X-1.3945 Y0.7665 
G01 X-1.3945 Y0.7669 
G01 X-1.4581 Y0.8305 
G01 X-1.6062 Y0.8305 
G01 X-1.6111 Y0.8318 
G01 X-1.6144 Y0.8337 
G01 X-1.6541 Y0.8337 
G01 X-1.6606 Y0.8350 
G01 X-1.6667 Y0.8375 
G01 X-1.6722 Y0.8412 
G01 X-1.6768 Y0.8459 
G01 X-1.6805 Y0.8513 
G01 X-1.6830 Y0.8574 
G01 X-1.6843 Y0.8639 
G01 X-1.6843 Y0.8705 
G01 X-1.6830 Y0.8770 
G01 X-1.6805 Y0.8831 
G01 X-1.6768 Y0.8886 
G01 X-1.6722 Y0.8932 
G01 X-1.6667 Y0.8969 
G01 X-1.6606 Y0.8994 
G01 X-1.6541 Y0.9007 
G01 X-1.5875 Y0.9007 
G01 X-1.5810 Y0.8994 
G01 X-1.5750 Y0.8969 
G01 X-1.5695 Y0.8932 
G01 X-1.5648 Y0.8886 
G01 X-1.5611 Y0.8831 
G01 X-1.5586 Y0.8770 
G01 X-1.5573 Y0.8705 
G01 X-1.5573 Y0.8695 
G01 X-1.4474 Y0.8695 
G01 X-1.4425 Y0.8682 
G01 X-1.4380 Y0.8656 
G01 X-1.4344 Y0.8620 
G01 X-1.3594 Y0.7870 
G01 X-1.3568 Y0.7825 
G01 X-1.3555 Y0.7776 
G01 X-1.3555 Y0.7665 
G01 X-1.3448 Y0.7665 
G01 X-1.3435 Y0.7660 
G01 X-1.3425 Y0.7650 
G01 X-1.3420 Y0.7637 
G01 X-1.3420 Y0.7111 
G01 X-1.3425 Y0.7098 
G01 X-1.3435 Y0.7088 
G01 X-1.3448 Y0.7083 
G01 X-1.4052 Y0.7083 
G01 X-1.4065 Y0.7088 
G01 X-1.4075 Y0.7098 
G01 X-1.4080 Y0.7111 
G01 X-1.4080 Y0.7144 
G01 X-1.4805 Y0.6419 
G01 X-1.4805 Y0.4581 
G01 X-1.3919 Y0.3695 
G01 X-1.2081 Y0.3695 
G01 X-1.1156 Y0.4620 
G01 X-1.1120 Y0.4656 
G01 X-1.1075 Y0.4682 
G01 X-1.1026 Y0.4695 
G01 X-0.7651 Y0.4695 
G01 X-0.7651 Y0.5038 
G01 X-0.7646 Y0.5051 
G01 X-0.7636 Y0.5061 
G01 X-0.7623 Y0.5066 
G01 X-0.6979 Y0.5066 
G01 X-0.6966 Y0.5061 
G01 X-0.6957 Y0.5051 
G01 X-0.6951 Y0.5038 
G00 Z0.1000 
G00 X-0.6805 Y0.2359 
G01 Z-0.0070 F3.94  
G01 X-0.6805 Y0.2323 F3.94  
G01 X-0.6786 Y0.2310 
G01 X-0.6740 Y0.2264 
G01 X-0.6703 Y0.2209 
G01 X-0.6678 Y0.2148 
G01 X-0.6665 Y0.2083 
G01 X-0.6665 Y0.1945 
G01 X-0.6635 Y0.1945 
G01 X-0.6635 Y0.2079 
G01 X-0.6644 Y0.2135 
G01 X-0.6662 Y0.2190 
G01 X-0.6688 Y0.2241 
G01 X-0.6722 Y0.2288 
G01 X-0.6762 Y0.2328 
G01 X-0.6805 Y0.2359 
G00 Z0.1000 
G00 X-0.6665 Y0.1555 
G01 Z-0.0070 F3.94  
G01 X-0.6665 Y0.1417 F3.94  
G01 X-0.6678 Y0.1352 
G01 X-0.6703 Y0.1291 
G01 X-0.6740 Y0.1236 
G01 X-0.6786 Y0.1190 
G01 X-0.6805 Y0.1177 
G01 X-0.6805 Y0.1141 
G01 X-0.6762 Y0.1172 
G01 X-0.6722 Y0.1212 
G01 X-0.6688 Y0.1259 
G01 X-0.6662 Y0.1310 
G01 X-0.6644 Y0.1365 
G01 X-0.6635 Y0.1421 
G01 X-0.6635 Y0.1555 
G01 X-0.6665 Y0.1555 
G00 Z0.1000 
G00 X-0.9203 Y0.1540 
G01 Z-0.0070 F3.94  
G01 X-0.9188 Y0.1524 F3.94  
G01 X-0.9180 Y0.1504 
G01 X-0.9180 Y0.1482 
G01 X-0.9188 Y0.1462 
G01 X-0.9203 Y0.1447 
G01 X-0.9224 Y0.1438 
G01 X-0.9552 Y0.1438 
G01 X-0.9573 Y0.1447 
G01 X-0.9588 Y0.1462 
G01 X-0.9596 Y0.1482 
G01 X-0.9596 Y0.1504 
G01 X-0.9588 Y0.1524 
G01 X-0.9573 Y0.1540 
G01 X-0.9552 Y0.1548 
G01 X-0.9224 Y0.1548 
G01 X-0.9203 Y0.1540 
G00 Z0.1000 
G00 X-0.9802 Y0.1539 
G01 Z-0.0070 F3.94  
G01 X-0.9817 Y0.1523 F3.94  
G01 X-0.9837 Y0.1515 
G01 X-0.9859 Y0.1515 
G01 X-0.9880 Y0.1523 
G01 X-0.9895 Y0.1539 
G01 X-0.9903 Y0.1559 
G01 X-0.9903 Y0.1777 
G01 X-1.0048 Y0.1923 
G01 X-1.0057 Y0.1943 
G01 X-1.0057 Y0.1965 
G01 X-1.0057 Y0.2041 
G01 X-1.0048 Y0.2062 
G01 X-1.0033 Y0.2077 
G01 X-1.0013 Y0.2085 
G01 X-0.9991 Y0.2085 
G01 X-0.9971 Y0.2077 
G01 X-0.9955 Y0.2062 
G01 X-0.9947 Y0.2041 
G01 X-0.9947 Y0.1976 
G01 X-0.9848 Y0.1878 
G01 X-0.9750 Y0.1976 
G01 X-0.9750 Y0.2041 
G01 X-0.9742 Y0.2062 
G01 X-0.9726 Y0.2077 
G01 X-0.9706 Y0.2085 
G01 X-0.9684 Y0.2085 
G01 X-0.9664 Y0.2077 
G01 X-0.9648 Y0.2062 
G01 X-0.9640 Y0.2041 
G01 X-0.9640 Y0.1943 
G01 X-0.9648 Y0.1923 
G01 X-0.9664 Y0.1907 
G01 X-0.9793 Y0.1777 
G01 X-0.9793 Y0.1559 
G01 X-0.9802 Y0.1539 
G00 Z0.1000 
G00 X-1.0109 Y0.1539 
G01 Z-0.0070 F3.94  
G01 X-1.0113 Y0.1535 F3.94  
G01 X-1.0116 Y0.1530 
G01 X-1.0120 Y0.1527 
G01 X-1.0124 Y0.1523 
G01 X-1.0129 Y0.1521 
G01 X-1.0134 Y0.1518 
G01 X-1.0139 Y0.1517 
G01 X-1.0144 Y0.1515 
G01 X-1.0150 Y0.1515 
G01 X-1.0155 Y0.1514 
G01 X-1.0161 Y0.1515 
G01 X-1.0166 Y0.1515 
G01 X-1.0171 Y0.1517 
G01 X-1.0177 Y0.1518 
G01 X-1.0181 Y0.1521 
G01 X-1.0186 Y0.1523 
G01 X-1.0190 Y0.1527 
G01 X-1.0195 Y0.1530 
G01 X-1.0198 Y0.1535 
G01 X-1.0202 Y0.1539 
G01 X-1.0204 Y0.1544 
G01 X-1.0407 Y0.1849 
G01 X-1.0407 Y0.1559 
G01 X-1.0416 Y0.1539 
G01 X-1.0431 Y0.1523 
G01 X-1.0451 Y0.1515 
G01 X-1.0473 Y0.1515 
G01 X-1.0493 Y0.1523 
G01 X-1.0509 Y0.1539 
G01 X-1.0517 Y0.1559 
G01 X-1.0517 Y0.2025 
G01 X-1.0518 Y0.2030 
G01 X-1.0517 Y0.2036 
G01 X-1.0517 Y0.2041 
G01 X-1.0515 Y0.2046 
G01 X-1.0514 Y0.2052 
G01 X-1.0511 Y0.2056 
G01 X-1.0509 Y0.2062 
G01 X-1.0505 Y0.2065 
G01 X-1.0502 Y0.2070 
G01 X-1.0497 Y0.2073 
G01 X-1.0493 Y0.2077 
G01 X-1.0488 Y0.2079 
G01 X-1.0484 Y0.2082 
G01 X-1.0478 Y0.2083 
G01 X-1.0473 Y0.2085 
G01 X-1.0468 Y0.2085 
G01 X-1.0462 Y0.2086 
G01 X-1.0457 Y0.2085 
G01 X-1.0451 Y0.2085 
G01 X-1.0446 Y0.2083 
G01 X-1.0441 Y0.2082 
G01 X-1.0436 Y0.2079 
G01 X-1.0431 Y0.2077 
G01 X-1.0427 Y0.2073 
G01 X-1.0423 Y0.2070 
G01 X-1.0419 Y0.2065 
G01 X-1.0416 Y0.2062 
G01 X-1.0413 Y0.2056 
G01 X-1.0210 Y0.1752 
G01 X-1.0210 Y0.2041 
G01 X-1.0202 Y0.2062 
G01 X-1.0186 Y0.2077 
G01 X-1.0166 Y0.2085 
G01 X-1.0144 Y0.2085 
G01 X-1.0124 Y0.2077 
G01 X-1.0109 Y0.2062 
G01 X-1.0100 Y0.2041 
G01 X-1.0100 Y0.1575 
G01 X-1.0099 Y0.1570 
G01 X-1.0100 Y0.1565 
G01 X-1.0100 Y0.1559 
G01 X-1.0102 Y0.1554 
G01 X-1.0104 Y0.1548 
G01 X-1.0107 Y0.1544 
G01 X-1.0109 Y0.1539 
G00 Z0.1000 
G00 X-1.0569 Y0.1539 
G01 Z-0.0070 F3.94  
G01 X-1.0585 Y0.1523 F3.94  
G01 X-1.0605 Y0.1515 
G01 X-1.0780 Y0.1515 
G01 X-1.0800 Y0.1523 
G01 X-1.0816 Y0.1539 
G01 X-1.0824 Y0.1559 
G01 X-1.0824 Y0.1581 
G01 X-1.0816 Y0.1601 
G01 X-1.0800 Y0.1617 
G01 X-1.0780 Y0.1625 
G01 X-1.0747 Y0.1625 
G01 X-1.0747 Y0.1975 
G01 X-1.0780 Y0.1975 
G01 X-1.0800 Y0.1984 
G01 X-1.0816 Y0.1999 
G01 X-1.0824 Y0.2019 
G01 X-1.0824 Y0.2041 
G01 X-1.0816 Y0.2062 
G01 X-1.0800 Y0.2077 
G01 X-1.0780 Y0.2085 
G01 X-1.0605 Y0.2085 
G01 X-1.0585 Y0.2077 
G01 X-1.0569 Y0.2062 
G01 X-1.0561 Y0.2041 
G01 X-1.0561 Y0.2019 
G01 X-1.0569 Y0.1999 
G01 X-1.0585 Y0.1984 
G01 X-1.0605 Y0.1975 
G01 X-1.0637 Y0.1975 
G01 X-1.0637 Y0.1625 
G01 X-1.0605 Y0.1625 
G01 X-1.0585 Y0.1617 
G01 X-1.0569 Y0.1601 
G01 X-1.0561 Y0.1581 
G01 X-1.0561 Y0.1559 
G01 X-1.0569 Y0.1539 
G00 Z0.1000 
G00 X-1.1029 Y0.1539 
G01 Z-0.0070 F3.94  
G01 X-1.1045 Y0.1523 F3.94  
G01 X-1.1065 Y0.1515 
G01 X-1.1087 Y0.1515 
G01 X-1.1107 Y0.1523 
G01 X-1.1123 Y0.1539 
G01 X-1.1131 Y0.1559 
G01 X-1.1131 Y0.1975 
G01 X-1.1240 Y0.1975 
G01 X-1.1261 Y0.1984 
G01 X-1.1276 Y0.1999 
G01 X-1.1285 Y0.2019 
G01 X-1.1285 Y0.2041 
G01 X-1.1276 Y0.2062 
G01 X-1.1261 Y0.2077 
G01 X-1.1240 Y0.2085 
G01 X-1.0912 Y0.2085 
G01 X-1.0891 Y0.2077 
G01 X-1.0876 Y0.2062 
G01 X-1.0868 Y0.2041 
G01 X-1.0868 Y0.2019 
G01 X-1.0876 Y0.1999 
G01 X-1.0891 Y0.1984 
G01 X-1.0912 Y0.1975 
G01 X-1.1021 Y0.1975 
G01 X-1.1021 Y0.1559 
G01 X-1.1029 Y0.1539 
G00 Z0.1000 
G00 X-1.1490 Y0.1539 
G01 Z-0.0070 F3.94  
G01 X-1.1505 Y0.1523 F3.94  
G01 X-1.1526 Y0.1515 
G01 X-1.1547 Y0.1515 
G01 X-1.1568 Y0.1523 
G01 X-1.1583 Y0.1539 
G01 X-1.1591 Y0.1559 
G01 X-1.1591 Y0.1975 
G01 X-1.1701 Y0.1975 
G01 X-1.1721 Y0.1984 
G01 X-1.1737 Y0.1999 
G01 X-1.1745 Y0.2019 
G01 X-1.1745 Y0.2041 
G01 X-1.1737 Y0.2062 
G01 X-1.1721 Y0.2077 
G01 X-1.1701 Y0.2085 
G01 X-1.1372 Y0.2085 
G01 X-1.1352 Y0.2077 
G01 X-1.1336 Y0.2062 
G01 X-1.1328 Y0.2041 
G01 X-1.1328 Y0.2019 
G01 X-1.1336 Y0.1999 
G01 X-1.1352 Y0.1984 
G01 X-1.1372 Y0.1975 
G01 X-1.1481 Y0.1975 
G01 X-1.1481 Y0.1559 
G01 X-1.1490 Y0.1539 
G00 Z0.1000 
G00 X-1.1797 Y0.1539 
G01 Z-0.0070 F3.94  
G01 X-1.1812 Y0.1523 F3.94  
G01 X-1.1832 Y0.1515 
G01 X-1.1854 Y0.1515 
G01 X-1.1875 Y0.1523 
G01 X-1.1890 Y0.1539 
G01 X-1.1898 Y0.1559 
G01 X-1.1898 Y0.1745 
G01 X-1.2095 Y0.1745 
G01 X-1.2095 Y0.1559 
G01 X-1.2104 Y0.1539 
G01 X-1.2119 Y0.1523 
G01 X-1.2139 Y0.1515 
G01 X-1.2161 Y0.1515 
G01 X-1.2181 Y0.1523 
G01 X-1.2197 Y0.1539 
G01 X-1.2205 Y0.1559 
G01 X-1.2205 Y0.1888 
G01 X-1.2197 Y0.1908 
G01 X-1.2043 Y0.2062 
G01 X-1.2028 Y0.2077 
G01 X-1.2008 Y0.2085 
G01 X-1.1986 Y0.2085 
G01 X-1.1966 Y0.2077 
G01 X-1.1797 Y0.1908 
G01 X-1.1788 Y0.1888 
G01 X-1.1788 Y0.1559 
G01 X-1.1797 Y0.1539 
G00 Z0.1000 
G00 X-1.1899 Y0.1855 
G01 Z-0.0070 F3.94  
G01 X-1.1997 Y0.1953 F3.94  
G01 X-1.2094 Y0.1855 
G01 X-1.1899 Y0.1855 
G00 Z0.1000 
G00 X-1.2273 Y0.1540 
G01 Z-0.0070 F3.94  
G01 X-1.2257 Y0.1524 F3.94  
G01 X-1.2249 Y0.1504 
G01 X-1.2249 Y0.1482 
G01 X-1.2257 Y0.1462 
G01 X-1.2273 Y0.1447 
G01 X-1.2293 Y0.1438 
G01 X-1.2622 Y0.1438 
G01 X-1.2642 Y0.1447 
G01 X-1.2657 Y0.1462 
G01 X-1.2666 Y0.1482 
G01 X-1.2666 Y0.1504 
G01 X-1.2657 Y0.1524 
G01 X-1.2642 Y0.1540 
G01 X-1.2622 Y0.1548 
G01 X-1.2293 Y0.1548 
G01 X-1.2273 Y0.1540 
G00 Z0.1000 
G00 X-1.2139 Y0.1335 
G01 Z-0.0070 F3.94  
G01 X-1.2119 Y0.1327 F3.94  
G01 X-1.2104 Y0.1312 
G01 X-1.2095 Y0.1291 
G01 X-1.2095 Y0.1269 
G01 X-1.2104 Y0.1249 
G01 X-1.2119 Y0.1234 
G01 X-1.2139 Y0.1225 
G01 X-1.2402 Y0.1225 
G01 X-1.2402 Y0.1105 
G01 X-1.2293 Y0.1105 
G01 X-1.2273 Y0.1097 
G01 X-1.2257 Y0.1081 
G01 X-1.2249 Y0.1061 
G01 X-1.2249 Y0.1039 
G01 X-1.2257 Y0.1019 
G01 X-1.2273 Y0.1004 
G01 X-1.2293 Y0.0995 
G01 X-1.2402 Y0.0995 
G01 X-1.2402 Y0.0875 
G01 X-1.2139 Y0.0875 
G01 X-1.2119 Y0.0867 
G01 X-1.2104 Y0.0851 
G01 X-1.2095 Y0.0831 
G01 X-1.2095 Y0.0809 
G01 X-1.2104 Y0.0789 
G01 X-1.2119 Y0.0773 
G01 X-1.2139 Y0.0765 
G01 X-1.2468 Y0.0765 
G01 X-1.2488 Y0.0773 
G01 X-1.2504 Y0.0789 
G01 X-1.2512 Y0.0809 
G01 X-1.2512 Y0.1291 
G01 X-1.2504 Y0.1312 
G01 X-1.2488 Y0.1327 
G01 X-1.2468 Y0.1335 
G01 X-1.2446 Y0.1335 
G01 X-1.2139 Y0.1335 
G00 Z0.1000 
G00 X-1.2564 Y0.1235 
G01 Z-0.0070 F3.94  
G01 X-1.2556 Y0.1215 F3.94  
G01 X-1.2556 Y0.1193 
G01 X-1.2564 Y0.1173 
G01 X-1.2580 Y0.1157 
G01 X-1.2600 Y0.1149 
G01 X-1.2622 Y0.1149 
G01 X-1.2642 Y0.1157 
G01 X-1.2710 Y0.1225 
G01 X-1.2818 Y0.1225 
G01 X-1.2863 Y0.1181 
G01 X-1.2863 Y0.1150 
G01 X-1.2818 Y0.1105 
G01 X-1.2677 Y0.1105 
G01 X-1.2656 Y0.1097 
G01 X-1.2580 Y0.1020 
G01 X-1.2564 Y0.1005 
G01 X-1.2556 Y0.0984 
G01 X-1.2556 Y0.0886 
G01 X-1.2564 Y0.0866 
G01 X-1.2656 Y0.0773 
G01 X-1.2676 Y0.0765 
G01 X-1.2852 Y0.0765 
G01 X-1.2872 Y0.0773 
G01 X-1.2964 Y0.0866 
G01 X-1.2973 Y0.0886 
G01 X-1.2973 Y0.0908 
G01 X-1.2964 Y0.0928 
G01 X-1.2949 Y0.0943 
G01 X-1.2929 Y0.0952 
G01 X-1.2907 Y0.0952 
G01 X-1.2886 Y0.0943 
G01 X-1.2818 Y0.0875 
G01 X-1.2710 Y0.0875 
G01 X-1.2666 Y0.0920 
G01 X-1.2666 Y0.0951 
G01 X-1.2710 Y0.0995 
G01 X-1.2852 Y0.0995 
G01 X-1.2872 Y0.1004 
G01 X-1.2964 Y0.1096 
G01 X-1.2973 Y0.1116 
G01 X-1.2973 Y0.1215 
G01 X-1.2964 Y0.1235 
G01 X-1.2872 Y0.1327 
G01 X-1.2852 Y0.1335 
G01 X-1.2677 Y0.1335 
G01 X-1.2656 Y0.1327 
G01 X-1.2641 Y0.1312 
G01 X-1.2564 Y0.1235 
G00 Z0.1000 
G00 X-1.3016 Y0.1291 
G01 Z-0.0070 F3.94  
G01 X-1.3016 Y0.0825 F3.94  
G01 X-1.3015 Y0.0820 
G01 X-1.3016 Y0.0815 
G01 X-1.3016 Y0.0809 
G01 X-1.3018 Y0.0804 
G01 X-1.3019 Y0.0798 
G01 X-1.3022 Y0.0794 
G01 X-1.3024 Y0.0789 
G01 X-1.3028 Y0.0785 
G01 X-1.3031 Y0.0780 
G01 X-1.3036 Y0.0777 
G01 X-1.3040 Y0.0773 
G01 X-1.3045 Y0.0771 
G01 X-1.3050 Y0.0768 
G01 X-1.3055 Y0.0767 
G01 X-1.3060 Y0.0765 
G01 X-1.3066 Y0.0765 
G01 X-1.3071 Y0.0764 
G01 X-1.3077 Y0.0765 
G01 X-1.3082 Y0.0765 
G01 X-1.3087 Y0.0767 
G01 X-1.3093 Y0.0768 
G01 X-1.3097 Y0.0771 
G01 X-1.3102 Y0.0773 
G01 X-1.3106 Y0.0777 
G01 X-1.3111 Y0.0780 
G01 X-1.3114 Y0.0785 
G01 X-1.3118 Y0.0789 
G01 X-1.3120 Y0.0794 
G01 X-1.3323 Y0.1099 
G01 X-1.3323 Y0.0809 
G01 X-1.3331 Y0.0789 
G01 X-1.3347 Y0.0773 
G01 X-1.3367 Y0.0765 
G01 X-1.3389 Y0.0765 
G01 X-1.3409 Y0.0773 
G01 X-1.3425 Y0.0789 
G01 X-1.3433 Y0.0809 
G01 X-1.3433 Y0.1275 
G01 X-1.3434 Y0.1280 
G01 X-1.3433 Y0.1286 
G01 X-1.3433 Y0.1291 
G01 X-1.3431 Y0.1296 
G01 X-1.3430 Y0.1302 
G01 X-1.3427 Y0.1306 
G01 X-1.3425 Y0.1312 
G01 X-1.3421 Y0.1315 
G01 X-1.3418 Y0.1320 
G01 X-1.3413 Y0.1323 
G01 X-1.3409 Y0.1327 
G01 X-1.3404 Y0.1329 
G01 X-1.3399 Y0.1332 
G01 X-1.3394 Y0.1333 
G01 X-1.3389 Y0.1335 
G01 X-1.3383 Y0.1335 
G01 X-1.3378 Y0.1336 
G01 X-1.3373 Y0.1335 
G01 X-1.3367 Y0.1335 
G01 X-1.3362 Y0.1333 
G01 X-1.3357 Y0.1332 
G01 X-1.3352 Y0.1329 
G01 X-1.3347 Y0.1327 
G01 X-1.3343 Y0.1323 
G01 X-1.3338 Y0.1320 
G01 X-1.3335 Y0.1315 
G01 X-1.3331 Y0.1312 
G01 X-1.3329 Y0.1306 
G01 X-1.3126 Y0.1002 
G01 X-1.3126 Y0.1291 
G01 X-1.3118 Y0.1312 
G01 X-1.3102 Y0.1327 
G01 X-1.3082 Y0.1335 
G01 X-1.3060 Y0.1335 
G01 X-1.3040 Y0.1327 
G01 X-1.3024 Y0.1312 
G01 X-1.3016 Y0.1291 
G00 Z0.1000 
G00 X-1.3082 Y0.1515 
G01 Z-0.0070 F3.94  
G01 X-1.3102 Y0.1523 F3.94  
G01 X-1.3118 Y0.1539 
G01 X-1.3126 Y0.1559 
G01 X-1.3126 Y0.2041 
G01 X-1.3118 Y0.2062 
G01 X-1.3102 Y0.2077 
G01 X-1.3082 Y0.2085 
G01 X-1.2830 Y0.2085 
G01 X-1.2810 Y0.2077 
G01 X-1.2794 Y0.2062 
G01 X-1.2718 Y0.1985 
G01 X-1.2709 Y0.1965 
G01 X-1.2709 Y0.1636 
G01 X-1.2718 Y0.1616 
G01 X-1.2810 Y0.1523 
G01 X-1.2830 Y0.1515 
G01 X-1.3082 Y0.1515 
G00 Z0.1000 
G00 X-1.3178 Y0.1539 
G01 Z-0.0070 F3.94  
G01 X-1.3193 Y0.1523 F3.94  
G01 X-1.3214 Y0.1515 
G01 X-1.3542 Y0.1515 
G01 X-1.3563 Y0.1523 
G01 X-1.3578 Y0.1539 
G01 X-1.3587 Y0.1559 
G01 X-1.3587 Y0.1581 
G01 X-1.3587 Y0.2041 
G01 X-1.3578 Y0.2062 
G01 X-1.3563 Y0.2077 
G01 X-1.3542 Y0.2085 
G01 X-1.3521 Y0.2085 
G01 X-1.3500 Y0.2077 
G01 X-1.3485 Y0.2062 
G01 X-1.3477 Y0.2041 
G01 X-1.3477 Y0.1625 
G01 X-1.3214 Y0.1625 
G01 X-1.3193 Y0.1617 
G01 X-1.3178 Y0.1601 
G01 X-1.3170 Y0.1581 
G01 X-1.3170 Y0.1559 
G01 X-1.3178 Y0.1539 
G00 Z0.1000 
G00 X-1.3016 Y0.1625 
G01 Z-0.0070 F3.94  
G01 X-1.2864 Y0.1625 F3.94  
G01 X-1.2819 Y0.1670 
G01 X-1.2819 Y0.1931 
G01 X-1.2864 Y0.1975 
G01 X-1.3016 Y0.1975 
G01 X-1.3016 Y0.1625 
G00 Z0.1000 
G00 X-1.3654 Y0.1617 
G01 Z-0.0070 F3.94  
G01 X-1.3638 Y0.1601 F3.94  
G01 X-1.3630 Y0.1581 
G01 X-1.3630 Y0.1559 
G01 X-1.3638 Y0.1539 
G01 X-1.3654 Y0.1523 
G01 X-1.3674 Y0.1515 
G01 X-1.4003 Y0.1515 
G01 X-1.4023 Y0.1523 
G01 X-1.4039 Y0.1539 
G01 X-1.4047 Y0.1559 
G01 X-1.4047 Y0.2041 
G01 X-1.4039 Y0.2062 
G01 X-1.4023 Y0.2077 
G01 X-1.4003 Y0.2085 
G01 X-1.3981 Y0.2085 
G01 X-1.3674 Y0.2085 
G01 X-1.3654 Y0.2077 
G01 X-1.3638 Y0.2062 
G01 X-1.3630 Y0.2041 
G01 X-1.3630 Y0.2019 
G01 X-1.3638 Y0.1999 
G01 X-1.3654 Y0.1984 
G01 X-1.3674 Y0.1975 
G01 X-1.3937 Y0.1975 
G01 X-1.3937 Y0.1855 
G01 X-1.3827 Y0.1855 
G01 X-1.3807 Y0.1847 
G01 X-1.3792 Y0.1831 
G01 X-1.3783 Y0.1811 
G01 X-1.3783 Y0.1789 
G01 X-1.3792 Y0.1769 
G01 X-1.3807 Y0.1754 
G01 X-1.3827 Y0.1745 
G01 X-1.3937 Y0.1745 
G01 X-1.3937 Y0.1625 
G01 X-1.3674 Y0.1625 
G01 X-1.3654 Y0.1617 
G00 Z0.1000 
G00 X-1.3521 Y0.1335 
G01 Z-0.0070 F3.94  
G01 X-1.3500 Y0.1327 F3.94  
G01 X-1.3485 Y0.1312 
G01 X-1.3477 Y0.1291 
G01 X-1.3477 Y0.1269 
G01 X-1.3485 Y0.1249 
G01 X-1.3500 Y0.1234 
G01 X-1.3521 Y0.1225 
G01 X-1.3783 Y0.1225 
G01 X-1.3783 Y0.1105 
G01 X-1.3674 Y0.1105 
G01 X-1.3654 Y0.1097 
G01 X-1.3638 Y0.1081 
G01 X-1.3630 Y0.1061 
G01 X-1.3630 Y0.1039 
G01 X-1.3638 Y0.1019 
G01 X-1.3654 Y0.1004 
G01 X-1.3674 Y0.0995 
G01 X-1.3783 Y0.0995 
G01 X-1.3783 Y0.0875 
G01 X-1.3521 Y0.0875 
G01 X-1.3500 Y0.0867 
G01 X-1.3485 Y0.0851 
G01 X-1.3477 Y0.0831 
G01 X-1.3477 Y0.0809 
G01 X-1.3485 Y0.0789 
G01 X-1.3500 Y0.0773 
G01 X-1.3521 Y0.0765 
G01 X-1.3849 Y0.0765 
G01 X-1.3870 Y0.0773 
G01 X-1.3885 Y0.0789 
G01 X-1.3893 Y0.0809 
G01 X-1.3893 Y0.1291 
G01 X-1.3885 Y0.1312 
G01 X-1.3870 Y0.1327 
G01 X-1.3849 Y0.1335 
G01 X-1.3827 Y0.1335 
G01 X-1.3521 Y0.1335 
G00 Z0.1000 
G00 X-1.4037 Y0.1327 
G01 Z-0.0070 F3.94  
G01 X-1.3945 Y0.1235 F3.94  
G01 X-1.3937 Y0.1215 
G01 X-1.3937 Y0.1193 
G01 X-1.3945 Y0.1173 
G01 X-1.3961 Y0.1157 
G01 X-1.3981 Y0.1149 
G01 X-1.4003 Y0.1149 
G01 X-1.4023 Y0.1157 
G01 X-1.4091 Y0.1225 
G01 X-1.4199 Y0.1225 
G01 X-1.4244 Y0.1181 
G01 X-1.4244 Y0.1150 
G01 X-1.4199 Y0.1105 
G01 X-1.4058 Y0.1105 
G01 X-1.4037 Y0.1097 
G01 X-1.3961 Y0.1020 
G01 X-1.3945 Y0.1005 
G01 X-1.3937 Y0.0984 
G01 X-1.3937 Y0.0886 
G01 X-1.3945 Y0.0866 
G01 X-1.4037 Y0.0773 
G01 X-1.4057 Y0.0765 
G01 X-1.4233 Y0.0765 
G01 X-1.4253 Y0.0773 
G01 X-1.4345 Y0.0866 
G01 X-1.4354 Y0.0886 
G01 X-1.4354 Y0.0908 
G01 X-1.4345 Y0.0928 
G01 X-1.4330 Y0.0943 
G01 X-1.4310 Y0.0952 
G01 X-1.4288 Y0.0952 
G01 X-1.4268 Y0.0943 
G01 X-1.4199 Y0.0875 
G01 X-1.4091 Y0.0875 
G01 X-1.4047 Y0.0920 
G01 X-1.4047 Y0.0951 
G01 X-1.4091 Y0.0995 
G01 X-1.4233 Y0.0995 
G01 X-1.4253 Y0.1004 
G01 X-1.4345 Y0.1096 
G01 X-1.4354 Y0.1116 
G01 X-1.4354 Y0.1215 
G01 X-1.4345 Y0.1235 
G01 X-1.4253 Y0.1327 
G01 X-1.4233 Y0.1335 
G01 X-1.4058 Y0.1335 
G01 X-1.4037 Y0.1327 
G00 Z0.1000 
G00 X-1.4099 Y0.1539 
G01 Z-0.0070 F3.94  
G01 X-1.4114 Y0.1523 F3.94  
G01 X-1.4134 Y0.1515 
G01 X-1.4310 Y0.1515 
G01 X-1.4330 Y0.1523 
G01 X-1.4345 Y0.1539 
G01 X-1.4354 Y0.1559 
G01 X-1.4354 Y0.1581 
G01 X-1.4345 Y0.1601 
G01 X-1.4330 Y0.1617 
G01 X-1.4310 Y0.1625 
G01 X-1.4277 Y0.1625 
G01 X-1.4277 Y0.1975 
G01 X-1.4310 Y0.1975 
G01 X-1.4330 Y0.1984 
G01 X-1.4345 Y0.1999 
G01 X-1.4354 Y0.2019 
G01 X-1.4354 Y0.2041 
G01 X-1.4345 Y0.2062 
G01 X-1.4330 Y0.2077 
G01 X-1.4310 Y0.2085 
G01 X-1.4134 Y0.2085 
G01 X-1.4114 Y0.2077 
G01 X-1.4099 Y0.2062 
G01 X-1.4090 Y0.2041 
G01 X-1.4090 Y0.2019 
G01 X-1.4099 Y0.1999 
G01 X-1.4114 Y0.1984 
G01 X-1.4134 Y0.1975 
G01 X-1.4167 Y0.1975 
G01 X-1.4167 Y0.1625 
G01 X-1.4134 Y0.1625 
G01 X-1.4114 Y0.1617 
G01 X-1.4099 Y0.1601 
G01 X-1.4090 Y0.1581 
G01 X-1.4090 Y0.1559 
G01 X-1.4099 Y0.1539 
G00 Z0.1000 
G00 X-1.4406 Y0.1539 
G01 Z-0.0070 F3.94  
G01 X-1.4421 Y0.1523 F3.94  
G01 X-1.4441 Y0.1515 
G01 X-1.4463 Y0.1515 
G01 X-1.4483 Y0.1523 
G01 X-1.4499 Y0.1539 
G01 X-1.4507 Y0.1559 
G01 X-1.4507 Y0.1745 
G01 X-1.4704 Y0.1745 
G01 X-1.4704 Y0.1559 
G01 X-1.4713 Y0.1539 
G01 X-1.4728 Y0.1523 
G01 X-1.4748 Y0.1515 
G01 X-1.4770 Y0.1515 
G01 X-1.4790 Y0.1523 
G01 X-1.4806 Y0.1539 
G01 X-1.4814 Y0.1559 
G01 X-1.4814 Y0.2041 
G01 X-1.4806 Y0.2062 
G01 X-1.4790 Y0.2077 
G01 X-1.4770 Y0.2085 
G01 X-1.4748 Y0.2085 
G01 X-1.4728 Y0.2077 
G01 X-1.4713 Y0.2062 
G01 X-1.4704 Y0.2041 
G01 X-1.4704 Y0.1855 
G01 X-1.4507 Y0.1855 
G01 X-1.4507 Y0.2041 
G01 X-1.4499 Y0.2062 
G01 X-1.4483 Y0.2077 
G01 X-1.4463 Y0.2085 
G01 X-1.4441 Y0.2085 
G01 X-1.4421 Y0.2077 
G01 X-1.4406 Y0.2062 
G01 X-1.4397 Y0.2041 
G01 X-1.4397 Y0.1559 
G01 X-1.4406 Y0.1539 
G00 Z0.1000 
G00 X-1.4421 Y0.1327 
G01 Z-0.0070 F3.94  
G01 X-1.4406 Y0.1312 F3.94  
G01 X-1.4397 Y0.1291 
G01 X-1.4397 Y0.1269 
G01 X-1.4406 Y0.1249 
G01 X-1.4421 Y0.1234 
G01 X-1.4441 Y0.1225 
G01 X-1.4551 Y0.1225 
G01 X-1.4551 Y0.0809 
G01 X-1.4559 Y0.0789 
G01 X-1.4575 Y0.0773 
G01 X-1.4595 Y0.0765 
G01 X-1.4617 Y0.0765 
G01 X-1.4637 Y0.0773 
G01 X-1.4652 Y0.0789 
G01 X-1.4661 Y0.0809 
G01 X-1.4661 Y0.1225 
G01 X-1.4770 Y0.1225 
G01 X-1.4790 Y0.1234 
G01 X-1.4806 Y0.1249 
G01 X-1.4814 Y0.1269 
G01 X-1.4814 Y0.1291 
G01 X-1.4806 Y0.1312 
G01 X-1.4790 Y0.1327 
G01 X-1.4770 Y0.1335 
G01 X-1.4441 Y0.1335 
G01 X-1.4421 Y0.1327 
G00 Z0.1000 
G00 X-1.5035 Y0.1327 
G01 Z-0.0070 F3.94  
G01 X-1.4882 Y0.1174 F3.94  
G01 X-1.4866 Y0.1158 
G01 X-1.4858 Y0.1138 
G01 X-1.4858 Y0.0809 
G01 X-1.4866 Y0.0789 
G01 X-1.4882 Y0.0773 
G01 X-1.4902 Y0.0765 
G01 X-1.4924 Y0.0765 
G01 X-1.4944 Y0.0773 
G01 X-1.4959 Y0.0789 
G01 X-1.4968 Y0.0809 
G01 X-1.4968 Y0.0995 
G01 X-1.5165 Y0.0995 
G01 X-1.5165 Y0.0809 
G01 X-1.5173 Y0.0789 
G01 X-1.5188 Y0.0773 
G01 X-1.5209 Y0.0765 
G01 X-1.5231 Y0.0765 
G01 X-1.5251 Y0.0773 
G01 X-1.5266 Y0.0789 
G01 X-1.5275 Y0.0809 
G01 X-1.5275 Y0.1138 
G01 X-1.5266 Y0.1158 
G01 X-1.5113 Y0.1312 
G01 X-1.5097 Y0.1327 
G01 X-1.5077 Y0.1335 
G01 X-1.5055 Y0.1335 
G01 X-1.5035 Y0.1327 
G00 Z0.1000 
G00 X-1.5066 Y0.1203 
G01 Z-0.0070 F3.94  
G01 X-1.5164 Y0.1105 F3.94  
G01 X-1.4969 Y0.1105 
G01 X-1.5066 Y0.1203 
G00 Z0.1000 
G00 X-1.5318 Y0.1215 
G01 Z-0.0070 F3.94  
G01 X-1.5318 Y0.1116 F3.94  
G01 X-1.5326 Y0.1096 
G01 X-1.5372 Y0.1050 
G01 X-1.5342 Y0.1020 
G01 X-1.5326 Y0.1005 
G01 X-1.5318 Y0.0984 
G01 X-1.5318 Y0.0886 
G01 X-1.5326 Y0.0866 
G01 X-1.5419 Y0.0773 
G01 X-1.5439 Y0.0765 
G01 X-1.5691 Y0.0765 
G01 X-1.5711 Y0.0773 
G01 X-1.5727 Y0.0789 
G01 X-1.5735 Y0.0809 
G01 X-1.5735 Y0.1061 
G01 X-1.5735 Y0.1269 
G01 X-1.5735 Y0.1291 
G01 X-1.5727 Y0.1312 
G01 X-1.5711 Y0.1327 
G01 X-1.5691 Y0.1335 
G01 X-1.5439 Y0.1335 
G01 X-1.5419 Y0.1327 
G01 X-1.5342 Y0.1250 
G01 X-1.5326 Y0.1235 
G01 X-1.5318 Y0.1215 
G00 Z0.1000 
G00 X-1.5428 Y0.1181 
G01 Z-0.0070 F3.94  
G01 X-1.5473 Y0.1225 F3.94  
G01 X-1.5625 Y0.1225 
G01 X-1.5625 Y0.1105 
G01 X-1.5473 Y0.1105 
G01 X-1.5428 Y0.1150 
G01 X-1.5428 Y0.1181 
G00 Z0.1000 
G00 X-1.5428 Y0.0951 
G01 Z-0.0070 F3.94  
G01 X-1.5473 Y0.0995 F3.94  
G01 X-1.5625 Y0.0995 
G01 X-1.5625 Y0.0875 
G01 X-1.5473 Y0.0875 
G01 X-1.5428 Y0.0920 
G01 X-1.5428 Y0.0951 
G00 Z0.1000 
G00 X-1.5404 Y0.1523 
G01 Z-0.0070 F3.94  
G01 X-1.5407 Y0.1526 F3.94  
G01 X-1.5527 Y0.1646 
G01 X-1.5649 Y0.1523 
G01 X-1.5669 Y0.1515 
G01 X-1.5691 Y0.1515 
G01 X-1.5711 Y0.1523 
G01 X-1.5727 Y0.1539 
G01 X-1.5735 Y0.1559 
G01 X-1.5735 Y0.1581 
G01 X-1.5735 Y0.2041 
G01 X-1.5727 Y0.2062 
G01 X-1.5711 Y0.2077 
G01 X-1.5691 Y0.2085 
G01 X-1.5669 Y0.2085 
G01 X-1.5649 Y0.2077 
G01 X-1.5633 Y0.2062 
G01 X-1.5625 Y0.2041 
G01 X-1.5625 Y0.1703 
G01 X-1.5573 Y0.1755 
G01 X-1.5558 Y0.1770 
G01 X-1.5537 Y0.1778 
G01 X-1.5516 Y0.1778 
G01 X-1.5495 Y0.1770 
G01 X-1.5428 Y0.1703 
G01 X-1.5428 Y0.2041 
G01 X-1.5420 Y0.2062 
G01 X-1.5404 Y0.2077 
G01 X-1.5384 Y0.2085 
G01 X-1.5362 Y0.2085 
G01 X-1.5342 Y0.2077 
G01 X-1.5326 Y0.2062 
G01 X-1.5318 Y0.2041 
G01 X-1.5318 Y0.1559 
G01 X-1.5326 Y0.1539 
G01 X-1.5342 Y0.1523 
G01 X-1.5362 Y0.1515 
G01 X-1.5384 Y0.1515 
G01 X-1.5404 Y0.1523 
G00 Z0.1000 
G00 X-1.5174 Y0.1523 
G01 Z-0.0070 F3.94  
G01 X-1.5266 Y0.1616 F3.94  
G01 X-1.5275 Y0.1636 
G01 X-1.5275 Y0.1658 
G01 X-1.5266 Y0.1678 
G01 X-1.5251 Y0.1693 
G01 X-1.5231 Y0.1702 
G01 X-1.5209 Y0.1702 
G01 X-1.5188 Y0.1693 
G01 X-1.5120 Y0.1625 
G01 X-1.5012 Y0.1625 
G01 X-1.4968 Y0.1670 
G01 X-1.4968 Y0.1701 
G01 X-1.5012 Y0.1745 
G01 X-1.5154 Y0.1745 
G01 X-1.5174 Y0.1754 
G01 X-1.5266 Y0.1846 
G01 X-1.5275 Y0.1866 
G01 X-1.5275 Y0.1965 
G01 X-1.5266 Y0.1985 
G01 X-1.5174 Y0.2077 
G01 X-1.5154 Y0.2085 
G01 X-1.4978 Y0.2085 
G01 X-1.4958 Y0.2077 
G01 X-1.4943 Y0.2062 
G01 X-1.4866 Y0.1985 
G01 X-1.4858 Y0.1965 
G01 X-1.4858 Y0.1943 
G01 X-1.4866 Y0.1923 
G01 X-1.4882 Y0.1907 
G01 X-1.4902 Y0.1899 
G01 X-1.4924 Y0.1899 
G01 X-1.4944 Y0.1907 
G01 X-1.5012 Y0.1975 
G01 X-1.5120 Y0.1975 
G01 X-1.5165 Y0.1931 
G01 X-1.5165 Y0.1900 
G01 X-1.5120 Y0.1855 
G01 X-1.4978 Y0.1855 
G01 X-1.4958 Y0.1847 
G01 X-1.4882 Y0.1770 
G01 X-1.4866 Y0.1755 
G01 X-1.4858 Y0.1734 
G01 X-1.4858 Y0.1636 
G01 X-1.4866 Y0.1616 
G01 X-1.4958 Y0.1523 
G01 X-1.4978 Y0.1515 
G01 X-1.5154 Y0.1515 
G01 X-1.5174 Y0.1523 
G00 Z0.1000 
G00 X-1.5944 Y0.1772 
G01 Z-0.0070 F3.94  
G01 X-1.5980 Y0.1736 F3.94  
G01 X-1.6025 Y0.1710 
G01 X-1.6074 Y0.1697 
G01 X-1.6126 Y0.1697 
G01 X-1.6175 Y0.1710 
G01 X-1.6220 Y0.1736 
G01 X-1.6352 Y0.1868 
G01 X-1.6377 Y0.1913 
G01 X-1.6391 Y0.1962 
G01 X-1.6391 Y0.2013 
G01 X-1.6377 Y0.2063 
G01 X-1.6352 Y0.2108 
G01 X-1.6316 Y0.2144 
G01 X-1.6271 Y0.2170 
G01 X-1.6221 Y0.2183 
G01 X-1.6170 Y0.2183 
G01 X-1.6074 Y0.2183 
G01 X-1.6025 Y0.2170 
G01 X-1.5980 Y0.2144 
G01 X-1.5944 Y0.2108 
G01 X-1.5918 Y0.2063 
G01 X-1.5905 Y0.2013 
G01 X-1.5905 Y0.1866 
G01 X-1.5918 Y0.1817 
G01 X-1.5944 Y0.1772 
G00 Z0.1000 
G00 X-1.5943 Y0.0802 
G01 Z-0.0070 F3.94  
G01 X-1.5934 Y0.0793 F3.94  
G01 X-1.5923 Y0.0785 
G01 X-1.5915 Y0.0774 
G01 X-1.5906 Y0.0765 
G01 X-1.5900 Y0.0754 
G01 X-1.5892 Y0.0744 
G01 X-1.5887 Y0.0732 
G01 X-1.5881 Y0.0721 
G01 X-1.5877 Y0.0708 
G01 X-1.5871 Y0.0693 
G01 X-1.5814 Y0.0636 
G01 X-1.5778 Y0.0600 
G01 X-1.5752 Y0.0555 
G01 X-1.5742 Y0.0517 
G01 X-1.5739 Y0.0506 
G01 X-1.5739 Y0.0454 
G01 X-1.5752 Y0.0405 
G01 X-1.5778 Y0.0360 
G01 X-1.5814 Y0.0324 
G01 X-1.5859 Y0.0298 
G01 X-1.5897 Y0.0288 
G01 X-1.5908 Y0.0285 
G01 X-1.6254 Y0.0285 
G01 X-1.6303 Y0.0298 
G01 X-1.6348 Y0.0324 
G01 X-1.6384 Y0.0360 
G01 X-1.6410 Y0.0405 
G01 X-1.6423 Y0.0454 
G01 X-1.6423 Y0.0506 
G01 X-1.6410 Y0.0555 
G01 X-1.6384 Y0.0600 
G01 X-1.6348 Y0.0636 
G01 X-1.6209 Y0.0774 
G01 X-1.6201 Y0.0785 
G01 X-1.6191 Y0.0793 
G01 X-1.6182 Y0.0802 
G01 X-1.6171 Y0.0808 
G01 X-1.6161 Y0.0816 
G01 X-1.6149 Y0.0821 
G01 X-1.6138 Y0.0827 
G01 X-1.6125 Y0.0831 
G01 X-1.6113 Y0.0836 
G01 X-1.6100 Y0.0837 
G01 X-1.6088 Y0.0841 
G01 X-1.6075 Y0.0841 
G01 X-1.6062 Y0.0842 
G01 X-1.6050 Y0.0841 
G01 X-1.6037 Y0.0841 
G01 X-1.6024 Y0.0837 
G01 X-1.6011 Y0.0836 
G01 X-1.6000 Y0.0831 
G01 X-1.5987 Y0.0827 
G01 X-1.5976 Y0.0821 
G01 X-1.5964 Y0.0816 
G01 X-1.5954 Y0.0808 
G01 X-1.5943 Y0.0802 
G00 Z0.1000 
G00 X-1.7400 Y0.0778 
G01 Z-0.0070 F3.94  
G01 X-1.7364 Y0.0741 F3.94  
G01 X-1.7222 Y0.0600 
G01 X-1.7197 Y0.0555 
G01 X-1.7183 Y0.0506 
G01 X-1.7183 Y0.0454 
G01 X-1.7197 Y0.0405 
G01 X-1.7222 Y0.0360 
G01 X-1.7259 Y0.0324 
G01 X-1.7303 Y0.0298 
G01 X-1.7353 Y0.0285 
G01 X-1.7482 Y0.0285 
G01 X-1.7490 Y0.0284 
G01 X-1.7508 Y0.0285 
G01 X-1.7526 Y0.0285 
G01 X-1.7531 Y0.0286 
G01 X-1.7539 Y0.0287 
G01 X-1.7541 Y0.0288 
G01 X-1.7544 Y0.0288 
G01 X-1.7552 Y0.0291 
G01 X-1.7555 Y0.0291 
G01 X-1.7572 Y0.0297 
G01 X-1.7575 Y0.0298 
G01 X-1.7577 Y0.0299 
G01 X-1.7594 Y0.0305 
G01 X-1.7598 Y0.0307 
G01 X-1.7603 Y0.0309 
G01 X-1.7612 Y0.0316 
G01 X-1.7617 Y0.0318 
G01 X-1.7626 Y0.0326 
G01 X-1.7637 Y0.0333 
G01 X-1.7640 Y0.0336 
G01 X-1.7650 Y0.0343 
G01 X-1.7653 Y0.0347 
G01 X-1.7657 Y0.0350 
G01 X-1.7664 Y0.0360 
G01 X-1.7667 Y0.0363 
G01 X-1.7674 Y0.0374 
G01 X-1.7682 Y0.0383 
G01 X-1.7684 Y0.0388 
G01 X-1.7691 Y0.0397 
G01 X-1.7693 Y0.0402 
G01 X-1.7695 Y0.0406 
G01 X-1.7701 Y0.0423 
G01 X-1.7702 Y0.0425 
G01 X-1.7703 Y0.0428 
G01 X-1.7709 Y0.0445 
G01 X-1.7709 Y0.0448 
G01 X-1.7712 Y0.0456 
G01 X-1.7712 Y0.0459 
G01 X-1.7713 Y0.0461 
G01 X-1.7714 Y0.0469 
G01 X-1.7715 Y0.0474 
G01 X-1.7715 Y0.0492 
G01 X-1.7716 Y0.0510 
G01 X-1.7715 Y0.0518 
G01 X-1.7715 Y0.0647 
G01 X-1.7702 Y0.0697 
G01 X-1.7676 Y0.0741 
G01 X-1.7640 Y0.0778 
G01 X-1.7595 Y0.0803 
G01 X-1.7546 Y0.0817 
G01 X-1.7494 Y0.0817 
G01 X-1.7445 Y0.0803 
G01 X-1.7400 Y0.0778 
G00 Z0.1000 
G00 X-1.7292 Y0.6516 
G01 Z-0.0070 F3.94  
G01 X-1.7620 Y0.6844 F3.94  
G01 X-1.7656 Y0.6880 
G01 X-1.7682 Y0.6925 
G01 X-1.7695 Y0.6974 
G01 X-1.7695 Y1.0526 
G01 X-1.7682 Y1.0575 
G01 X-1.7656 Y1.0620 
G01 X-1.7620 Y1.0656 
G01 X-1.5695 Y1.2581 
G01 X-1.5695 Y1.3526 
G01 X-1.5682 Y1.3575 
G01 X-1.5656 Y1.3620 
G01 X-1.5156 Y1.4120 
G01 X-1.5120 Y1.4156 
G01 X-1.5075 Y1.4182 
G01 X-1.5026 Y1.4195 
G01 X-1.2134 Y1.4195 
G01 X-1.2085 Y1.4182 
G01 X-1.2040 Y1.4156 
G01 X-1.1309 Y1.3425 
G01 X-1.1274 Y1.3460 
G01 X-1.1253 Y1.3474 
G01 X-1.1242 Y1.3515 
G01 X-1.1216 Y1.3560 
G01 X-1.0656 Y1.4120 
G01 X-1.0620 Y1.4156 
G01 X-1.0575 Y1.4182 
G01 X-1.0526 Y1.4195 
G01 X-0.3474 Y1.4195 
G01 X-0.3425 Y1.4182 
G01 X-0.3380 Y1.4156 
G01 X-0.1844 Y1.2620 
G01 X-0.1818 Y1.2575 
G01 X-0.1805 Y1.2526 
G01 X-0.1805 Y0.8974 
G01 X-0.1818 Y0.8925 
G01 X-0.1844 Y0.8880 
G01 X-0.2344 Y0.8380 
G01 X-0.2380 Y0.8344 
G01 X-0.2425 Y0.8318 
G01 X-0.2474 Y0.8305 
G01 X-0.4106 Y0.8305 
G01 X-0.4106 Y0.7316 
G01 X-0.3979 Y0.7316 
G01 X-0.3966 Y0.7311 
G01 X-0.3957 Y0.7301 
G01 X-0.3951 Y0.7288 
G01 X-0.3951 Y0.6212 
G01 X-0.3957 Y0.6199 
G01 X-0.3966 Y0.6189 
G01 X-0.3979 Y0.6184 
G01 X-0.4623 Y0.6184 
G01 X-0.4636 Y0.6189 
G01 X-0.4646 Y0.6199 
G01 X-0.4651 Y0.6212 
G01 X-0.4651 Y0.7288 
G01 X-0.4646 Y0.7301 
G01 X-0.4636 Y0.7311 
G01 X-0.4623 Y0.7316 
G01 X-0.4496 Y0.7316 
G01 X-0.4496 Y0.9355 
G01 X-0.4501 Y0.9359 
G01 X-0.4548 Y0.9405 
G01 X-0.4584 Y0.9460 
G01 X-0.4609 Y0.9521 
G01 X-0.4622 Y0.9586 
G01 X-0.4622 Y1.0252 
G01 X-0.4609 Y1.0316 
G01 X-0.4584 Y1.0377 
G01 X-0.4548 Y1.0432 
G01 X-0.4501 Y1.0479 
G01 X-0.4446 Y1.0516 
G01 X-0.4385 Y1.0541 
G01 X-0.4320 Y1.0554 
G01 X-0.4254 Y1.0554 
G01 X-0.4190 Y1.0541 
G01 X-0.4129 Y1.0516 
G01 X-0.4074 Y1.0479 
G01 X-0.4027 Y1.0432 
G01 X-0.3990 Y1.0377 
G01 X-0.3965 Y1.0316 
G01 X-0.3952 Y1.0252 
G01 X-0.3952 Y0.9586 
G01 X-0.3965 Y0.9521 
G01 X-0.3990 Y0.9460 
G01 X-0.4027 Y0.9405 
G01 X-0.4074 Y0.9359 
G01 X-0.4106 Y0.9337 
G01 X-0.4106 Y0.8695 
G01 X-0.2581 Y0.8695 
G01 X-0.2195 Y0.9081 
G01 X-0.2195 Y1.2419 
G01 X-0.3581 Y1.3805 
G01 X-0.7029 Y1.3805 
G01 X-0.6880 Y1.3656 
G01 X-0.6844 Y1.3620 
G01 X-0.6818 Y1.3575 
G01 X-0.6805 Y1.3526 
G01 X-0.6805 Y1.0350 
G01 X-0.6818 Y1.0301 
G01 X-0.6844 Y1.0256 
G01 X-0.7335 Y0.9765 
G01 X-0.7335 Y0.9448 
G01 X-0.7340 Y0.9435 
G01 X-0.7350 Y0.9425 
G01 X-0.7363 Y0.9420 
G01 X-0.7889 Y0.9420 
G01 X-0.7902 Y0.9425 
G01 X-0.7912 Y0.9435 
G01 X-0.7917 Y0.9448 
G01 X-0.7917 Y1.0052 
G01 X-0.7912 Y1.0065 
G01 X-0.7902 Y1.0075 
G01 X-0.7889 Y1.0080 
G01 X-0.7571 Y1.0080 
G01 X-0.7195 Y1.0457 
G01 X-0.7195 Y1.3419 
G01 X-0.7581 Y1.3805 
G01 X-1.0419 Y1.3805 
G01 X-1.0805 Y1.3419 
G01 X-1.0800 Y1.3414 
G01 X-1.0763 Y1.3359 
G01 X-1.0738 Y1.3298 
G01 X-1.0725 Y1.3233 
G01 X-1.0725 Y1.2567 
G01 X-1.0738 Y1.2502 
G01 X-1.0763 Y1.2441 
G01 X-1.0800 Y1.2386 
G01 X-1.0846 Y1.2340 
G01 X-1.0901 Y1.2303 
G01 X-1.0962 Y1.2278 
G01 X-1.1027 Y1.2265 
G01 X-1.1093 Y1.2265 
G01 X-1.1158 Y1.2278 
G01 X-1.1219 Y1.2303 
G01 X-1.1274 Y1.2340 
G01 X-1.1320 Y1.2386 
G01 X-1.1357 Y1.2441 
G01 X-1.1382 Y1.2502 
G01 X-1.1395 Y1.2567 
G01 X-1.1395 Y1.2959 
G01 X-1.2241 Y1.3805 
G01 X-1.2419 Y1.3805 
G01 X-1.3085 Y1.3139 
G01 X-1.3085 Y1.2698 
G01 X-1.3090 Y1.2685 
G01 X-1.3100 Y1.2675 
G01 X-1.3113 Y1.2670 
G01 X-1.3639 Y1.2670 
G01 X-1.3652 Y1.2675 
G01 X-1.3662 Y1.2685 
G01 X-1.3667 Y1.2698 
G01 X-1.3667 Y1.3302 
G01 X-1.3662 Y1.3315 
G01 X-1.3652 Y1.3325 
G01 X-1.3639 Y1.3330 
G01 X-1.3445 Y1.3330 
G01 X-1.2971 Y1.3805 
G01 X-1.4919 Y1.3805 
G01 X-1.5305 Y1.3419 
G01 X-1.5305 Y1.2474 
G01 X-1.5318 Y1.2425 
G01 X-1.5344 Y1.2380 
G01 X-1.5380 Y1.2344 
G01 X-1.7305 Y1.0419 
G01 X-1.7305 Y0.7081 
G01 X-1.7091 Y0.6867 
G01 X-1.6781 Y0.6867 
G01 X-1.6768 Y0.6886 
G01 X-1.6722 Y0.6932 
G01 X-1.6667 Y0.6969 
G01 X-1.6606 Y0.6994 
G01 X-1.6541 Y0.7007 
G01 X-1.5875 Y0.7007 
G01 X-1.5810 Y0.6994 
G01 X-1.5750 Y0.6969 
G01 X-1.5695 Y0.6932 
G01 X-1.5648 Y0.6886 
G01 X-1.5611 Y0.6831 
G01 X-1.5586 Y0.6770 
G01 X-1.5573 Y0.6705 
G01 X-1.5573 Y0.6639 
G01 X-1.5586 Y0.6574 
G01 X-1.5611 Y0.6513 
G01 X-1.5648 Y0.6459 
G01 X-1.5695 Y0.6412 
G01 X-1.5750 Y0.6375 
G01 X-1.5810 Y0.6350 
G01 X-1.5875 Y0.6337 
G01 X-1.6541 Y0.6337 
G01 X-1.6606 Y0.6350 
G01 X-1.6667 Y0.6375 
G01 X-1.6722 Y0.6412 
G01 X-1.6768 Y0.6459 
G01 X-1.6781 Y0.6477 
G01 X-1.7198 Y0.6477 
G01 X-1.7247 Y0.6490 
G01 X-1.7292 Y0.6516 
G00 Z0.1000 
G00 X-1.7060 Y0.7076 
G01 Z-0.0070 F3.94  
G01 X-1.7096 Y0.7112 F3.94  
G01 X-1.7122 Y0.7157 
G01 X-1.7135 Y0.7206 
G01 X-1.7135 Y0.7258 
G01 X-1.7135 Y0.7304 
G01 X-1.7137 Y0.7319 
G01 X-1.7135 Y0.7329 
G01 X-1.7135 Y0.7339 
G01 X-1.7131 Y0.7354 
G01 X-1.7129 Y0.7370 
G01 X-1.7124 Y0.7379 
G01 X-1.7122 Y0.7389 
G01 X-1.7114 Y0.7402 
G01 X-1.7108 Y0.7417 
G01 X-1.7101 Y0.7425 
G01 X-1.7096 Y0.7433 
G01 X-1.7085 Y0.7444 
G01 X-1.7075 Y0.7456 
G01 X-1.7067 Y0.7462 
G01 X-1.7060 Y0.7470 
G01 X-1.7046 Y0.7478 
G01 X-1.7034 Y0.7487 
G01 X-1.7024 Y0.7490 
G01 X-1.7015 Y0.7495 
G01 X-1.7000 Y0.7499 
G01 X-1.6986 Y0.7505 
G01 X-1.6976 Y0.7506 
G01 X-1.6966 Y0.7509 
G01 X-1.6950 Y0.7509 
G01 X-1.6935 Y0.7510 
G01 X-1.6925 Y0.7509 
G01 X-1.6914 Y0.7509 
G01 X-1.6899 Y0.7505 
G01 X-1.6884 Y0.7502 
G01 X-1.6875 Y0.7498 
G01 X-1.6865 Y0.7495 
G01 X-1.6851 Y0.7488 
G01 X-1.6837 Y0.7481 
G01 X-1.6829 Y0.7475 
G01 X-1.6820 Y0.7470 
G01 X-1.6809 Y0.7459 
G01 X-1.6797 Y0.7449 
G01 X-1.6791 Y0.7441 
G01 X-1.6784 Y0.7433 
G01 X-1.6782 Y0.7429 
G01 X-1.6768 Y0.7416 
G01 X-1.6758 Y0.7408 
G01 X-1.6750 Y0.7398 
G01 X-1.6741 Y0.7389 
G01 X-1.6734 Y0.7377 
G01 X-1.6727 Y0.7367 
G01 X-1.6722 Y0.7355 
G01 X-1.6715 Y0.7344 
G01 X-1.6712 Y0.7332 
G01 X-1.6707 Y0.7320 
G01 X-1.6705 Y0.7307 
G01 X-1.6702 Y0.7294 
G01 X-1.6702 Y0.7282 
G01 X-1.6700 Y0.7269 
G01 X-1.6702 Y0.7256 
G01 X-1.6702 Y0.7243 
G01 X-1.6705 Y0.7231 
G01 X-1.6707 Y0.7218 
G01 X-1.6712 Y0.7206 
G01 X-1.6715 Y0.7194 
G01 X-1.6722 Y0.7182 
G01 X-1.6727 Y0.7170 
G01 X-1.6734 Y0.7160 
G01 X-1.6741 Y0.7149 
G01 X-1.6750 Y0.7140 
G01 X-1.6758 Y0.7130 
G01 X-1.6768 Y0.7122 
G01 X-1.6777 Y0.7113 
G01 X-1.6788 Y0.7106 
G01 X-1.6818 Y0.7076 
G01 X-1.6863 Y0.7050 
G01 X-1.6912 Y0.7037 
G01 X-1.6966 Y0.7037 
G01 X-1.7015 Y0.7050 
G01 X-1.7060 Y0.7076 
G00 Z0.1000 
G00 X-1.6722 Y0.7412 
G01 Z-0.0070 F3.94  
G01 X-1.6768 Y0.7459 F3.94  
G01 X-1.6805 Y0.7513 
G01 X-1.6830 Y0.7574 
G01 X-1.6843 Y0.7639 
G01 X-1.6843 Y0.7705 
G01 X-1.6830 Y0.7770 
G01 X-1.6805 Y0.7831 
G01 X-1.6768 Y0.7886 
G01 X-1.6722 Y0.7932 
G01 X-1.6667 Y0.7969 
G01 X-1.6606 Y0.7994 
G01 X-1.6541 Y0.8007 
G01 X-1.5875 Y0.8007 
G01 X-1.5810 Y0.7994 
G01 X-1.5750 Y0.7969 
G01 X-1.5695 Y0.7932 
G01 X-1.5648 Y0.7886 
G01 X-1.5636 Y0.7867 
G01 X-1.5599 Y0.7867 
G01 X-1.5599 Y0.7870 
G01 X-1.5602 Y0.7874 
G01 X-1.5606 Y0.7894 
G01 X-1.5611 Y0.7914 
G01 X-1.5611 Y0.7920 
G01 X-1.5612 Y0.7925 
G01 X-1.5611 Y0.7945 
G01 X-1.5611 Y0.7966 
G01 X-1.5610 Y0.7971 
G01 X-1.5610 Y0.7976 
G01 X-1.5603 Y0.7995 
G01 X-1.5598 Y0.8015 
G01 X-1.5595 Y0.8020 
G01 X-1.5594 Y0.8025 
G01 X-1.5583 Y0.8042 
G01 X-1.5572 Y0.8060 
G01 X-1.5569 Y0.8063 
G01 X-1.5566 Y0.8068 
G01 X-1.5550 Y0.8081 
G01 X-1.5536 Y0.8096 
G01 X-1.5531 Y0.8099 
G01 X-1.5528 Y0.8102 
G01 X-1.5509 Y0.8111 
G01 X-1.5491 Y0.8122 
G01 X-1.5486 Y0.8123 
G01 X-1.5482 Y0.8125 
G01 X-1.5462 Y0.8130 
G01 X-1.5442 Y0.8135 
G01 X-1.5437 Y0.8135 
G01 X-1.5432 Y0.8136 
G01 X-1.5411 Y0.8135 
G01 X-1.4706 Y0.8135 
G01 X-1.4668 Y0.8125 
G01 X-1.4657 Y0.8122 
G01 X-1.4630 Y0.8106 
G01 X-1.4612 Y0.8096 
G01 X-1.4422 Y0.7906 
G01 X-1.4418 Y0.7902 
G01 X-1.4386 Y0.7870 
G01 X-1.4360 Y0.7825 
G01 X-1.4347 Y0.7776 
G01 X-1.4347 Y0.7724 
G01 X-1.4348 Y0.7722 
G01 X-1.4360 Y0.7675 
G01 X-1.4385 Y0.7631 
G01 X-1.4422 Y0.7594 
G01 X-1.5141 Y0.6875 
G01 X-1.5149 Y0.6865 
G01 X-1.5159 Y0.6857 
G01 X-1.5168 Y0.6848 
G01 X-1.5179 Y0.6841 
G01 X-1.5190 Y0.6834 
G01 X-1.5202 Y0.6829 
G01 X-1.5213 Y0.6822 
G01 X-1.5225 Y0.6819 
G01 X-1.5237 Y0.6814 
G01 X-1.5250 Y0.6812 
G01 X-1.5262 Y0.6809 
G01 X-1.5275 Y0.6809 
G01 X-1.5288 Y0.6807 
G01 X-1.5301 Y0.6809 
G01 X-1.5314 Y0.6809 
G01 X-1.5326 Y0.6812 
G01 X-1.5339 Y0.6814 
G01 X-1.5351 Y0.6819 
G01 X-1.5363 Y0.6822 
G01 X-1.5374 Y0.6829 
G01 X-1.5386 Y0.6834 
G01 X-1.5397 Y0.6841 
G01 X-1.5408 Y0.6848 
G01 X-1.5417 Y0.6857 
G01 X-1.5427 Y0.6865 
G01 X-1.5435 Y0.6875 
G01 X-1.5444 Y0.6884 
G01 X-1.5450 Y0.6895 
G01 X-1.5458 Y0.6906 
G01 X-1.5463 Y0.6918 
G01 X-1.5470 Y0.6929 
G01 X-1.5473 Y0.6941 
G01 X-1.5480 Y0.6958 
G01 X-1.5628 Y0.7106 
G01 X-1.5639 Y0.7113 
G01 X-1.5648 Y0.7122 
G01 X-1.5659 Y0.7130 
G01 X-1.5666 Y0.7140 
G01 X-1.5676 Y0.7149 
G01 X-1.5682 Y0.7160 
G01 X-1.5690 Y0.7170 
G01 X-1.5695 Y0.7182 
G01 X-1.5701 Y0.7194 
G01 X-1.5705 Y0.7206 
G01 X-1.5710 Y0.7218 
G01 X-1.5711 Y0.7231 
G01 X-1.5715 Y0.7243 
G01 X-1.5715 Y0.7256 
G01 X-1.5716 Y0.7269 
G01 X-1.5715 Y0.7282 
G01 X-1.5715 Y0.7294 
G01 X-1.5711 Y0.7307 
G01 X-1.5710 Y0.7320 
G01 X-1.5705 Y0.7332 
G01 X-1.5701 Y0.7344 
G01 X-1.5695 Y0.7355 
G01 X-1.5690 Y0.7367 
G01 X-1.5682 Y0.7377 
G01 X-1.5676 Y0.7389 
G01 X-1.5666 Y0.7398 
G01 X-1.5659 Y0.7408 
G01 X-1.5648 Y0.7416 
G01 X-1.5630 Y0.7434 
G01 X-1.5599 Y0.7477 
G01 X-1.5636 Y0.7477 
G01 X-1.5648 Y0.7459 
G01 X-1.5695 Y0.7412 
G01 X-1.5750 Y0.7375 
G01 X-1.5810 Y0.7350 
G01 X-1.5875 Y0.7337 
G01 X-1.6541 Y0.7337 
G01 X-1.6606 Y0.7350 
G01 X-1.6667 Y0.7375 
G01 X-1.6722 Y0.7412 
G00 Z0.1000 
G00 X-1.6797 Y0.7895 
G01 Z-0.0070 F3.94  
G01 X-1.6809 Y0.7885 F3.94  
G01 X-1.6820 Y0.7874 
G01 X-1.6829 Y0.7869 
G01 X-1.6837 Y0.7863 
G01 X-1.6851 Y0.7857 
G01 X-1.6865 Y0.7849 
G01 X-1.6875 Y0.7846 
G01 X-1.6884 Y0.7842 
G01 X-1.6899 Y0.7840 
G01 X-1.6914 Y0.7836 
G01 X-1.6925 Y0.7836 
G01 X-1.6935 Y0.7834 
G01 X-1.6950 Y0.7836 
G01 X-1.6966 Y0.7836 
G01 X-1.6976 Y0.7838 
G01 X-1.6986 Y0.7839 
G01 X-1.7000 Y0.7845 
G01 X-1.7015 Y0.7849 
G01 X-1.7024 Y0.7854 
G01 X-1.7034 Y0.7858 
G01 X-1.7046 Y0.7867 
G01 X-1.7060 Y0.7874 
G01 X-1.7067 Y0.7882 
G01 X-1.7075 Y0.7888 
G01 X-1.7085 Y0.7900 
G01 X-1.7096 Y0.7911 
G01 X-1.7101 Y0.7920 
G01 X-1.7108 Y0.7928 
G01 X-1.7114 Y0.7942 
G01 X-1.7122 Y0.7955 
G01 X-1.7124 Y0.7965 
G01 X-1.7129 Y0.7975 
G01 X-1.7131 Y0.7990 
G01 X-1.7135 Y0.8005 
G01 X-1.7135 Y0.8015 
G01 X-1.7137 Y0.8025 
G01 X-1.7135 Y0.8041 
G01 X-1.7135 Y0.8140 
G01 X-1.7127 Y0.8171 
G01 X-1.7122 Y0.8189 
G01 X-1.7118 Y0.8196 
G01 X-1.7096 Y0.8234 
G01 X-1.7060 Y0.8270 
G01 X-1.7015 Y0.8296 
G01 X-1.7003 Y0.8299 
G01 X-1.6966 Y0.8309 
G01 X-1.6914 Y0.8309 
G01 X-1.6883 Y0.8301 
G01 X-1.6865 Y0.8296 
G01 X-1.6858 Y0.8292 
G01 X-1.6820 Y0.8270 
G01 X-1.6788 Y0.8238 
G01 X-1.6777 Y0.8231 
G01 X-1.6768 Y0.8222 
G01 X-1.6758 Y0.8215 
G01 X-1.6750 Y0.8204 
G01 X-1.6741 Y0.8195 
G01 X-1.6734 Y0.8184 
G01 X-1.6727 Y0.8174 
G01 X-1.6722 Y0.8162 
G01 X-1.6715 Y0.8151 
G01 X-1.6712 Y0.8138 
G01 X-1.6707 Y0.8126 
G01 X-1.6705 Y0.8114 
G01 X-1.6702 Y0.8101 
G01 X-1.6702 Y0.8088 
G01 X-1.6700 Y0.8075 
G01 X-1.6702 Y0.8063 
G01 X-1.6702 Y0.8050 
G01 X-1.6705 Y0.8037 
G01 X-1.6707 Y0.8025 
G01 X-1.6712 Y0.8013 
G01 X-1.6715 Y0.8000 
G01 X-1.6722 Y0.7989 
G01 X-1.6727 Y0.7977 
G01 X-1.6734 Y0.7967 
G01 X-1.6741 Y0.7956 
G01 X-1.6750 Y0.7947 
G01 X-1.6758 Y0.7936 
G01 X-1.6768 Y0.7929 
G01 X-1.6782 Y0.7915 
G01 X-1.6784 Y0.7911 
G01 X-1.6791 Y0.7903 
G01 X-1.6797 Y0.7895 
G00 Z0.1000 
G00 X-1.6820 Y0.9074 
G01 Z-0.0070 F3.94  
G01 X-1.6820 Y0.9074 F3.94  
G01 X-1.6857 Y0.9053 
G01 X-1.6865 Y0.9049 
G01 X-1.6882 Y0.9044 
G01 X-1.6914 Y0.9035 
G01 X-1.6966 Y0.9035 
G01 X-1.7001 Y0.9045 
G01 X-1.7015 Y0.9049 
G01 X-1.7060 Y0.9074 
G01 X-1.7095 Y0.9110 
G01 X-1.7117 Y0.9148 
G01 X-1.7122 Y0.9155 
G01 X-1.7126 Y0.9173 
G01 X-1.7135 Y0.9205 
G01 X-1.7135 Y1.0294 
G01 X-1.7122 Y1.0343 
G01 X-1.7096 Y1.0388 
G01 X-1.7077 Y1.0407 
G01 X-1.5894 Y1.1590 
G01 X-1.5886 Y1.1600 
G01 X-1.5876 Y1.1608 
G01 X-1.5866 Y1.1617 
G01 X-1.5855 Y1.1624 
G01 X-1.5845 Y1.1632 
G01 X-1.5833 Y1.1637 
G01 X-1.5822 Y1.1643 
G01 X-1.5809 Y1.1646 
G01 X-1.5798 Y1.1651 
G01 X-1.5785 Y1.1653 
G01 X-1.5772 Y1.1656 
G01 X-1.5759 Y1.1656 
G01 X-1.5747 Y1.1658 
G01 X-1.5734 Y1.1656 
G01 X-1.5721 Y1.1656 
G01 X-1.5709 Y1.1653 
G01 X-1.5696 Y1.1651 
G01 X-1.5684 Y1.1646 
G01 X-1.5671 Y1.1643 
G01 X-1.5660 Y1.1637 
G01 X-1.5648 Y1.1632 
G01 X-1.5638 Y1.1624 
G01 X-1.5627 Y1.1617 
G01 X-1.5618 Y1.1608 
G01 X-1.5608 Y1.1600 
G01 X-1.5600 Y1.1590 
G01 X-1.5591 Y1.1581 
G01 X-1.5584 Y1.1570 
G01 X-1.5576 Y1.1560 
G01 X-1.5571 Y1.1548 
G01 X-1.5565 Y1.1537 
G01 X-1.5562 Y1.1524 
G01 X-1.5557 Y1.1512 
G01 X-1.5555 Y1.1499 
G01 X-1.5552 Y1.1487 
G01 X-1.5552 Y1.1474 
G01 X-1.5550 Y1.1461 
G01 X-1.5552 Y1.1449 
G01 X-1.5552 Y1.1436 
G01 X-1.5555 Y1.1423 
G01 X-1.5557 Y1.1410 
G01 X-1.5562 Y1.1399 
G01 X-1.5565 Y1.1386 
G01 X-1.5571 Y1.1375 
G01 X-1.5579 Y1.1357 
G01 X-1.5582 Y1.1344 
G01 X-1.5589 Y1.1333 
G01 X-1.5594 Y1.1321 
G01 X-1.5601 Y1.1311 
G01 X-1.5608 Y1.1300 
G01 X-1.5617 Y1.1291 
G01 X-1.5625 Y1.1281 
G01 X-1.5635 Y1.1273 
G01 X-1.5641 Y1.1267 
G01 X-1.5718 Y1.1082 
G01 X-1.5718 Y1.0281 
G01 X-1.5641 Y1.0095 
G01 X-1.5499 Y0.9953 
G01 X-1.5313 Y0.9876 
G01 X-1.5112 Y0.9876 
G01 X-1.4918 Y0.9956 
G01 X-1.4904 Y0.9964 
G01 X-1.4885 Y0.9975 
G01 X-1.4858 Y0.9983 
G01 X-1.4836 Y0.9989 
G01 X-1.4805 Y0.9989 
G01 X-1.4784 Y0.9989 
G01 X-1.4753 Y0.9980 
G01 X-1.4735 Y0.9975 
G01 X-1.4702 Y0.9956 
G01 X-1.4690 Y0.9950 
G01 X-1.4667 Y0.9926 
G01 X-1.4654 Y0.9914 
G01 X-1.4639 Y0.9888 
G01 X-1.4628 Y0.9869 
G01 X-1.4621 Y0.9841 
G01 X-1.4615 Y0.9819 
G01 X-1.4615 Y0.9789 
G01 X-1.4615 Y0.9768 
G01 X-1.4615 Y0.9427 
G01 X-1.4559 Y0.9293 
G01 X-1.4482 Y0.9216 
G01 X-1.4448 Y0.9182 
G01 X-1.4446 Y0.9180 
G01 X-1.4435 Y0.9162 
G01 X-1.4420 Y0.9135 
G01 X-1.4407 Y0.9086 
G01 X-1.4407 Y0.9034 
G01 X-1.4420 Y0.8985 
G01 X-1.4445 Y0.8941 
G01 X-1.4482 Y0.8904 
G01 X-1.4500 Y0.8893 
G01 X-1.4527 Y0.8878 
G01 X-1.4576 Y0.8865 
G01 X-1.5298 Y0.8865 
G01 X-1.5311 Y0.8863 
G01 X-1.5324 Y0.8865 
G01 X-1.5337 Y0.8865 
G01 X-1.5349 Y0.8868 
G01 X-1.5362 Y0.8870 
G01 X-1.5374 Y0.8875 
G01 X-1.5386 Y0.8878 
G01 X-1.5398 Y0.8885 
G01 X-1.5410 Y0.8890 
G01 X-1.5420 Y0.8898 
G01 X-1.5431 Y0.8904 
G01 X-1.5440 Y0.8913 
G01 X-1.5450 Y0.8921 
G01 X-1.5458 Y0.8931 
G01 X-1.5467 Y0.8940 
G01 X-1.5474 Y0.8951 
G01 X-1.5475 Y0.8953 
G01 X-1.5622 Y0.9100 
G01 X-1.5808 Y0.9177 
G01 X-1.6609 Y0.9177 
G01 X-1.6794 Y0.9100 
G01 X-1.6820 Y0.9075 
G00 Z0.1000 
G00 X-1.5426 Y1.0121 
G01 Z-0.0070 F3.94  
G01 X-1.5473 Y1.0168 F3.94  
G01 X-1.5509 Y1.0222 
G01 X-1.5535 Y1.0283 
G01 X-1.5548 Y1.0348 
G01 X-1.5548 Y1.1014 
G01 X-1.5535 Y1.1079 
G01 X-1.5509 Y1.1140 
G01 X-1.5473 Y1.1195 
G01 X-1.5426 Y1.1241 
G01 X-1.5408 Y1.1254 
G01 X-1.5408 Y1.1313 
G01 X-1.5394 Y1.1363 
G01 X-1.5369 Y1.1407 
G01 X-1.4695 Y1.2081 
G01 X-1.4695 Y1.2650 
G01 X-1.4682 Y1.2699 
G01 X-1.4656 Y1.2744 
G01 X-1.4415 Y1.2985 
G01 X-1.4415 Y1.3302 
G01 X-1.4410 Y1.3315 
G01 X-1.4400 Y1.3325 
G01 X-1.4387 Y1.3330 
G01 X-1.3861 Y1.3330 
G01 X-1.3848 Y1.3325 
G01 X-1.3838 Y1.3315 
G01 X-1.3833 Y1.3302 
G01 X-1.3833 Y1.2698 
G01 X-1.3838 Y1.2685 
G01 X-1.3848 Y1.2675 
G01 X-1.3861 Y1.2670 
G01 X-1.4179 Y1.2670 
G01 X-1.4305 Y1.2543 
G01 X-1.4305 Y1.1974 
G01 X-1.4318 Y1.1925 
G01 X-1.4344 Y1.1880 
G01 X-1.4380 Y1.1844 
G01 X-1.4991 Y1.1233 
G01 X-1.4952 Y1.1195 
G01 X-1.4916 Y1.1140 
G01 X-1.4890 Y1.1079 
G01 X-1.4878 Y1.1014 
G01 X-1.4878 Y1.0348 
G01 X-1.4890 Y1.0283 
G01 X-1.4916 Y1.0222 
G01 X-1.4952 Y1.0168 
G01 X-1.4999 Y1.0121 
G01 X-1.5054 Y1.0084 
G01 X-1.5115 Y1.0059 
G01 X-1.5180 Y1.0046 
G01 X-1.5246 Y1.0046 
G01 X-1.5310 Y1.0059 
G01 X-1.5371 Y1.0084 
G01 X-1.5426 Y1.0121 
G00 Z0.1000 
G00 X-1.4473 Y1.0168 
G01 Z-0.0070 F3.94  
G01 X-1.4509 Y1.0222 F3.94  
G01 X-1.4535 Y1.0283 
G01 X-1.4548 Y1.0348 
G01 X-1.4548 Y1.1014 
G01 X-1.4535 Y1.1079 
G01 X-1.4509 Y1.1140 
G01 X-1.4473 Y1.1195 
G01 X-1.4426 Y1.1241 
G01 X-1.4371 Y1.1278 
G01 X-1.4310 Y1.1303 
G01 X-1.4246 Y1.1316 
G01 X-1.4180 Y1.1316 
G01 X-1.4115 Y1.1303 
G01 X-1.4054 Y1.1278 
G01 X-1.3999 Y1.1241 
G01 X-1.3952 Y1.1195 
G01 X-1.3916 Y1.1140 
G01 X-1.3890 Y1.1079 
G01 X-1.3878 Y1.1014 
G01 X-1.3878 Y1.0348 
G01 X-1.3890 Y1.0283 
G01 X-1.3916 Y1.0222 
G01 X-1.3952 Y1.0168 
G01 X-1.3999 Y1.0121 
G01 X-1.4054 Y1.0084 
G01 X-1.4055 Y1.0084 
G01 X-1.4055 Y0.9581 
G01 X-1.2344 Y0.7870 
G01 X-1.2318 Y0.7825 
G01 X-1.2305 Y0.7776 
G01 X-1.2305 Y0.6974 
G01 X-1.2318 Y0.6925 
G01 X-1.2344 Y0.6880 
G01 X-1.2380 Y0.6844 
G01 X-1.2754 Y0.6470 
G01 X-1.2799 Y0.6444 
G01 X-1.2848 Y0.6431 
G01 X-1.3420 Y0.6431 
G01 X-1.3420 Y0.6363 
G01 X-1.3425 Y0.6350 
G01 X-1.3435 Y0.6340 
G01 X-1.3448 Y0.6335 
G01 X-1.3555 Y0.6335 
G01 X-1.3555 Y0.5665 
G01 X-1.3448 Y0.5665 
G01 X-1.3435 Y0.5660 
G01 X-1.3425 Y0.5650 
G01 X-1.3420 Y0.5637 
G01 X-1.3420 Y0.5111 
G01 X-1.3425 Y0.5098 
G01 X-1.3435 Y0.5088 
G01 X-1.3448 Y0.5083 
G01 X-1.4052 Y0.5083 
G01 X-1.4065 Y0.5088 
G01 X-1.4075 Y0.5098 
G01 X-1.4080 Y0.5111 
G01 X-1.4080 Y0.5637 
G01 X-1.4075 Y0.5650 
G01 X-1.4065 Y0.5660 
G01 X-1.4052 Y0.5665 
G01 X-1.3945 Y0.5665 
G01 X-1.3945 Y0.6335 
G01 X-1.4052 Y0.6335 
G01 X-1.4065 Y0.6340 
G01 X-1.4075 Y0.6350 
G01 X-1.4080 Y0.6363 
G01 X-1.4080 Y0.6889 
G01 X-1.4075 Y0.6902 
G01 X-1.4065 Y0.6912 
G01 X-1.4052 Y0.6917 
G01 X-1.3448 Y0.6917 
G01 X-1.3435 Y0.6912 
G01 X-1.3425 Y0.6902 
G01 X-1.3420 Y0.6889 
G01 X-1.3420 Y0.6821 
G01 X-1.2955 Y0.6821 
G01 X-1.2695 Y0.7081 
G01 X-1.2695 Y0.7669 
G01 X-1.4370 Y0.9344 
G01 X-1.4406 Y0.9380 
G01 X-1.4432 Y0.9425 
G01 X-1.4445 Y0.9474 
G01 X-1.4445 Y1.0140 
G01 X-1.4473 Y1.0168 
G00 Z0.1000 
G00 X-1.3846 Y0.9988 
G01 Z-0.0070 F3.94  
G01 X-1.3810 Y1.0025 F3.94  
G01 X-1.3765 Y1.0050 
G01 X-1.3716 Y1.0064 
G01 X-1.3664 Y1.0064 
G01 X-1.3652 Y1.0060 
G01 X-1.3615 Y1.0050 
G01 X-1.3570 Y1.0025 
G01 X-1.3534 Y0.9988 
G01 X-1.3499 Y0.9953 
G01 X-1.3497 Y0.9952 
G01 X-1.3485 Y0.9949 
G01 X-1.3474 Y0.9943 
G01 X-1.3462 Y0.9938 
G01 X-1.3451 Y0.9930 
G01 X-1.3440 Y0.9923 
G01 X-1.3431 Y0.9914 
G01 X-1.3421 Y0.9906 
G01 X-1.3413 Y0.9896 
G01 X-1.3404 Y0.9887 
G01 X-1.3398 Y0.9876 
G01 X-1.3390 Y0.9866 
G01 X-1.3385 Y0.9854 
G01 X-1.3378 Y0.9843 
G01 X-1.3375 Y0.9830 
G01 X-1.3370 Y0.9818 
G01 X-1.3368 Y0.9805 
G01 X-1.3365 Y0.9793 
G01 X-1.3365 Y0.9780 
G01 X-1.3363 Y0.9767 
G01 X-1.3365 Y0.9755 
G01 X-1.3365 Y0.9576 
G01 X-1.3378 Y0.9529 
G01 X-1.3378 Y0.9527 
G01 X-1.3404 Y0.9482 
G01 X-1.3440 Y0.9446 
G01 X-1.3485 Y0.9420 
G01 X-1.3534 Y0.9407 
G01 X-1.3586 Y0.9407 
G01 X-1.3633 Y0.9420 
G01 X-1.3635 Y0.9420 
G01 X-1.3680 Y0.9446 
G01 X-1.3716 Y0.9482 
G01 X-1.3846 Y0.9612 
G01 X-1.3872 Y0.9657 
G01 X-1.3884 Y0.9704 
G01 X-1.3885 Y0.9706 
G01 X-1.3885 Y0.9894 
G01 X-1.3882 Y0.9907 
G01 X-1.3872 Y0.9944 
G01 X-1.3846 Y0.9988 
G00 Z0.1000 
G00 X-1.3426 Y1.0121 
G01 Z-0.0070 F3.94  
G01 X-1.3473 Y1.0168 F3.94  
G01 X-1.3509 Y1.0222 
G01 X-1.3535 Y1.0283 
G01 X-1.3548 Y1.0348 
G01 X-1.3548 Y1.1014 
G01 X-1.3535 Y1.1079 
G01 X-1.3509 Y1.1140 
G01 X-1.3473 Y1.1195 
G01 X-1.3426 Y1.1241 
G01 X-1.3371 Y1.1278 
G01 X-1.3310 Y1.1303 
G01 X-1.3246 Y1.1316 
G01 X-1.3180 Y1.1316 
G01 X-1.3115 Y1.1303 
G01 X-1.3054 Y1.1278 
G01 X-1.2999 Y1.1241 
G01 X-1.2952 Y1.1195 
G01 X-1.2916 Y1.1140 
G01 X-1.2890 Y1.1079 
G01 X-1.2878 Y1.1014 
G01 X-1.2878 Y1.0622 
G01 X-1.2844 Y1.0588 
G01 X-1.2818 Y1.0544 
G01 X-1.2805 Y1.0494 
G01 X-1.2805 Y0.9581 
G01 X-1.1919 Y0.8695 
G01 X-0.6581 Y0.8695 
G01 X-0.5622 Y0.9653 
G01 X-0.5622 Y0.9978 
G01 X-0.5906 Y1.0262 
G01 X-0.5932 Y1.0306 
G01 X-0.5945 Y1.0356 
G01 X-0.5945 Y1.1335 
G01 X-0.6052 Y1.1335 
G01 X-0.6065 Y1.1340 
G01 X-0.6075 Y1.1350 
G01 X-0.6080 Y1.1363 
G01 X-0.6080 Y1.1889 
G01 X-0.6075 Y1.1902 
G01 X-0.6065 Y1.1912 
G01 X-0.6052 Y1.1917 
G01 X-0.5448 Y1.1917 
G01 X-0.5435 Y1.1912 
G01 X-0.5425 Y1.1902 
G01 X-0.5420 Y1.1889 
G01 X-0.5420 Y1.1363 
G01 X-0.5425 Y1.1350 
G01 X-0.5435 Y1.1340 
G01 X-0.5448 Y1.1335 
G01 X-0.5555 Y1.1335 
G01 X-0.5555 Y1.0462 
G01 X-0.5536 Y1.0444 
G01 X-0.5501 Y1.0479 
G01 X-0.5446 Y1.0516 
G01 X-0.5385 Y1.0541 
G01 X-0.5320 Y1.0554 
G01 X-0.5254 Y1.0554 
G01 X-0.5190 Y1.0541 
G01 X-0.5129 Y1.0516 
G01 X-0.5074 Y1.0479 
G01 X-0.5027 Y1.0432 
G01 X-0.4990 Y1.0377 
G01 X-0.4965 Y1.0316 
G01 X-0.4952 Y1.0252 
G01 X-0.4952 Y0.9586 
G01 X-0.4965 Y0.9521 
G01 X-0.4990 Y0.9460 
G01 X-0.5027 Y0.9405 
G01 X-0.5074 Y0.9359 
G01 X-0.5129 Y0.9322 
G01 X-0.5190 Y0.9297 
G01 X-0.5254 Y0.9284 
G01 X-0.5320 Y0.9284 
G01 X-0.5385 Y0.9297 
G01 X-0.5415 Y0.9309 
G01 X-0.6344 Y0.8380 
G01 X-0.6380 Y0.8344 
G01 X-0.6425 Y0.8318 
G01 X-0.6474 Y0.8305 
G01 X-1.2026 Y0.8305 
G01 X-1.2075 Y0.8318 
G01 X-1.2120 Y0.8344 
G01 X-1.3120 Y0.9344 
G01 X-1.3156 Y0.9380 
G01 X-1.3182 Y0.9425 
G01 X-1.3195 Y0.9474 
G01 X-1.3195 Y1.0046 
G01 X-1.3246 Y1.0046 
G01 X-1.3310 Y1.0059 
G01 X-1.3371 Y1.0084 
G01 X-1.3426 Y1.0121 
G00 Z0.1000 
G00 X-1.2426 Y1.0121 
G01 Z-0.0070 F3.94  
G01 X-1.2473 Y1.0168 F3.94  
G01 X-1.2509 Y1.0222 
G01 X-1.2535 Y1.0283 
G01 X-1.2548 Y1.0348 
G01 X-1.2548 Y1.1014 
G01 X-1.2535 Y1.1079 
G01 X-1.2509 Y1.1140 
G01 X-1.2473 Y1.1195 
G01 X-1.2426 Y1.1241 
G01 X-1.2408 Y1.1254 
G01 X-1.2408 Y1.1313 
G01 X-1.2394 Y1.1363 
G01 X-1.2369 Y1.1407 
G01 X-1.1656 Y1.2120 
G01 X-1.1620 Y1.2156 
G01 X-1.1575 Y1.2182 
G01 X-1.1526 Y1.2195 
G01 X-1.0581 Y1.2195 
G01 X-1.0348 Y1.2428 
G01 X-1.0357 Y1.2441 
G01 X-1.0382 Y1.2502 
G01 X-1.0395 Y1.2567 
G01 X-1.0395 Y1.3233 
G01 X-1.0382 Y1.3298 
G01 X-1.0357 Y1.3359 
G01 X-1.0320 Y1.3414 
G01 X-1.0274 Y1.3460 
G01 X-1.0219 Y1.3497 
G01 X-1.0158 Y1.3522 
G01 X-1.0093 Y1.3535 
G01 X-1.0027 Y1.3535 
G01 X-0.9962 Y1.3522 
G01 X-0.9901 Y1.3497 
G01 X-0.9846 Y1.3460 
G01 X-0.9800 Y1.3414 
G01 X-0.9763 Y1.3359 
G01 X-0.9738 Y1.3298 
G01 X-0.9725 Y1.3233 
G01 X-0.9725 Y1.2567 
G01 X-0.9738 Y1.2502 
G01 X-0.9763 Y1.2441 
G01 X-0.9800 Y1.2386 
G01 X-0.9846 Y1.2340 
G01 X-0.9901 Y1.2303 
G01 X-0.9935 Y1.2289 
G01 X-1.0380 Y1.1844 
G01 X-1.0425 Y1.1818 
G01 X-1.0474 Y1.1805 
G01 X-1.1419 Y1.1805 
G01 X-1.1991 Y1.1233 
G01 X-1.1952 Y1.1195 
G01 X-1.1916 Y1.1140 
G01 X-1.1890 Y1.1079 
G01 X-1.1878 Y1.1014 
G01 X-1.1878 Y1.0348 
G01 X-1.1890 Y1.0283 
G01 X-1.1916 Y1.0222 
G01 X-1.1928 Y1.0204 
G01 X-1.1419 Y0.9695 
G01 X-0.8705 Y0.9695 
G01 X-0.8665 Y0.9735 
G01 X-0.8665 Y1.0052 
G01 X-0.8660 Y1.0065 
G01 X-0.8650 Y1.0075 
G01 X-0.8637 Y1.0080 
G01 X-0.8111 Y1.0080 
G01 X-0.8098 Y1.0075 
G01 X-0.8088 Y1.0065 
G01 X-0.8083 Y1.0052 
G01 X-0.8083 Y0.9448 
G01 X-0.8088 Y0.9435 
G01 X-0.8098 Y0.9425 
G01 X-0.8111 Y0.9420 
G01 X-0.8429 Y0.9420 
G01 X-0.8504 Y0.9344 
G01 X-0.8549 Y0.9318 
G01 X-0.8598 Y0.9305 
G01 X-1.1526 Y0.9305 
G01 X-1.1575 Y0.9318 
G01 X-1.1620 Y0.9344 
G01 X-1.1656 Y0.9380 
G01 X-1.2352 Y1.0076 
G01 X-1.2371 Y1.0084 
G01 X-1.2426 Y1.0121 
G00 Z0.1000 
G00 X-1.1426 Y1.0121 
G01 Z-0.0070 F3.94  
G01 X-1.1473 Y1.0168 F3.94  
G01 X-1.1509 Y1.0222 
G01 X-1.1535 Y1.0283 
G01 X-1.1548 Y1.0348 
G01 X-1.1548 Y1.1014 
G01 X-1.1535 Y1.1079 
G01 X-1.1509 Y1.1140 
G01 X-1.1473 Y1.1195 
G01 X-1.1426 Y1.1241 
G01 X-1.1371 Y1.1278 
G01 X-1.1310 Y1.1303 
G01 X-1.1246 Y1.1316 
G01 X-1.1180 Y1.1316 
G01 X-1.1115 Y1.1303 
G01 X-1.1054 Y1.1278 
G01 X-1.0999 Y1.1241 
G01 X-1.0952 Y1.1195 
G01 X-1.0916 Y1.1140 
G01 X-1.0890 Y1.1079 
G01 X-1.0878 Y1.1014 
G01 X-1.0878 Y1.0348 
G01 X-1.0890 Y1.0283 
G01 X-1.0916 Y1.0222 
G01 X-1.0952 Y1.0168 
G01 X-1.0999 Y1.0121 
G01 X-1.1054 Y1.0084 
G01 X-1.1115 Y1.0059 
G01 X-1.1180 Y1.0046 
G01 X-1.1246 Y1.0046 
G01 X-1.1310 Y1.0059 
G01 X-1.1371 Y1.0084 
G01 X-1.1426 Y1.0121 
G00 Z0.1000 
G00 X-1.0426 Y1.0121 
G01 Z-0.0070 F3.94  
G01 X-1.0473 Y1.0168 F3.94  
G01 X-1.0509 Y1.0222 
G01 X-1.0535 Y1.0283 
G01 X-1.0548 Y1.0348 
G01 X-1.0548 Y1.1014 
G01 X-1.0535 Y1.1079 
G01 X-1.0509 Y1.1140 
G01 X-1.0473 Y1.1195 
