(.../pcb-gcode-3.6.2.4/pcb-gcode.ulp)
(Copyright 2005 - 2012 by John Johnson)
(See readme.txt for licensing terms.)
(This file generated from the board:)
(.../WEMOS_RFMASTER/wemos_rfmaster.brd)
(Current profile is .../pcb-gcode-3.6.2.4/profiles/emc.pp  )
(This file generated 01.04.18 16:45)
(Settings from pcb-machine.h)
(spindle on time = 3.0000)
(spindle speed = 20000.0000)
(tool change at 0.0000 0.0000 1.0000 )
(feed rate xy = F0.00  )
(feed rate z  = F20.00 )
(Z Axis Settings)
(  High     Up        Down     Drill)
(0.5000 	0.1000 	-0.0070 	-0.0320 )
(Settings from pcb-defaults.h)
(isolate min = 0.0010)
(isolate max = 0.0200)
(isolate step = 0.0050)
(Generated top outlines, top drill, )
(Unit of measure: inch)
( Tool|       Size       |  Min Sub |  Max Sub |   Count )
( T01 | 0.350mm 0.0138in | 0.0000in | 0.0000in |       0 )
( T02 | 1.016mm 0.0400in | 0.0000in | 0.0000in |       0 )
( T03 | 2.800mm 0.1102in | 0.0000in | 0.0000in |       0 )
(Inch Mode)
G20
(Absolute Coordinates)
G90
S20000
G00 Z0.5000 
G00 X0.0000 Y0.0000 
M03
G04 P3.000000
M05
G00 Z1.0000 
M06 T01 (0.0138 )
G01 Z0.0000 F20.00 
M06 
G00 Z0.1000 
M03
G04 P3.000000
G82 X0.4500 Y0.5750 Z-0.0320 F20.00 R0.1000 P1.000000
G82 X0.9000 Y0.3250 
G82 X0.8750 Y2.0250 
G82 X1.1500 Y2.0250 
G82 X1.5500 Y2.0250 
G82 X0.4500 Y2.0250 
M05
G00 Z1.0000 
G00 X0.0000 Y0.0000 
M06 T02 (0.0400 )
G01 Z0.0000 F20.00 
M06 
G00 Z0.1000 
M03
G04 P3.000000
G82 X0.4500 Y0.2500 Z-0.0320 F20.00 R0.1000 P1.000000
G82 X0.5500 Y0.2500 
G82 X0.6500 Y0.2500 
G82 X0.7500 Y0.2500 
G82 X1.0500 Y0.2500 
G82 X1.1500 Y0.2500 
G82 X1.2500 Y0.2500 
G82 X1.3500 Y0.2500 
G82 X1.2500 Y0.7500 
G82 X1.1500 Y0.7500 
G82 X1.0500 Y0.7500 
G82 X0.9500 Y0.7500 
G82 X0.8500 Y0.7500 
G82 X0.7500 Y0.7500 
G82 X0.6500 Y0.7500 
G82 X0.5500 Y0.7500 
G82 X0.5500 Y1.6500 
G82 X0.6500 Y1.6500 
G82 X0.7500 Y1.6500 
G82 X0.8500 Y1.6500 
G82 X0.9500 Y1.6500 
G82 X1.0500 Y1.6500 
G82 X1.1500 Y1.6500 
G82 X1.2500 Y1.6500 
G82 X1.3000 Y2.2000 
G82 X1.4000 Y2.2000 
G82 X1.2000 Y2.2000 
G82 X1.1000 Y2.2000 
G82 X0.7500 Y2.2000 
G82 X0.6500 Y2.2000 
G82 X0.5500 Y2.2000 
G82 X0.4500 Y2.2000 
M05
G00 Z1.0000 
G00 X0.0000 Y0.0000 
M06 T03 (0.1102 )
G01 Z0.0000 F20.00 
M06 
G00 Z0.1000 
M03
G04 P3.000000
G82 X0.1394 Y0.1500 Z-0.0320 F20.00 R0.1000 P1.000000
G82 X1.6803 Y0.1500 
G82 X1.6803 Y2.3000 
G82 X0.1394 Y2.3000 
T01 
G00 Z0.5000 
M05
M02
