(.../pcb-gcode-3.6.2.4/pcb-gcode.ulp)
(Copyright 2005 - 2012 by John Johnson)
(See readme.txt for licensing terms.)
(This file generated from the board:)
(.../WEMOS_RFMASTER/wemos_rfmaster.brd)
(Current profile is .../pcb-gcode-3.6.2.4/profiles/emc.pp  )
(This file generated 01.04.18 16:45)
(Settings from pcb-machine.h)
(spindle on time = 3.0000)
(  Tool Size)
(0.0070 )
(spindle speed = 30000.0000)
(tool change at 0.0000 0.0000 1.0000 )
(feed rate xy = F20.00 )
(feed rate z  = F10.00 )
(Z Axis Settings)
(  High     Up        Down     Drill)
(0.5000 	0.1000 	-0.0070 	-0.0320 )
(Settings from pcb-defaults.h)
(isolate min = 0.0010)
(isolate max = 0.0200)
(isolate step = 0.0050)
(Generated top outlines, top drill, )
(Unit of measure: inch)
(Inch Mode)
G20
(Absolute Coordinates)
G90
S30000
G00 Z0.5000 
G00 X0.0000 Y0.0000 
M03
G04 P3.000000
G00 Z0.1000 
G00 X0.4232 Y0.1980 
G01 Z-0.0070 F10.00 
G01 X0.4194 Y0.2037 F20.00 
G01 X0.4168 Y0.2099 
G01 X0.4155 Y0.2166 
G01 X0.4155 Y0.2834 
G01 X0.4168 Y0.2901 
G01 X0.4194 Y0.2963 
G01 X0.4232 Y0.3020 
G01 X0.4280 Y0.3068 
G01 X0.4337 Y0.3106 
G01 X0.4399 Y0.3132 
G01 X0.4466 Y0.3145 
G01 X0.4534 Y0.3145 
G01 X0.4601 Y0.3132 
G01 X0.4663 Y0.3106 
G01 X0.4720 Y0.3068 
G01 X0.4768 Y0.3020 
G01 X0.4806 Y0.2963 
G01 X0.4832 Y0.2901 
G01 X0.4845 Y0.2834 
G01 X0.4845 Y0.2166 
G01 X0.4832 Y0.2099 
G01 X0.4806 Y0.2037 
G01 X0.4768 Y0.1980 
G01 X0.4720 Y0.1932 
G01 X0.4663 Y0.1894 
G01 X0.4601 Y0.1868 
G01 X0.4534 Y0.1855 
G01 X0.4466 Y0.1855 
G01 X0.4399 Y0.1868 
G01 X0.4337 Y0.1894 
G01 X0.4280 Y0.1932 
G01 X0.4232 Y0.1980 
G00 Z0.1000 
G00 X0.5232 Y0.1980 
G01 Z-0.0070 F10.00 
G01 X0.5194 Y0.2037 F20.00 
G01 X0.5168 Y0.2099 
G01 X0.5155 Y0.2166 
G01 X0.5155 Y0.2834 
G01 X0.5168 Y0.2901 
G01 X0.5194 Y0.2963 
G01 X0.5232 Y0.3020 
G01 X0.5280 Y0.3068 
G01 X0.5337 Y0.3106 
G01 X0.5399 Y0.3132 
G01 X0.5466 Y0.3145 
G01 X0.5534 Y0.3145 
G01 X0.5601 Y0.3132 
G01 X0.5663 Y0.3106 
G01 X0.5720 Y0.3068 
G01 X0.5768 Y0.3020 
G01 X0.5806 Y0.2963 
G01 X0.5832 Y0.2901 
G01 X0.5845 Y0.2834 
G01 X0.5845 Y0.2166 
G01 X0.5832 Y0.2099 
G01 X0.5806 Y0.2037 
G01 X0.5768 Y0.1980 
G01 X0.5720 Y0.1932 
G01 X0.5663 Y0.1894 
G01 X0.5601 Y0.1868 
G01 X0.5534 Y0.1855 
G01 X0.5466 Y0.1855 
G01 X0.5399 Y0.1868 
G01 X0.5337 Y0.1894 
G01 X0.5280 Y0.1932 
G01 X0.5232 Y0.1980 
G00 Z0.1000 
G00 X0.6232 Y0.1980 
G01 Z-0.0070 F10.00 
G01 X0.6194 Y0.2037 F20.00 
G01 X0.6168 Y0.2099 
G01 X0.6155 Y0.2166 
G01 X0.6155 Y0.2834 
G01 X0.6168 Y0.2901 
G01 X0.6194 Y0.2963 
G01 X0.6232 Y0.3020 
G01 X0.6280 Y0.3068 
G01 X0.6337 Y0.3106 
G01 X0.6399 Y0.3132 
G01 X0.6466 Y0.3145 
G01 X0.6534 Y0.3145 
G01 X0.6601 Y0.3132 
G01 X0.6663 Y0.3106 
G01 X0.6720 Y0.3068 
G01 X0.6768 Y0.3020 
G01 X0.6806 Y0.2963 
G01 X0.6832 Y0.2901 
G01 X0.6845 Y0.2834 
G01 X0.6845 Y0.2166 
G01 X0.6832 Y0.2099 
G01 X0.6806 Y0.2037 
G01 X0.6768 Y0.1980 
G01 X0.6720 Y0.1932 
G01 X0.6663 Y0.1894 
G01 X0.6601 Y0.1868 
G01 X0.6534 Y0.1855 
G01 X0.6466 Y0.1855 
G01 X0.6399 Y0.1868 
G01 X0.6337 Y0.1894 
G01 X0.6280 Y0.1932 
G01 X0.6232 Y0.1980 
G00 Z0.1000 
G00 X0.7232 Y0.1980 
G01 Z-0.0070 F10.00 
G01 X0.7194 Y0.2037 F20.00 
G01 X0.7168 Y0.2099 
G01 X0.7155 Y0.2166 
G01 X0.7155 Y0.2834 
G01 X0.7168 Y0.2901 
G01 X0.7194 Y0.2963 
G01 X0.7232 Y0.3020 
G01 X0.7280 Y0.3068 
G01 X0.7337 Y0.3106 
G01 X0.7399 Y0.3132 
G01 X0.7466 Y0.3145 
G01 X0.7534 Y0.3145 
G01 X0.7601 Y0.3132 
G01 X0.7663 Y0.3106 
G01 X0.7720 Y0.3068 
G01 X0.7768 Y0.3020 
G01 X0.7806 Y0.2963 
G01 X0.7832 Y0.2901 
G01 X0.7845 Y0.2834 
G01 X0.7845 Y0.2166 
G01 X0.7832 Y0.2099 
G01 X0.7806 Y0.2037 
G01 X0.7768 Y0.1980 
G01 X0.7720 Y0.1932 
G01 X0.7663 Y0.1894 
G01 X0.7601 Y0.1868 
G01 X0.7534 Y0.1855 
G01 X0.7466 Y0.1855 
G01 X0.7399 Y0.1868 
G01 X0.7337 Y0.1894 
G01 X0.7280 Y0.1932 
G01 X0.7232 Y0.1980 
G00 Z0.1000 
G00 X0.8836 Y0.3124 
G01 Z-0.0070 F10.00 
G01 X0.8809 Y0.3171 F20.00 
G01 X0.8795 Y0.3223 
G01 X0.8795 Y0.3665 
G01 X0.7665 Y0.4795 
G01 X0.5223 Y0.4795 
G01 X0.5171 Y0.4809 
G01 X0.5124 Y0.4836 
G01 X0.4336 Y0.5624 
G01 X0.4309 Y0.5671 
G01 X0.4295 Y0.5723 
G01 X0.4295 Y0.5777 
G01 X0.4309 Y0.5829 
G01 X0.4336 Y0.5876 
G01 X0.4374 Y0.5914 
G01 X0.4421 Y0.5941 
G01 X0.4473 Y0.5955 
G01 X0.4527 Y0.5955 
G01 X0.4579 Y0.5941 
G01 X0.4626 Y0.5914 
G01 X0.5335 Y0.5205 
G01 X0.7777 Y0.5205 
G01 X0.7829 Y0.5191 
G01 X0.7876 Y0.5164 
G01 X0.7914 Y0.5126 
G01 X0.9164 Y0.3876 
G01 X0.9191 Y0.3829 
G01 X0.9205 Y0.3777 
G01 X0.9205 Y0.3223 
G01 X0.9191 Y0.3171 
G01 X0.9164 Y0.3124 
G01 X0.9126 Y0.3086 
G01 X0.9079 Y0.3059 
G01 X0.9027 Y0.3045 
G01 X0.8973 Y0.3045 
G01 X0.8921 Y0.3059 
G01 X0.8874 Y0.3086 
G01 X0.8836 Y0.3124 
G00 Z0.1000 
G00 X1.0280 Y0.3068 
G01 Z-0.0070 F10.00 
G01 X1.0337 Y0.3106 F20.00 
G01 X1.0399 Y0.3132 
G01 X1.0466 Y0.3145 
G01 X1.0534 Y0.3145 
G01 X1.0601 Y0.3132 
G01 X1.0663 Y0.3106 
G01 X1.0720 Y0.3068 
G01 X1.0768 Y0.3020 
G01 X1.0806 Y0.2963 
G01 X1.0832 Y0.2901 
G01 X1.0845 Y0.2834 
G01 X1.0845 Y0.2166 
G01 X1.0832 Y0.2099 
G01 X1.0806 Y0.2037 
G01 X1.0768 Y0.1980 
G01 X1.0720 Y0.1932 
G01 X1.0663 Y0.1894 
G01 X1.0601 Y0.1868 
G01 X1.0534 Y0.1855 
G01 X1.0466 Y0.1855 
G01 X1.0399 Y0.1868 
G01 X1.0337 Y0.1894 
G01 X1.0280 Y0.1932 
G01 X1.0232 Y0.1980 
G01 X1.0194 Y0.2037 
G01 X1.0168 Y0.2099 
G01 X1.0155 Y0.2166 
G01 X1.0155 Y0.2834 
G01 X1.0168 Y0.2901 
G01 X1.0194 Y0.2963 
G01 X1.0232 Y0.3020 
G01 X1.0280 Y0.3068 
G00 Z0.1000 
G00 X1.1280 Y0.3068 
G01 Z-0.0070 F10.00 
G01 X1.1337 Y0.3106 F20.00 
G01 X1.1399 Y0.3132 
G01 X1.1466 Y0.3145 
G01 X1.1534 Y0.3145 
G01 X1.1601 Y0.3132 
G01 X1.1663 Y0.3106 
G01 X1.1720 Y0.3068 
G01 X1.1768 Y0.3020 
G01 X1.1806 Y0.2963 
G01 X1.1832 Y0.2901 
G01 X1.1845 Y0.2834 
G01 X1.1845 Y0.2166 
G01 X1.1832 Y0.2099 
G01 X1.1806 Y0.2037 
G01 X1.1768 Y0.1980 
G01 X1.1720 Y0.1932 
G01 X1.1663 Y0.1894 
G01 X1.1601 Y0.1868 
G01 X1.1534 Y0.1855 
G01 X1.1466 Y0.1855 
G01 X1.1399 Y0.1868 
G01 X1.1337 Y0.1894 
G01 X1.1280 Y0.1932 
G01 X1.1232 Y0.1980 
G01 X1.1194 Y0.2037 
G01 X1.1168 Y0.2099 
G01 X1.1155 Y0.2166 
G01 X1.1155 Y0.2834 
G01 X1.1168 Y0.2901 
G01 X1.1194 Y0.2963 
G01 X1.1232 Y0.3020 
G01 X1.1280 Y0.3068 
G00 Z0.1000 
G00 X1.2280 Y0.3068 
G01 Z-0.0070 F10.00 
G01 X1.2337 Y0.3106 F20.00 
G01 X1.2399 Y0.3132 
G01 X1.2466 Y0.3145 
G01 X1.2534 Y0.3145 
G01 X1.2601 Y0.3132 
G01 X1.2663 Y0.3106 
G01 X1.2720 Y0.3068 
G01 X1.2768 Y0.3020 
G01 X1.2806 Y0.2963 
G01 X1.2832 Y0.2901 
G01 X1.2845 Y0.2834 
G01 X1.2845 Y0.2166 
G01 X1.2832 Y0.2099 
G01 X1.2806 Y0.2037 
G01 X1.2768 Y0.1980 
G01 X1.2720 Y0.1932 
G01 X1.2663 Y0.1894 
G01 X1.2601 Y0.1868 
G01 X1.2534 Y0.1855 
G01 X1.2466 Y0.1855 
G01 X1.2399 Y0.1868 
G01 X1.2337 Y0.1894 
G01 X1.2280 Y0.1932 
G01 X1.2232 Y0.1980 
G01 X1.2194 Y0.2037 
G01 X1.2168 Y0.2099 
G01 X1.2155 Y0.2166 
G01 X1.2155 Y0.2834 
G01 X1.2168 Y0.2901 
G01 X1.2194 Y0.2963 
G01 X1.2232 Y0.3020 
G01 X1.2280 Y0.3068 
G00 Z0.1000 
G00 X1.3280 Y0.3068 
G01 Z-0.0070 F10.00 
G01 X1.3337 Y0.3106 F20.00 
G01 X1.3399 Y0.3132 
G01 X1.3466 Y0.3145 
G01 X1.3534 Y0.3145 
G01 X1.3601 Y0.3132 
G01 X1.3663 Y0.3106 
G01 X1.3720 Y0.3068 
G01 X1.3768 Y0.3020 
G01 X1.3806 Y0.2963 
G01 X1.3832 Y0.2901 
G01 X1.3845 Y0.2834 
G01 X1.3845 Y0.2166 
G01 X1.3832 Y0.2099 
G01 X1.3806 Y0.2037 
G01 X1.3768 Y0.1980 
G01 X1.3720 Y0.1932 
G01 X1.3663 Y0.1894 
G01 X1.3601 Y0.1868 
G01 X1.3534 Y0.1855 
G01 X1.3466 Y0.1855 
G01 X1.3399 Y0.1868 
G01 X1.3337 Y0.1894 
G01 X1.3280 Y0.1932 
G01 X1.3232 Y0.1980 
G01 X1.3194 Y0.2037 
G01 X1.3168 Y0.2099 
G01 X1.3155 Y0.2166 
G01 X1.3155 Y0.2834 
G01 X1.3168 Y0.2901 
G01 X1.3194 Y0.2963 
G01 X1.3232 Y0.3020 
G01 X1.3280 Y0.3068 
G00 Z0.1000 
G00 X1.2758 Y0.6825 
G01 Z-0.0070 F10.00 
G01 X1.2692 Y0.6781 F20.00 
G01 X1.2618 Y0.6751 
G01 X1.2540 Y0.6735 
G01 X1.2460 Y0.6735 
G01 X1.2382 Y0.6751 
G01 X1.2308 Y0.6781 
G01 X1.2242 Y0.6825 
G01 X1.2185 Y0.6882 
G01 X1.2141 Y0.6948 
G01 X1.2111 Y0.7022 
G01 X1.2095 Y0.7100 
G01 X1.2095 Y0.7900 
G01 X1.2111 Y0.7978 
G01 X1.2141 Y0.8052 
G01 X1.2185 Y0.8118 
G01 X1.2242 Y0.8175 
G01 X1.2308 Y0.8219 
G01 X1.2382 Y0.8249 
G01 X1.2460 Y0.8265 
G01 X1.2540 Y0.8265 
G01 X1.2618 Y0.8249 
G01 X1.2692 Y0.8219 
G01 X1.2758 Y0.8175 
G01 X1.2815 Y0.8118 
G01 X1.2859 Y0.8052 
G01 X1.2889 Y0.7978 
G01 X1.2905 Y0.7900 
G01 X1.2905 Y0.7100 
G01 X1.2889 Y0.7022 
G01 X1.2859 Y0.6948 
G01 X1.2815 Y0.6882 
G01 X1.2758 Y0.6825 
G00 Z0.1000 
G00 X1.1758 Y0.6825 
G01 Z-0.0070 F10.00 
G01 X1.1692 Y0.6781 F20.00 
G01 X1.1618 Y0.6751 
G01 X1.1540 Y0.6735 
G01 X1.1460 Y0.6735 
G01 X1.1382 Y0.6751 
G01 X1.1308 Y0.6781 
G01 X1.1242 Y0.6825 
G01 X1.1185 Y0.6882 
G01 X1.1141 Y0.6948 
G01 X1.1111 Y0.7022 
G01 X1.1095 Y0.7100 
G01 X1.1095 Y0.7900 
G01 X1.1111 Y0.7978 
G01 X1.1141 Y0.8052 
G01 X1.1185 Y0.8118 
G01 X1.1242 Y0.8175 
G01 X1.1308 Y0.8219 
G01 X1.1382 Y0.8249 
G01 X1.1460 Y0.8265 
G01 X1.1540 Y0.8265 
G01 X1.1618 Y0.8249 
G01 X1.1692 Y0.8219 
G01 X1.1758 Y0.8175 
G01 X1.1815 Y0.8118 
G01 X1.1859 Y0.8052 
G01 X1.1889 Y0.7978 
G01 X1.1905 Y0.7900 
G01 X1.1905 Y0.7100 
G01 X1.1889 Y0.7022 
G01 X1.1859 Y0.6948 
G01 X1.1815 Y0.6882 
G01 X1.1758 Y0.6825 
G00 Z0.1000 
G00 X1.0758 Y0.6825 
G01 Z-0.0070 F10.00 
G01 X1.0692 Y0.6781 F20.00 
G01 X1.0618 Y0.6751 
G01 X1.0540 Y0.6735 
G01 X1.0460 Y0.6735 
G01 X1.0382 Y0.6751 
G01 X1.0308 Y0.6781 
G01 X1.0242 Y0.6825 
G01 X1.0185 Y0.6882 
G01 X1.0141 Y0.6948 
G01 X1.0111 Y0.7022 
G01 X1.0095 Y0.7100 
G01 X1.0095 Y0.7900 
G01 X1.0111 Y0.7978 
G01 X1.0141 Y0.8052 
G01 X1.0185 Y0.8118 
G01 X1.0242 Y0.8175 
G01 X1.0308 Y0.8219 
G01 X1.0382 Y0.8249 
G01 X1.0460 Y0.8265 
G01 X1.0540 Y0.8265 
G01 X1.0618 Y0.8249 
G01 X1.0692 Y0.8219 
G01 X1.0758 Y0.8175 
G01 X1.0815 Y0.8118 
G01 X1.0859 Y0.8052 
G01 X1.0889 Y0.7978 
G01 X1.0905 Y0.7900 
G01 X1.0905 Y0.7100 
G01 X1.0889 Y0.7022 
G01 X1.0859 Y0.6948 
G01 X1.0815 Y0.6882 
G01 X1.0758 Y0.6825 
G00 Z0.1000 
G00 X0.9758 Y0.6825 
G01 Z-0.0070 F10.00 
G01 X0.9692 Y0.6781 F20.00 
G01 X0.9618 Y0.6751 
G01 X0.9540 Y0.6735 
G01 X0.9460 Y0.6735 
G01 X0.9382 Y0.6751 
G01 X0.9308 Y0.6781 
G01 X0.9242 Y0.6825 
G01 X0.9185 Y0.6882 
G01 X0.9141 Y0.6948 
G01 X0.9111 Y0.7022 
G01 X0.9095 Y0.7100 
G01 X0.9095 Y0.7900 
G01 X0.9111 Y0.7978 
G01 X0.9141 Y0.8052 
G01 X0.9185 Y0.8118 
G01 X0.9242 Y0.8175 
G01 X0.9308 Y0.8219 
G01 X0.9382 Y0.8249 
G01 X0.9460 Y0.8265 
G01 X0.9540 Y0.8265 
G01 X0.9618 Y0.8249 
G01 X0.9692 Y0.8219 
G01 X0.9758 Y0.8175 
G01 X0.9815 Y0.8118 
G01 X0.9859 Y0.8052 
G01 X0.9889 Y0.7978 
G01 X0.9905 Y0.7900 
G01 X0.9905 Y0.7100 
G01 X0.9889 Y0.7022 
G01 X0.9859 Y0.6948 
G01 X0.9815 Y0.6882 
G01 X0.9758 Y0.6825 
G00 Z0.1000 
G00 X0.8758 Y0.6825 
G01 Z-0.0070 F10.00 
G01 X0.8692 Y0.6781 F20.00 
G01 X0.8618 Y0.6751 
G01 X0.8540 Y0.6735 
G01 X0.8460 Y0.6735 
G01 X0.8382 Y0.6751 
G01 X0.8308 Y0.6781 
G01 X0.8242 Y0.6825 
G01 X0.8185 Y0.6882 
G01 X0.8141 Y0.6948 
G01 X0.8111 Y0.7022 
G01 X0.8095 Y0.7100 
G01 X0.8095 Y0.7900 
G01 X0.8111 Y0.7978 
G01 X0.8141 Y0.8052 
G01 X0.8185 Y0.8118 
G01 X0.8242 Y0.8175 
G01 X0.8308 Y0.8219 
G01 X0.8382 Y0.8249 
G01 X0.8460 Y0.8265 
G01 X0.8540 Y0.8265 
G01 X0.8618 Y0.8249 
G01 X0.8692 Y0.8219 
G01 X0.8758 Y0.8175 
G01 X0.8815 Y0.8118 
G01 X0.8859 Y0.8052 
G01 X0.8889 Y0.7978 
G01 X0.8905 Y0.7900 
G01 X0.8905 Y0.7100 
G01 X0.8889 Y0.7022 
G01 X0.8859 Y0.6948 
G01 X0.8815 Y0.6882 
G01 X0.8758 Y0.6825 
G00 Z0.1000 
G00 X0.7758 Y0.6825 
G01 Z-0.0070 F10.00 
G01 X0.7692 Y0.6781 F20.00 
G01 X0.7618 Y0.6751 
G01 X0.7540 Y0.6735 
G01 X0.7460 Y0.6735 
G01 X0.7382 Y0.6751 
G01 X0.7308 Y0.6781 
G01 X0.7242 Y0.6825 
G01 X0.7185 Y0.6882 
G01 X0.7141 Y0.6948 
G01 X0.7111 Y0.7022 
G01 X0.7095 Y0.7100 
G01 X0.7095 Y0.7900 
G01 X0.7111 Y0.7978 
G01 X0.7141 Y0.8052 
G01 X0.7185 Y0.8118 
G01 X0.7242 Y0.8175 
G01 X0.7308 Y0.8219 
G01 X0.7382 Y0.8249 
G01 X0.7460 Y0.8265 
G01 X0.7540 Y0.8265 
G01 X0.7618 Y0.8249 
G01 X0.7692 Y0.8219 
G01 X0.7758 Y0.8175 
G01 X0.7815 Y0.8118 
G01 X0.7859 Y0.8052 
G01 X0.7889 Y0.7978 
G01 X0.7905 Y0.7900 
G01 X0.7905 Y0.7100 
G01 X0.7889 Y0.7022 
G01 X0.7859 Y0.6948 
G01 X0.7815 Y0.6882 
G01 X0.7758 Y0.6825 
G00 Z0.1000 
G00 X0.6758 Y0.6825 
G01 Z-0.0070 F10.00 
G01 X0.6692 Y0.6781 F20.00 
G01 X0.6618 Y0.6751 
G01 X0.6540 Y0.6735 
G01 X0.6460 Y0.6735 
G01 X0.6382 Y0.6751 
G01 X0.6308 Y0.6781 
G01 X0.6242 Y0.6825 
G01 X0.6185 Y0.6882 
G01 X0.6141 Y0.6948 
G01 X0.6111 Y0.7022 
G01 X0.6095 Y0.7100 
G01 X0.6095 Y0.7900 
G01 X0.6111 Y0.7978 
G01 X0.6141 Y0.8052 
G01 X0.6185 Y0.8118 
G01 X0.6242 Y0.8175 
G01 X0.6308 Y0.8219 
G01 X0.6382 Y0.8249 
G01 X0.6460 Y0.8265 
G01 X0.6540 Y0.8265 
G01 X0.6618 Y0.8249 
G01 X0.6692 Y0.8219 
G01 X0.6758 Y0.8175 
G01 X0.6815 Y0.8118 
G01 X0.6859 Y0.8052 
G01 X0.6889 Y0.7978 
G01 X0.6905 Y0.7900 
G01 X0.6905 Y0.7100 
G01 X0.6889 Y0.7022 
G01 X0.6859 Y0.6948 
G01 X0.6815 Y0.6882 
G01 X0.6758 Y0.6825 
G00 Z0.1000 
G00 X0.5758 Y0.6825 
G01 Z-0.0070 F10.00 
G01 X0.5692 Y0.6781 F20.00 
G01 X0.5618 Y0.6751 
G01 X0.5540 Y0.6735 
G01 X0.5460 Y0.6735 
G01 X0.5382 Y0.6751 
G01 X0.5308 Y0.6781 
G01 X0.5242 Y0.6825 
G01 X0.5185 Y0.6882 
G01 X0.5141 Y0.6948 
G01 X0.5111 Y0.7022 
G01 X0.5095 Y0.7100 
G01 X0.5095 Y0.7900 
G01 X0.5111 Y0.7978 
G01 X0.5141 Y0.8052 
G01 X0.5185 Y0.8118 
G01 X0.5242 Y0.8175 
G01 X0.5308 Y0.8219 
G01 X0.5382 Y0.8249 
G01 X0.5460 Y0.8265 
G01 X0.5540 Y0.8265 
G01 X0.5618 Y0.8249 
G01 X0.5692 Y0.8219 
G01 X0.5758 Y0.8175 
G01 X0.5815 Y0.8118 
G01 X0.5859 Y0.8052 
G01 X0.5889 Y0.7978 
G01 X0.5905 Y0.7900 
G01 X0.5905 Y0.7100 
G01 X0.5889 Y0.7022 
G01 X0.5859 Y0.6948 
G01 X0.5815 Y0.6882 
G01 X0.5758 Y0.6825 
G00 Z0.1000 
G00 X0.5758 Y1.5825 
G01 Z-0.0070 F10.00 
G01 X0.5692 Y1.5781 F20.00 
G01 X0.5618 Y1.5751 
G01 X0.5540 Y1.5735 
G01 X0.5460 Y1.5735 
G01 X0.5382 Y1.5751 
G01 X0.5308 Y1.5781 
G01 X0.5242 Y1.5825 
G01 X0.5185 Y1.5882 
G01 X0.5141 Y1.5948 
G01 X0.5111 Y1.6022 
G01 X0.5095 Y1.6100 
G01 X0.5095 Y1.6900 
G01 X0.5111 Y1.6978 
G01 X0.5141 Y1.7052 
G01 X0.5185 Y1.7118 
G01 X0.5242 Y1.7175 
G01 X0.5308 Y1.7219 
G01 X0.5382 Y1.7249 
G01 X0.5460 Y1.7265 
G01 X0.5540 Y1.7265 
G01 X0.5618 Y1.7249 
G01 X0.5692 Y1.7219 
G01 X0.5758 Y1.7175 
G01 X0.5815 Y1.7118 
G01 X0.5859 Y1.7052 
G01 X0.5889 Y1.6978 
G01 X0.5905 Y1.6900 
G01 X0.5905 Y1.6100 
G01 X0.5889 Y1.6022 
G01 X0.5859 Y1.5948 
G01 X0.5815 Y1.5882 
G01 X0.5758 Y1.5825 
G00 Z0.1000 
G00 X0.6185 Y1.5882 
G01 Z-0.0070 F10.00 
G01 X0.6141 Y1.5948 F20.00 
G01 X0.6111 Y1.6022 
G01 X0.6095 Y1.6100 
G01 X0.6095 Y1.6900 
G01 X0.6111 Y1.6978 
G01 X0.6141 Y1.7052 
G01 X0.6185 Y1.7118 
G01 X0.6242 Y1.7175 
G01 X0.6308 Y1.7219 
G01 X0.6382 Y1.7249 
G01 X0.6460 Y1.7265 
G01 X0.6540 Y1.7265 
G01 X0.6618 Y1.7249 
G01 X0.6692 Y1.7219 
G01 X0.6758 Y1.7175 
G01 X0.6815 Y1.7118 
G01 X0.6859 Y1.7052 
G01 X0.6889 Y1.6978 
G01 X0.6905 Y1.6900 
G01 X0.6905 Y1.6100 
G01 X0.6889 Y1.6022 
G01 X0.6859 Y1.5948 
G01 X0.6815 Y1.5882 
G01 X0.6758 Y1.5825 
G01 X0.6692 Y1.5781 
G01 X0.6618 Y1.5751 
G01 X0.6540 Y1.5735 
G01 X0.6460 Y1.5735 
G01 X0.6382 Y1.5751 
G01 X0.6308 Y1.5781 
G01 X0.6242 Y1.5825 
G01 X0.6185 Y1.5882 
G00 Z0.1000 
G00 X0.7185 Y1.5882 
G01 Z-0.0070 F10.00 
G01 X0.7141 Y1.5948 F20.00 
G01 X0.7111 Y1.6022 
G01 X0.7095 Y1.6100 
G01 X0.7095 Y1.6900 
G01 X0.7111 Y1.6978 
G01 X0.7141 Y1.7052 
G01 X0.7185 Y1.7118 
G01 X0.7242 Y1.7175 
G01 X0.7308 Y1.7219 
G01 X0.7382 Y1.7249 
G01 X0.7460 Y1.7265 
G01 X0.7540 Y1.7265 
G01 X0.7618 Y1.7249 
G01 X0.7692 Y1.7219 
G01 X0.7758 Y1.7175 
G01 X0.7815 Y1.7118 
G01 X0.7859 Y1.7052 
G01 X0.7889 Y1.6978 
G01 X0.7905 Y1.6900 
G01 X0.7905 Y1.6100 
G01 X0.7889 Y1.6022 
G01 X0.7859 Y1.5948 
G01 X0.7815 Y1.5882 
G01 X0.7758 Y1.5825 
G01 X0.7692 Y1.5781 
G01 X0.7618 Y1.5751 
G01 X0.7540 Y1.5735 
G01 X0.7460 Y1.5735 
G01 X0.7382 Y1.5751 
G01 X0.7308 Y1.5781 
G01 X0.7242 Y1.5825 
G01 X0.7185 Y1.5882 
G00 Z0.1000 
G00 X0.8185 Y1.5882 
G01 Z-0.0070 F10.00 
G01 X0.8141 Y1.5948 F20.00 
G01 X0.8111 Y1.6022 
G01 X0.8095 Y1.6100 
G01 X0.8095 Y1.6900 
G01 X0.8111 Y1.6978 
G01 X0.8141 Y1.7052 
G01 X0.8185 Y1.7118 
G01 X0.8242 Y1.7175 
G01 X0.8308 Y1.7219 
G01 X0.8382 Y1.7249 
G01 X0.8460 Y1.7265 
G01 X0.8540 Y1.7265 
G01 X0.8618 Y1.7249 
G01 X0.8692 Y1.7219 
G01 X0.8758 Y1.7175 
G01 X0.8815 Y1.7118 
G01 X0.8859 Y1.7052 
G01 X0.8889 Y1.6978 
G01 X0.8905 Y1.6900 
G01 X0.8905 Y1.6100 
G01 X0.8889 Y1.6022 
G01 X0.8859 Y1.5948 
G01 X0.8815 Y1.5882 
G01 X0.8758 Y1.5825 
G01 X0.8692 Y1.5781 
G01 X0.8618 Y1.5751 
G01 X0.8540 Y1.5735 
G01 X0.8460 Y1.5735 
G01 X0.8382 Y1.5751 
G01 X0.8308 Y1.5781 
G01 X0.8242 Y1.5825 
G01 X0.8185 Y1.5882 
G00 Z0.1000 
G00 X0.9185 Y1.5882 
G01 Z-0.0070 F10.00 
G01 X0.9141 Y1.5948 F20.00 
G01 X0.9111 Y1.6022 
G01 X0.9095 Y1.6100 
G01 X0.9095 Y1.6900 
G01 X0.9111 Y1.6978 
G01 X0.9141 Y1.7052 
G01 X0.9185 Y1.7118 
G01 X0.9242 Y1.7175 
G01 X0.9308 Y1.7219 
G01 X0.9382 Y1.7249 
G01 X0.9460 Y1.7265 
G01 X0.9540 Y1.7265 
G01 X0.9618 Y1.7249 
G01 X0.9692 Y1.7219 
G01 X0.9758 Y1.7175 
G01 X0.9815 Y1.7118 
G01 X0.9859 Y1.7052 
G01 X0.9889 Y1.6978 
G01 X0.9905 Y1.6900 
G01 X0.9905 Y1.6100 
G01 X0.9889 Y1.6022 
G01 X0.9859 Y1.5948 
G01 X0.9815 Y1.5882 
G01 X0.9758 Y1.5825 
G01 X0.9692 Y1.5781 
G01 X0.9618 Y1.5751 
G01 X0.9540 Y1.5735 
G01 X0.9460 Y1.5735 
G01 X0.9382 Y1.5751 
G01 X0.9308 Y1.5781 
G01 X0.9242 Y1.5825 
G01 X0.9185 Y1.5882 
G00 Z0.1000 
G00 X1.0185 Y1.5882 
G01 Z-0.0070 F10.00 
G01 X1.0141 Y1.5948 F20.00 
G01 X1.0111 Y1.6022 
G01 X1.0095 Y1.6100 
G01 X1.0095 Y1.6900 
G01 X1.0111 Y1.6978 
G01 X1.0141 Y1.7052 
G01 X1.0185 Y1.7118 
G01 X1.0242 Y1.7175 
G01 X1.0308 Y1.7219 
G01 X1.0382 Y1.7249 
G01 X1.0460 Y1.7265 
G01 X1.0540 Y1.7265 
G01 X1.0618 Y1.7249 
G01 X1.0692 Y1.7219 
G01 X1.0758 Y1.7175 
G01 X1.0815 Y1.7118 
G01 X1.0859 Y1.7052 
G01 X1.0889 Y1.6978 
G01 X1.0905 Y1.6900 
G01 X1.0905 Y1.6100 
G01 X1.0889 Y1.6022 
G01 X1.0859 Y1.5948 
G01 X1.0815 Y1.5882 
G01 X1.0758 Y1.5825 
G01 X1.0692 Y1.5781 
G01 X1.0618 Y1.5751 
G01 X1.0540 Y1.5735 
G01 X1.0460 Y1.5735 
G01 X1.0382 Y1.5751 
G01 X1.0308 Y1.5781 
G01 X1.0242 Y1.5825 
G01 X1.0185 Y1.5882 
G00 Z0.1000 
G00 X1.1185 Y1.5882 
G01 Z-0.0070 F10.00 
G01 X1.1141 Y1.5948 F20.00 
G01 X1.1111 Y1.6022 
G01 X1.1095 Y1.6100 
G01 X1.1095 Y1.6900 
G01 X1.1111 Y1.6978 
G01 X1.1141 Y1.7052 
G01 X1.1185 Y1.7118 
G01 X1.1242 Y1.7175 
G01 X1.1308 Y1.7219 
G01 X1.1382 Y1.7249 
G01 X1.1460 Y1.7265 
G01 X1.1540 Y1.7265 
G01 X1.1618 Y1.7249 
G01 X1.1692 Y1.7219 
G01 X1.1758 Y1.7175 
G01 X1.1815 Y1.7118 
G01 X1.1859 Y1.7052 
G01 X1.1889 Y1.6978 
G01 X1.1905 Y1.6900 
G01 X1.1905 Y1.6100 
G01 X1.1889 Y1.6022 
G01 X1.1859 Y1.5948 
G01 X1.1815 Y1.5882 
G01 X1.1758 Y1.5825 
G01 X1.1692 Y1.5781 
G01 X1.1618 Y1.5751 
G01 X1.1540 Y1.5735 
G01 X1.1460 Y1.5735 
G01 X1.1382 Y1.5751 
G01 X1.1308 Y1.5781 
G01 X1.1242 Y1.5825 
G01 X1.1185 Y1.5882 
G00 Z0.1000 
G00 X1.2185 Y1.5882 
G01 Z-0.0070 F10.00 
G01 X1.2141 Y1.5948 F20.00 
G01 X1.2111 Y1.6022 
G01 X1.2095 Y1.6100 
G01 X1.2095 Y1.6900 
G01 X1.2111 Y1.6978 
G01 X1.2141 Y1.7052 
G01 X1.2185 Y1.7118 
G01 X1.2242 Y1.7175 
G01 X1.2308 Y1.7219 
G01 X1.2382 Y1.7249 
G01 X1.2460 Y1.7265 
G01 X1.2540 Y1.7265 
G01 X1.2618 Y1.7249 
G01 X1.2692 Y1.7219 
G01 X1.2758 Y1.7175 
G01 X1.2815 Y1.7118 
G01 X1.2859 Y1.7052 
G01 X1.2889 Y1.6978 
G01 X1.2905 Y1.6900 
G01 X1.2905 Y1.6100 
G01 X1.2889 Y1.6022 
G01 X1.2859 Y1.5948 
G01 X1.2815 Y1.5882 
G01 X1.2758 Y1.5825 
G01 X1.2692 Y1.5781 
G01 X1.2618 Y1.5751 
G01 X1.2540 Y1.5735 
G01 X1.2460 Y1.5735 
G01 X1.2382 Y1.5751 
G01 X1.2308 Y1.5781 
G01 X1.2242 Y1.5825 
G01 X1.2185 Y1.5882 
G00 Z0.1000 
G00 X1.1473 Y2.0045 
G01 Z-0.0070 F10.00 
G01 X1.1421 Y2.0059 F20.00 
G01 X1.1374 Y2.0086 
G01 X1.1336 Y2.0124 
G01 X1.1309 Y2.0171 
G01 X1.1295 Y2.0223 
G01 X1.1295 Y2.0277 
G01 X1.1309 Y2.0329 
G01 X1.1336 Y2.0376 
G01 X1.1374 Y2.0414 
G01 X1.1421 Y2.0441 
G01 X1.1473 Y2.0455 
G01 X1.5527 Y2.0455 
G01 X1.5579 Y2.0441 
G01 X1.5626 Y2.0414 
G01 X1.5664 Y2.0376 
G01 X1.5691 Y2.0329 
G01 X1.5705 Y2.0277 
G01 X1.5705 Y2.0223 
G01 X1.5691 Y2.0171 
G01 X1.5664 Y2.0124 
G01 X1.5626 Y2.0086 
G01 X1.5579 Y2.0059 
G01 X1.5527 Y2.0045 
G01 X1.1473 Y2.0045 
G00 Z0.1000 
G00 X1.1220 Y2.1432 
G01 Z-0.0070 F10.00 
G01 X1.1163 Y2.1394 F20.00 
G01 X1.1101 Y2.1368 
G01 X1.1034 Y2.1355 
G01 X1.0966 Y2.1355 
G01 X1.0899 Y2.1368 
G01 X1.0837 Y2.1394 
G01 X1.0780 Y2.1432 
G01 X1.0732 Y2.1480 
G01 X1.0694 Y2.1537 
G01 X1.0668 Y2.1599 
G01 X1.0655 Y2.1666 
G01 X1.0655 Y2.2334 
G01 X1.0668 Y2.2401 
G01 X1.0694 Y2.2463 
G01 X1.0732 Y2.2520 
G01 X1.0780 Y2.2568 
G01 X1.0837 Y2.2606 
G01 X1.0899 Y2.2632 
G01 X1.0966 Y2.2645 
G01 X1.1034 Y2.2645 
G01 X1.1101 Y2.2632 
G01 X1.1163 Y2.2606 
G01 X1.1220 Y2.2568 
G01 X1.1268 Y2.2520 
G01 X1.1306 Y2.2463 
G01 X1.1332 Y2.2401 
G01 X1.1345 Y2.2334 
G01 X1.1345 Y2.1666 
G01 X1.1332 Y2.1599 
G01 X1.1306 Y2.1537 
G01 X1.1268 Y2.1480 
G01 X1.1220 Y2.1432 
G00 Z0.1000 
G00 X1.1732 Y2.1480 
G01 Z-0.0070 F10.00 
G01 X1.1694 Y2.1537 F20.00 
G01 X1.1668 Y2.1599 
G01 X1.1655 Y2.1666 
G01 X1.1655 Y2.2334 
G01 X1.1668 Y2.2401 
G01 X1.1694 Y2.2463 
G01 X1.1732 Y2.2520 
G01 X1.1780 Y2.2568 
G01 X1.1837 Y2.2606 
G01 X1.1899 Y2.2632 
G01 X1.1966 Y2.2645 
G01 X1.2034 Y2.2645 
G01 X1.2101 Y2.2632 
G01 X1.2163 Y2.2606 
G01 X1.2220 Y2.2568 
G01 X1.2268 Y2.2520 
G01 X1.2306 Y2.2463 
G01 X1.2332 Y2.2401 
G01 X1.2345 Y2.2334 
G01 X1.2345 Y2.1666 
G01 X1.2332 Y2.1599 
G01 X1.2306 Y2.1537 
G01 X1.2268 Y2.1480 
G01 X1.2220 Y2.1432 
G01 X1.2163 Y2.1394 
G01 X1.2101 Y2.1368 
G01 X1.2034 Y2.1355 
G01 X1.1966 Y2.1355 
G01 X1.1899 Y2.1368 
G01 X1.1837 Y2.1394 
G01 X1.1780 Y2.1432 
G01 X1.1732 Y2.1480 
G00 Z0.1000 
G00 X1.2732 Y2.1480 
G01 Z-0.0070 F10.00 
G01 X1.2694 Y2.1537 F20.00 
G01 X1.2668 Y2.1599 
G01 X1.2655 Y2.1666 
G01 X1.2655 Y2.2334 
G01 X1.2668 Y2.2401 
G01 X1.2694 Y2.2463 
G01 X1.2732 Y2.2520 
G01 X1.2780 Y2.2568 
G01 X1.2837 Y2.2606 
G01 X1.2899 Y2.2632 
G01 X1.2966 Y2.2645 
G01 X1.3034 Y2.2645 
G01 X1.3101 Y2.2632 
G01 X1.3163 Y2.2606 
G01 X1.3220 Y2.2568 
G01 X1.3268 Y2.2520 
G01 X1.3306 Y2.2463 
G01 X1.3332 Y2.2401 
G01 X1.3345 Y2.2334 
G01 X1.3345 Y2.1666 
G01 X1.3332 Y2.1599 
G01 X1.3306 Y2.1537 
G01 X1.3268 Y2.1480 
G01 X1.3220 Y2.1432 
G01 X1.3163 Y2.1394 
G01 X1.3101 Y2.1368 
G01 X1.3034 Y2.1355 
G01 X1.2966 Y2.1355 
G01 X1.2899 Y2.1368 
G01 X1.2837 Y2.1394 
G01 X1.2780 Y2.1432 
G01 X1.2732 Y2.1480 
G00 Z0.1000 
G00 X1.3732 Y2.1480 
G01 Z-0.0070 F10.00 
G01 X1.3694 Y2.1537 F20.00 
G01 X1.3668 Y2.1599 
G01 X1.3655 Y2.1666 
G01 X1.3655 Y2.2334 
G01 X1.3668 Y2.2401 
G01 X1.3694 Y2.2463 
G01 X1.3732 Y2.2520 
G01 X1.3780 Y2.2568 
G01 X1.3837 Y2.2606 
G01 X1.3899 Y2.2632 
G01 X1.3966 Y2.2645 
G01 X1.4034 Y2.2645 
G01 X1.4101 Y2.2632 
G01 X1.4163 Y2.2606 
G01 X1.4220 Y2.2568 
G01 X1.4268 Y2.2520 
G01 X1.4306 Y2.2463 
G01 X1.4332 Y2.2401 
G01 X1.4345 Y2.2334 
G01 X1.4345 Y2.1666 
G01 X1.4332 Y2.1599 
G01 X1.4306 Y2.1537 
G01 X1.4268 Y2.1480 
G01 X1.4220 Y2.1432 
G01 X1.4163 Y2.1394 
G01 X1.4101 Y2.1368 
G01 X1.4034 Y2.1355 
G01 X1.3966 Y2.1355 
G01 X1.3899 Y2.1368 
G01 X1.3837 Y2.1394 
G01 X1.3780 Y2.1432 
G01 X1.3732 Y2.1480 
G00 Z0.1000 
G00 X0.8914 Y2.0376 
G01 Z-0.0070 F10.00 
G01 X0.8941 Y2.0329 F20.00 
G01 X0.8955 Y2.0277 
G01 X0.8955 Y2.0223 
G01 X0.8941 Y2.0171 
G01 X0.8914 Y2.0124 
G01 X0.8876 Y2.0086 
G01 X0.8829 Y2.0059 
G01 X0.8777 Y2.0045 
G01 X0.4473 Y2.0045 
G01 X0.4421 Y2.0059 
G01 X0.4374 Y2.0086 
G01 X0.4336 Y2.0124 
G01 X0.4309 Y2.0171 
G01 X0.4295 Y2.0223 
G01 X0.4295 Y2.0277 
G01 X0.4309 Y2.0329 
G01 X0.4336 Y2.0376 
G01 X0.4374 Y2.0414 
G01 X0.4421 Y2.0441 
G01 X0.4473 Y2.0455 
G01 X0.8777 Y2.0455 
G01 X0.8829 Y2.0441 
G01 X0.8876 Y2.0414 
G01 X0.8914 Y2.0376 
G00 Z0.1000 
G00 X0.7720 Y2.1432 
G01 Z-0.0070 F10.00 
G01 X0.7663 Y2.1394 F20.00 
G01 X0.7601 Y2.1368 
G01 X0.7534 Y2.1355 
G01 X0.7466 Y2.1355 
G01 X0.7399 Y2.1368 
G01 X0.7337 Y2.1394 
G01 X0.7280 Y2.1432 
G01 X0.7232 Y2.1480 
G01 X0.7194 Y2.1537 
G01 X0.7168 Y2.1599 
G01 X0.7155 Y2.1666 
G01 X0.7155 Y2.2334 
G01 X0.7168 Y2.2401 
G01 X0.7194 Y2.2463 
G01 X0.7232 Y2.2520 
G01 X0.7280 Y2.2568 
G01 X0.7337 Y2.2606 
G01 X0.7399 Y2.2632 
G01 X0.7466 Y2.2645 
G01 X0.7534 Y2.2645 
G01 X0.7601 Y2.2632 
G01 X0.7663 Y2.2606 
G01 X0.7720 Y2.2568 
G01 X0.7768 Y2.2520 
G01 X0.7806 Y2.2463 
G01 X0.7832 Y2.2401 
G01 X0.7845 Y2.2334 
G01 X0.7845 Y2.1666 
G01 X0.7832 Y2.1599 
G01 X0.7806 Y2.1537 
G01 X0.7768 Y2.1480 
G01 X0.7720 Y2.1432 
G00 Z0.1000 
G00 X0.6720 Y2.1432 
G01 Z-0.0070 F10.00 
G01 X0.6663 Y2.1394 F20.00 
G01 X0.6601 Y2.1368 
G01 X0.6534 Y2.1355 
G01 X0.6466 Y2.1355 
G01 X0.6399 Y2.1368 
G01 X0.6337 Y2.1394 
G01 X0.6280 Y2.1432 
G01 X0.6232 Y2.1480 
G01 X0.6194 Y2.1537 
G01 X0.6168 Y2.1599 
G01 X0.6155 Y2.1666 
G01 X0.6155 Y2.2334 
G01 X0.6168 Y2.2401 
G01 X0.6194 Y2.2463 
G01 X0.6232 Y2.2520 
G01 X0.6280 Y2.2568 
G01 X0.6337 Y2.2606 
G01 X0.6399 Y2.2632 
G01 X0.6466 Y2.2645 
G01 X0.6534 Y2.2645 
G01 X0.6601 Y2.2632 
G01 X0.6663 Y2.2606 
G01 X0.6720 Y2.2568 
G01 X0.6768 Y2.2520 
G01 X0.6806 Y2.2463 
G01 X0.6832 Y2.2401 
G01 X0.6845 Y2.2334 
G01 X0.6845 Y2.1666 
G01 X0.6832 Y2.1599 
G01 X0.6806 Y2.1537 
G01 X0.6768 Y2.1480 
G01 X0.6720 Y2.1432 
G00 Z0.1000 
G00 X0.5720 Y2.1432 
G01 Z-0.0070 F10.00 
G01 X0.5663 Y2.1394 F20.00 
G01 X0.5601 Y2.1368 
G01 X0.5534 Y2.1355 
G01 X0.5466 Y2.1355 
G01 X0.5399 Y2.1368 
G01 X0.5337 Y2.1394 
G01 X0.5280 Y2.1432 
G01 X0.5232 Y2.1480 
G01 X0.5194 Y2.1537 
G01 X0.5168 Y2.1599 
G01 X0.5155 Y2.1666 
G01 X0.5155 Y2.2334 
G01 X0.5168 Y2.2401 
G01 X0.5194 Y2.2463 
G01 X0.5232 Y2.2520 
G01 X0.5280 Y2.2568 
G01 X0.5337 Y2.2606 
G01 X0.5399 Y2.2632 
G01 X0.5466 Y2.2645 
G01 X0.5534 Y2.2645 
G01 X0.5601 Y2.2632 
G01 X0.5663 Y2.2606 
G01 X0.5720 Y2.2568 
G01 X0.5768 Y2.2520 
G01 X0.5806 Y2.2463 
G01 X0.5832 Y2.2401 
G01 X0.5845 Y2.2334 
G01 X0.5845 Y2.1666 
G01 X0.5832 Y2.1599 
G01 X0.5806 Y2.1537 
G01 X0.5768 Y2.1480 
G01 X0.5720 Y2.1432 
G00 Z0.1000 
G00 X0.4720 Y2.1432 
G01 Z-0.0070 F10.00 
G01 X0.4663 Y2.1394 F20.00 
G01 X0.4601 Y2.1368 
G01 X0.4534 Y2.1355 
G01 X0.4466 Y2.1355 
G01 X0.4399 Y2.1368 
G01 X0.4337 Y2.1394 
G01 X0.4280 Y2.1432 
G01 X0.4232 Y2.1480 
G01 X0.4194 Y2.1537 
G01 X0.4168 Y2.1599 
G01 X0.4155 Y2.1666 
G01 X0.4155 Y2.2334 
G01 X0.4168 Y2.2401 
G01 X0.4194 Y2.2463 
G01 X0.4232 Y2.2520 
G01 X0.4280 Y2.2568 
G01 X0.4337 Y2.2606 
G01 X0.4399 Y2.2632 
G01 X0.4466 Y2.2645 
G01 X0.4534 Y2.2645 
G01 X0.4601 Y2.2632 
G01 X0.4663 Y2.2606 
G01 X0.4720 Y2.2568 
G01 X0.4768 Y2.2520 
G01 X0.4806 Y2.2463 
G01 X0.4832 Y2.2401 
G01 X0.4845 Y2.2334 
G01 X0.4845 Y2.1666 
G01 X0.4832 Y2.1599 
G01 X0.4806 Y2.1537 
G01 X0.4768 Y2.1480 
G01 X0.4720 Y2.1432 
G00 Z0.1000 
G00 X0.4193 Y0.1948 
G01 Z-0.0070 F10.00 
G01 X0.4150 Y0.2013 F20.00 
G01 X0.4120 Y0.2085 
G01 X0.4105 Y0.2161 
G01 X0.4105 Y0.2839 
G01 X0.4120 Y0.2915 
G01 X0.4150 Y0.2987 
G01 X0.4193 Y0.3052 
G01 X0.4248 Y0.3107 
G01 X0.4313 Y0.3150 
G01 X0.4385 Y0.3180 
G01 X0.4461 Y0.3195 
G01 X0.4539 Y0.3195 
G01 X0.4615 Y0.3180 
G01 X0.4687 Y0.3150 
G01 X0.4752 Y0.3107 
G01 X0.4807 Y0.3052 
G01 X0.4850 Y0.2987 
G01 X0.4880 Y0.2915 
G01 X0.4895 Y0.2839 
G01 X0.4895 Y0.2161 
G01 X0.4880 Y0.2085 
G01 X0.4850 Y0.2013 
G01 X0.4807 Y0.1948 
G01 X0.4752 Y0.1893 
G01 X0.4687 Y0.1850 
G01 X0.4615 Y0.1820 
G01 X0.4539 Y0.1805 
G01 X0.4461 Y0.1805 
G01 X0.4385 Y0.1820 
G01 X0.4313 Y0.1850 
G01 X0.4248 Y0.1893 
G01 X0.4193 Y0.1948 
G00 Z0.1000 
G00 X0.5193 Y0.1948 
G01 Z-0.0070 F10.00 
G01 X0.5150 Y0.2013 F20.00 
G01 X0.5120 Y0.2085 
G01 X0.5105 Y0.2161 
G01 X0.5105 Y0.2839 
G01 X0.5120 Y0.2915 
G01 X0.5150 Y0.2987 
G01 X0.5193 Y0.3052 
G01 X0.5248 Y0.3107 
G01 X0.5313 Y0.3150 
G01 X0.5385 Y0.3180 
G01 X0.5461 Y0.3195 
G01 X0.5539 Y0.3195 
G01 X0.5615 Y0.3180 
G01 X0.5687 Y0.3150 
G01 X0.5752 Y0.3107 
G01 X0.5807 Y0.3052 
G01 X0.5850 Y0.2987 
G01 X0.5880 Y0.2915 
G01 X0.5895 Y0.2839 
G01 X0.5895 Y0.2161 
G01 X0.5880 Y0.2085 
G01 X0.5850 Y0.2013 
G01 X0.5807 Y0.1948 
G01 X0.5752 Y0.1893 
G01 X0.5687 Y0.1850 
G01 X0.5615 Y0.1820 
G01 X0.5539 Y0.1805 
G01 X0.5461 Y0.1805 
G01 X0.5385 Y0.1820 
G01 X0.5313 Y0.1850 
G01 X0.5248 Y0.1893 
G01 X0.5193 Y0.1948 
G00 Z0.1000 
G00 X0.6193 Y0.1948 
G01 Z-0.0070 F10.00 
G01 X0.6150 Y0.2013 F20.00 
G01 X0.6120 Y0.2085 
G01 X0.6105 Y0.2161 
G01 X0.6105 Y0.2839 
G01 X0.6120 Y0.2915 
G01 X0.6150 Y0.2987 
G01 X0.6193 Y0.3052 
G01 X0.6248 Y0.3107 
G01 X0.6313 Y0.3150 
G01 X0.6385 Y0.3180 
G01 X0.6461 Y0.3195 
G01 X0.6539 Y0.3195 
G01 X0.6615 Y0.3180 
G01 X0.6687 Y0.3150 
G01 X0.6752 Y0.3107 
G01 X0.6807 Y0.3052 
G01 X0.6850 Y0.2987 
G01 X0.6880 Y0.2915 
G01 X0.6895 Y0.2839 
G01 X0.6895 Y0.2161 
G01 X0.6880 Y0.2085 
G01 X0.6850 Y0.2013 
G01 X0.6807 Y0.1948 
G01 X0.6752 Y0.1893 
G01 X0.6687 Y0.1850 
G01 X0.6615 Y0.1820 
G01 X0.6539 Y0.1805 
G01 X0.6461 Y0.1805 
G01 X0.6385 Y0.1820 
G01 X0.6313 Y0.1850 
G01 X0.6248 Y0.1893 
G01 X0.6193 Y0.1948 
G00 Z0.1000 
G00 X0.7193 Y0.1948 
G01 Z-0.0070 F10.00 
G01 X0.7150 Y0.2013 F20.00 
G01 X0.7120 Y0.2085 
G01 X0.7105 Y0.2161 
G01 X0.7105 Y0.2839 
G01 X0.7120 Y0.2915 
G01 X0.7150 Y0.2987 
G01 X0.7193 Y0.3052 
G01 X0.7248 Y0.3107 
G01 X0.7313 Y0.3150 
G01 X0.7385 Y0.3180 
G01 X0.7461 Y0.3195 
G01 X0.7539 Y0.3195 
G01 X0.7615 Y0.3180 
G01 X0.7687 Y0.3150 
G01 X0.7752 Y0.3107 
G01 X0.7807 Y0.3052 
G01 X0.7850 Y0.2987 
G01 X0.7880 Y0.2915 
G01 X0.7895 Y0.2839 
G01 X0.7895 Y0.2161 
G01 X0.7880 Y0.2085 
G01 X0.7850 Y0.2013 
G01 X0.7807 Y0.1948 
G01 X0.7752 Y0.1893 
G01 X0.7687 Y0.1850 
G01 X0.7615 Y0.1820 
G01 X0.7539 Y0.1805 
G01 X0.7461 Y0.1805 
G01 X0.7385 Y0.1820 
G01 X0.7313 Y0.1850 
G01 X0.7248 Y0.1893 
G01 X0.7193 Y0.1948 
G00 Z0.1000 
G00 X0.8802 Y0.3087 
G01 Z-0.0070 F10.00 
G01 X0.8774 Y0.3129 F20.00 
G01 X0.8755 Y0.3176 
G01 X0.8745 Y0.3225 
G01 X0.8745 Y0.3644 
G01 X0.7644 Y0.4745 
G01 X0.5225 Y0.4745 
G01 X0.5176 Y0.4755 
G01 X0.5129 Y0.4774 
G01 X0.5087 Y0.4802 
G01 X0.4302 Y0.5587 
G01 X0.4274 Y0.5629 
G01 X0.4255 Y0.5676 
G01 X0.4245 Y0.5725 
G01 X0.4245 Y0.5775 
G01 X0.4255 Y0.5824 
G01 X0.4274 Y0.5871 
G01 X0.4302 Y0.5913 
G01 X0.4337 Y0.5948 
G01 X0.4379 Y0.5976 
G01 X0.4426 Y0.5995 
G01 X0.4475 Y0.6005 
G01 X0.4525 Y0.6005 
G01 X0.4574 Y0.5995 
G01 X0.4621 Y0.5976 
G01 X0.4663 Y0.5948 
G01 X0.5356 Y0.5255 
G01 X0.7775 Y0.5255 
G01 X0.7824 Y0.5245 
G01 X0.7871 Y0.5226 
G01 X0.7913 Y0.5198 
G01 X0.7948 Y0.5163 
G01 X0.9198 Y0.3913 
G01 X0.9226 Y0.3871 
G01 X0.9245 Y0.3824 
G01 X0.9255 Y0.3775 
G01 X0.9255 Y0.3225 
G01 X0.9245 Y0.3176 
G01 X0.9226 Y0.3129 
G01 X0.9198 Y0.3087 
G01 X0.9163 Y0.3052 
G01 X0.9121 Y0.3024 
G01 X0.9074 Y0.3005 
G01 X0.9025 Y0.2995 
G01 X0.8975 Y0.2995 
G01 X0.8926 Y0.3005 
G01 X0.8879 Y0.3024 
G01 X0.8837 Y0.3052 
G01 X0.8802 Y0.3087 
G00 Z0.1000 
G00 X1.0193 Y0.3052 
G01 Z-0.0070 F10.00 
G01 X1.0248 Y0.3107 F20.00 
G01 X1.0313 Y0.3150 
G01 X1.0385 Y0.3180 
G01 X1.0461 Y0.3195 
G01 X1.0539 Y0.3195 
G01 X1.0615 Y0.3180 
G01 X1.0687 Y0.3150 
G01 X1.0752 Y0.3107 
G01 X1.0807 Y0.3052 
G01 X1.0850 Y0.2987 
G01 X1.0880 Y0.2915 
G01 X1.0895 Y0.2839 
G01 X1.0895 Y0.2161 
G01 X1.0880 Y0.2085 
G01 X1.0850 Y0.2013 
G01 X1.0807 Y0.1948 
G01 X1.0752 Y0.1893 
G01 X1.0687 Y0.1850 
G01 X1.0615 Y0.1820 
G01 X1.0539 Y0.1805 
G01 X1.0461 Y0.1805 
G01 X1.0385 Y0.1820 
G01 X1.0313 Y0.1850 
G01 X1.0248 Y0.1893 
G01 X1.0193 Y0.1948 
G01 X1.0150 Y0.2013 
G01 X1.0120 Y0.2085 
G01 X1.0105 Y0.2161 
G01 X1.0105 Y0.2839 
G01 X1.0120 Y0.2915 
G01 X1.0150 Y0.2987 
G01 X1.0193 Y0.3052 
G00 Z0.1000 
G00 X1.1193 Y0.3052 
G01 Z-0.0070 F10.00 
G01 X1.1248 Y0.3107 F20.00 
G01 X1.1313 Y0.3150 
G01 X1.1385 Y0.3180 
G01 X1.1461 Y0.3195 
G01 X1.1539 Y0.3195 
G01 X1.1615 Y0.3180 
G01 X1.1687 Y0.3150 
G01 X1.1752 Y0.3107 
G01 X1.1807 Y0.3052 
G01 X1.1850 Y0.2987 
G01 X1.1880 Y0.2915 
G01 X1.1895 Y0.2839 
G01 X1.1895 Y0.2161 
G01 X1.1880 Y0.2085 
G01 X1.1850 Y0.2013 
G01 X1.1807 Y0.1948 
G01 X1.1752 Y0.1893 
G01 X1.1687 Y0.1850 
G01 X1.1615 Y0.1820 
G01 X1.1539 Y0.1805 
G01 X1.1461 Y0.1805 
G01 X1.1385 Y0.1820 
G01 X1.1313 Y0.1850 
G01 X1.1248 Y0.1893 
G01 X1.1193 Y0.1948 
G01 X1.1150 Y0.2013 
G01 X1.1120 Y0.2085 
G01 X1.1105 Y0.2161 
G01 X1.1105 Y0.2839 
G01 X1.1120 Y0.2915 
G01 X1.1150 Y0.2987 
G01 X1.1193 Y0.3052 
G00 Z0.1000 
G00 X1.2193 Y0.3052 
G01 Z-0.0070 F10.00 
G01 X1.2248 Y0.3107 F20.00 
G01 X1.2313 Y0.3150 
G01 X1.2385 Y0.3180 
G01 X1.2461 Y0.3195 
G01 X1.2539 Y0.3195 
G01 X1.2615 Y0.3180 
G01 X1.2687 Y0.3150 
G01 X1.2752 Y0.3107 
G01 X1.2807 Y0.3052 
G01 X1.2850 Y0.2987 
G01 X1.2880 Y0.2915 
G01 X1.2895 Y0.2839 
G01 X1.2895 Y0.2161 
G01 X1.2880 Y0.2085 
G01 X1.2850 Y0.2013 
G01 X1.2807 Y0.1948 
G01 X1.2752 Y0.1893 
G01 X1.2687 Y0.1850 
G01 X1.2615 Y0.1820 
G01 X1.2539 Y0.1805 
G01 X1.2461 Y0.1805 
G01 X1.2385 Y0.1820 
G01 X1.2313 Y0.1850 
G01 X1.2248 Y0.1893 
G01 X1.2193 Y0.1948 
G01 X1.2150 Y0.2013 
G01 X1.2120 Y0.2085 
G01 X1.2105 Y0.2161 
G01 X1.2105 Y0.2839 
G01 X1.2120 Y0.2915 
G01 X1.2150 Y0.2987 
G01 X1.2193 Y0.3052 
G00 Z0.1000 
G00 X1.3193 Y0.3052 
G01 Z-0.0070 F10.00 
G01 X1.3248 Y0.3107 F20.00 
G01 X1.3313 Y0.3150 
G01 X1.3385 Y0.3180 
G01 X1.3461 Y0.3195 
G01 X1.3539 Y0.3195 
G01 X1.3615 Y0.3180 
G01 X1.3687 Y0.3150 
G01 X1.3752 Y0.3107 
G01 X1.3807 Y0.3052 
G01 X1.3850 Y0.2987 
G01 X1.3880 Y0.2915 
G01 X1.3895 Y0.2839 
G01 X1.3895 Y0.2161 
G01 X1.3880 Y0.2085 
G01 X1.3850 Y0.2013 
G01 X1.3807 Y0.1948 
G01 X1.3752 Y0.1893 
G01 X1.3687 Y0.1850 
G01 X1.3615 Y0.1820 
G01 X1.3539 Y0.1805 
G01 X1.3461 Y0.1805 
G01 X1.3385 Y0.1820 
G01 X1.3313 Y0.1850 
G01 X1.3248 Y0.1893 
G01 X1.3193 Y0.1948 
G01 X1.3150 Y0.2013 
G01 X1.3120 Y0.2085 
G01 X1.3105 Y0.2161 
G01 X1.3105 Y0.2839 
G01 X1.3120 Y0.2915 
G01 X1.3150 Y0.2987 
G01 X1.3193 Y0.3052 
G00 Z0.1000 
G00 X1.2796 Y0.6793 
G01 Z-0.0070 F10.00 
G01 X1.2738 Y0.6751 F20.00 
G01 X1.2675 Y0.6718 
G01 X1.2607 Y0.6696 
G01 X1.2536 Y0.6685 
G01 X1.2464 Y0.6685 
G01 X1.2393 Y0.6696 
G01 X1.2325 Y0.6718 
G01 X1.2262 Y0.6751 
G01 X1.2204 Y0.6793 
G01 X1.2153 Y0.6844 
G01 X1.2111 Y0.6902 
G01 X1.2078 Y0.6965 
G01 X1.2056 Y0.7033 
G01 X1.2045 Y0.7104 
G01 X1.2045 Y0.7896 
G01 X1.2056 Y0.7967 
G01 X1.2078 Y0.8035 
G01 X1.2111 Y0.8098 
G01 X1.2153 Y0.8156 
G01 X1.2204 Y0.8207 
G01 X1.2262 Y0.8249 
G01 X1.2325 Y0.8282 
G01 X1.2393 Y0.8304 
G01 X1.2464 Y0.8315 
G01 X1.2536 Y0.8315 
G01 X1.2607 Y0.8304 
G01 X1.2675 Y0.8282 
G01 X1.2738 Y0.8249 
G01 X1.2796 Y0.8207 
G01 X1.2847 Y0.8156 
G01 X1.2889 Y0.8098 
G01 X1.2922 Y0.8035 
G01 X1.2944 Y0.7967 
G01 X1.2955 Y0.7896 
G01 X1.2955 Y0.7104 
G01 X1.2944 Y0.7033 
G01 X1.2922 Y0.6965 
G01 X1.2889 Y0.6902 
G01 X1.2847 Y0.6844 
G01 X1.2796 Y0.6793 
G00 Z0.1000 
G00 X1.1796 Y0.6793 
G01 Z-0.0070 F10.00 
G01 X1.1738 Y0.6751 F20.00 
G01 X1.1675 Y0.6718 
G01 X1.1607 Y0.6696 
G01 X1.1536 Y0.6685 
G01 X1.1464 Y0.6685 
G01 X1.1393 Y0.6696 
G01 X1.1325 Y0.6718 
G01 X1.1262 Y0.6751 
G01 X1.1204 Y0.6793 
G01 X1.1153 Y0.6844 
G01 X1.1111 Y0.6902 
G01 X1.1078 Y0.6965 
G01 X1.1056 Y0.7033 
G01 X1.1045 Y0.7104 
G01 X1.1045 Y0.7896 
G01 X1.1056 Y0.7967 
G01 X1.1078 Y0.8035 
G01 X1.1111 Y0.8098 
G01 X1.1153 Y0.8156 
G01 X1.1204 Y0.8207 
G01 X1.1262 Y0.8249 
G01 X1.1325 Y0.8282 
G01 X1.1393 Y0.8304 
G01 X1.1464 Y0.8315 
G01 X1.1536 Y0.8315 
G01 X1.1607 Y0.8304 
G01 X1.1675 Y0.8282 
G01 X1.1738 Y0.8249 
G01 X1.1796 Y0.8207 
G01 X1.1847 Y0.8156 
G01 X1.1889 Y0.8098 
G01 X1.1922 Y0.8035 
G01 X1.1944 Y0.7967 
G01 X1.1955 Y0.7896 
G01 X1.1955 Y0.7104 
G01 X1.1944 Y0.7033 
G01 X1.1922 Y0.6965 
G01 X1.1889 Y0.6902 
G01 X1.1847 Y0.6844 
G01 X1.1796 Y0.6793 
G00 Z0.1000 
G00 X1.0796 Y0.6793 
G01 Z-0.0070 F10.00 
G01 X1.0738 Y0.6751 F20.00 
G01 X1.0675 Y0.6718 
G01 X1.0607 Y0.6696 
G01 X1.0536 Y0.6685 
G01 X1.0464 Y0.6685 
G01 X1.0393 Y0.6696 
G01 X1.0325 Y0.6718 
G01 X1.0262 Y0.6751 
G01 X1.0204 Y0.6793 
G01 X1.0153 Y0.6844 
G01 X1.0111 Y0.6902 
G01 X1.0078 Y0.6965 
G01 X1.0056 Y0.7033 
G01 X1.0045 Y0.7104 
G01 X1.0045 Y0.7896 
G01 X1.0056 Y0.7967 
G01 X1.0078 Y0.8035 
G01 X1.0111 Y0.8098 
G01 X1.0153 Y0.8156 
G01 X1.0204 Y0.8207 
G01 X1.0262 Y0.8249 
G01 X1.0325 Y0.8282 
G01 X1.0393 Y0.8304 
G01 X1.0464 Y0.8315 
G01 X1.0536 Y0.8315 
G01 X1.0607 Y0.8304 
G01 X1.0675 Y0.8282 
G01 X1.0738 Y0.8249 
G01 X1.0796 Y0.8207 
G01 X1.0847 Y0.8156 
G01 X1.0889 Y0.8098 
G01 X1.0922 Y0.8035 
G01 X1.0944 Y0.7967 
G01 X1.0955 Y0.7896 
G01 X1.0955 Y0.7104 
G01 X1.0944 Y0.7033 
G01 X1.0922 Y0.6965 
G01 X1.0889 Y0.6902 
G01 X1.0847 Y0.6844 
G01 X1.0796 Y0.6793 
G00 Z0.1000 
G00 X0.9796 Y0.6793 
G01 Z-0.0070 F10.00 
G01 X0.9738 Y0.6751 F20.00 
G01 X0.9675 Y0.6718 
G01 X0.9607 Y0.6696 
G01 X0.9536 Y0.6685 
G01 X0.9464 Y0.6685 
G01 X0.9393 Y0.6696 
G01 X0.9325 Y0.6718 
G01 X0.9262 Y0.6751 
G01 X0.9204 Y0.6793 
G01 X0.9153 Y0.6844 
G01 X0.9111 Y0.6902 
G01 X0.9078 Y0.6965 
G01 X0.9056 Y0.7033 
G01 X0.9045 Y0.7104 
G01 X0.9045 Y0.7896 
G01 X0.9056 Y0.7967 
G01 X0.9078 Y0.8035 
G01 X0.9111 Y0.8098 
G01 X0.9153 Y0.8156 
G01 X0.9204 Y0.8207 
G01 X0.9262 Y0.8249 
G01 X0.9325 Y0.8282 
G01 X0.9393 Y0.8304 
G01 X0.9464 Y0.8315 
G01 X0.9536 Y0.8315 
G01 X0.9607 Y0.8304 
G01 X0.9675 Y0.8282 
G01 X0.9738 Y0.8249 
G01 X0.9796 Y0.8207 
G01 X0.9847 Y0.8156 
G01 X0.9889 Y0.8098 
G01 X0.9922 Y0.8035 
G01 X0.9944 Y0.7967 
G01 X0.9955 Y0.7896 
G01 X0.9955 Y0.7104 
G01 X0.9944 Y0.7033 
G01 X0.9922 Y0.6965 
G01 X0.9889 Y0.6902 
G01 X0.9847 Y0.6844 
G01 X0.9796 Y0.6793 
G00 Z0.1000 
G00 X0.8796 Y0.6793 
G01 Z-0.0070 F10.00 
G01 X0.8738 Y0.6751 F20.00 
G01 X0.8675 Y0.6718 
G01 X0.8607 Y0.6696 
G01 X0.8536 Y0.6685 
G01 X0.8464 Y0.6685 
G01 X0.8393 Y0.6696 
G01 X0.8325 Y0.6718 
G01 X0.8262 Y0.6751 
G01 X0.8204 Y0.6793 
G01 X0.8153 Y0.6844 
G01 X0.8111 Y0.6902 
G01 X0.8078 Y0.6965 
G01 X0.8056 Y0.7033 
G01 X0.8045 Y0.7104 
G01 X0.8045 Y0.7896 
G01 X0.8056 Y0.7967 
G01 X0.8078 Y0.8035 
G01 X0.8111 Y0.8098 
G01 X0.8153 Y0.8156 
G01 X0.8204 Y0.8207 
G01 X0.8262 Y0.8249 
G01 X0.8325 Y0.8282 
G01 X0.8393 Y0.8304 
G01 X0.8464 Y0.8315 
G01 X0.8536 Y0.8315 
G01 X0.8607 Y0.8304 
G01 X0.8675 Y0.8282 
G01 X0.8738 Y0.8249 
G01 X0.8796 Y0.8207 
G01 X0.8847 Y0.8156 
G01 X0.8889 Y0.8098 
G01 X0.8922 Y0.8035 
G01 X0.8944 Y0.7967 
G01 X0.8955 Y0.7896 
G01 X0.8955 Y0.7104 
G01 X0.8944 Y0.7033 
G01 X0.8922 Y0.6965 
G01 X0.8889 Y0.6902 
G01 X0.8847 Y0.6844 
G01 X0.8796 Y0.6793 
G00 Z0.1000 
G00 X0.7796 Y0.6793 
G01 Z-0.0070 F10.00 
G01 X0.7738 Y0.6751 F20.00 
G01 X0.7675 Y0.6718 
G01 X0.7607 Y0.6696 
G01 X0.7536 Y0.6685 
G01 X0.7464 Y0.6685 
G01 X0.7393 Y0.6696 
G01 X0.7325 Y0.6718 
G01 X0.7262 Y0.6751 
G01 X0.7204 Y0.6793 
G01 X0.7153 Y0.6844 
G01 X0.7111 Y0.6902 
G01 X0.7078 Y0.6965 
G01 X0.7056 Y0.7033 
G01 X0.7045 Y0.7104 
G01 X0.7045 Y0.7896 
G01 X0.7056 Y0.7967 
G01 X0.7078 Y0.8035 
G01 X0.7111 Y0.8098 
G01 X0.7153 Y0.8156 
G01 X0.7204 Y0.8207 
G01 X0.7262 Y0.8249 
G01 X0.7325 Y0.8282 
G01 X0.7393 Y0.8304 
G01 X0.7464 Y0.8315 
G01 X0.7536 Y0.8315 
G01 X0.7607 Y0.8304 
G01 X0.7675 Y0.8282 
G01 X0.7738 Y0.8249 
G01 X0.7796 Y0.8207 
G01 X0.7847 Y0.8156 
G01 X0.7889 Y0.8098 
G01 X0.7922 Y0.8035 
G01 X0.7944 Y0.7967 
G01 X0.7955 Y0.7896 
G01 X0.7955 Y0.7104 
G01 X0.7944 Y0.7033 
G01 X0.7922 Y0.6965 
G01 X0.7889 Y0.6902 
G01 X0.7847 Y0.6844 
G01 X0.7796 Y0.6793 
G00 Z0.1000 
G00 X0.6796 Y0.6793 
G01 Z-0.0070 F10.00 
G01 X0.6738 Y0.6751 F20.00 
G01 X0.6675 Y0.6718 
G01 X0.6607 Y0.6696 
G01 X0.6536 Y0.6685 
G01 X0.6464 Y0.6685 
G01 X0.6393 Y0.6696 
G01 X0.6325 Y0.6718 
G01 X0.6262 Y0.6751 
G01 X0.6204 Y0.6793 
G01 X0.6153 Y0.6844 
G01 X0.6111 Y0.6902 
G01 X0.6078 Y0.6965 
G01 X0.6056 Y0.7033 
G01 X0.6045 Y0.7104 
G01 X0.6045 Y0.7896 
G01 X0.6056 Y0.7967 
G01 X0.6078 Y0.8035 
G01 X0.6111 Y0.8098 
G01 X0.6153 Y0.8156 
G01 X0.6204 Y0.8207 
G01 X0.6262 Y0.8249 
G01 X0.6325 Y0.8282 
G01 X0.6393 Y0.8304 
G01 X0.6464 Y0.8315 
G01 X0.6536 Y0.8315 
G01 X0.6607 Y0.8304 
G01 X0.6675 Y0.8282 
G01 X0.6738 Y0.8249 
G01 X0.6796 Y0.8207 
G01 X0.6847 Y0.8156 
G01 X0.6889 Y0.8098 
G01 X0.6922 Y0.8035 
G01 X0.6944 Y0.7967 
G01 X0.6955 Y0.7896 
G01 X0.6955 Y0.7104 
G01 X0.6944 Y0.7033 
G01 X0.6922 Y0.6965 
G01 X0.6889 Y0.6902 
G01 X0.6847 Y0.6844 
G01 X0.6796 Y0.6793 
G00 Z0.1000 
G00 X0.5796 Y0.6793 
G01 Z-0.0070 F10.00 
G01 X0.5738 Y0.6751 F20.00 
G01 X0.5675 Y0.6718 
G01 X0.5607 Y0.6696 
G01 X0.5536 Y0.6685 
G01 X0.5464 Y0.6685 
G01 X0.5393 Y0.6696 
G01 X0.5325 Y0.6718 
G01 X0.5262 Y0.6751 
G01 X0.5204 Y0.6793 
G01 X0.5153 Y0.6844 
G01 X0.5111 Y0.6902 
G01 X0.5078 Y0.6965 
G01 X0.5056 Y0.7033 
G01 X0.5045 Y0.7104 
G01 X0.5045 Y0.7896 
G01 X0.5056 Y0.7967 
G01 X0.5078 Y0.8035 
G01 X0.5111 Y0.8098 
G01 X0.5153 Y0.8156 
G01 X0.5204 Y0.8207 
G01 X0.5262 Y0.8249 
G01 X0.5325 Y0.8282 
G01 X0.5393 Y0.8304 
G01 X0.5464 Y0.8315 
G01 X0.5536 Y0.8315 
G01 X0.5607 Y0.8304 
G01 X0.5675 Y0.8282 
G01 X0.5738 Y0.8249 
G01 X0.5796 Y0.8207 
G01 X0.5847 Y0.8156 
G01 X0.5889 Y0.8098 
G01 X0.5922 Y0.8035 
G01 X0.5944 Y0.7967 
G01 X0.5955 Y0.7896 
G01 X0.5955 Y0.7104 
G01 X0.5944 Y0.7033 
G01 X0.5922 Y0.6965 
G01 X0.5889 Y0.6902 
G01 X0.5847 Y0.6844 
G01 X0.5796 Y0.6793 
G00 Z0.1000 
G00 X0.5796 Y1.5793 
G01 Z-0.0070 F10.00 
G01 X0.5738 Y1.5751 F20.00 
G01 X0.5675 Y1.5718 
G01 X0.5607 Y1.5696 
G01 X0.5536 Y1.5685 
G01 X0.5464 Y1.5685 
G01 X0.5393 Y1.5696 
G01 X0.5325 Y1.5718 
G01 X0.5262 Y1.5751 
G01 X0.5204 Y1.5793 
G01 X0.5153 Y1.5844 
G01 X0.5111 Y1.5902 
G01 X0.5078 Y1.5965 
G01 X0.5056 Y1.6033 
G01 X0.5045 Y1.6104 
G01 X0.5045 Y1.6896 
G01 X0.5056 Y1.6967 
G01 X0.5078 Y1.7035 
G01 X0.5111 Y1.7098 
G01 X0.5153 Y1.7156 
G01 X0.5204 Y1.7207 
G01 X0.5262 Y1.7249 
G01 X0.5325 Y1.7282 
G01 X0.5393 Y1.7304 
G01 X0.5464 Y1.7315 
G01 X0.5536 Y1.7315 
G01 X0.5607 Y1.7304 
G01 X0.5675 Y1.7282 
G01 X0.5738 Y1.7249 
G01 X0.5796 Y1.7207 
G01 X0.5847 Y1.7156 
G01 X0.5889 Y1.7098 
G01 X0.5922 Y1.7035 
G01 X0.5944 Y1.6967 
G01 X0.5955 Y1.6896 
G01 X0.5955 Y1.6104 
G01 X0.5944 Y1.6033 
G01 X0.5922 Y1.5965 
G01 X0.5889 Y1.5902 
G01 X0.5847 Y1.5844 
G01 X0.5796 Y1.5793 
G00 Z0.1000 
G00 X0.6153 Y1.5844 
G01 Z-0.0070 F10.00 
G01 X0.6111 Y1.5902 F20.00 
G01 X0.6078 Y1.5965 
G01 X0.6056 Y1.6033 
G01 X0.6045 Y1.6104 
G01 X0.6045 Y1.6896 
G01 X0.6056 Y1.6967 
G01 X0.6078 Y1.7035 
G01 X0.6111 Y1.7098 
G01 X0.6153 Y1.7156 
G01 X0.6204 Y1.7207 
G01 X0.6262 Y1.7249 
G01 X0.6325 Y1.7282 
G01 X0.6393 Y1.7304 
G01 X0.6464 Y1.7315 
G01 X0.6536 Y1.7315 
G01 X0.6607 Y1.7304 
G01 X0.6675 Y1.7282 
G01 X0.6738 Y1.7249 
G01 X0.6796 Y1.7207 
G01 X0.6847 Y1.7156 
G01 X0.6889 Y1.7098 
G01 X0.6922 Y1.7035 
G01 X0.6944 Y1.6967 
G01 X0.6955 Y1.6896 
G01 X0.6955 Y1.6104 
G01 X0.6944 Y1.6033 
G01 X0.6922 Y1.5965 
G01 X0.6889 Y1.5902 
G01 X0.6847 Y1.5844 
G01 X0.6796 Y1.5793 
G01 X0.6738 Y1.5751 
G01 X0.6675 Y1.5718 
G01 X0.6607 Y1.5696 
G01 X0.6536 Y1.5685 
G01 X0.6464 Y1.5685 
G01 X0.6393 Y1.5696 
G01 X0.6325 Y1.5718 
G01 X0.6262 Y1.5751 
G01 X0.6204 Y1.5793 
G01 X0.6153 Y1.5844 
G00 Z0.1000 
G00 X0.7153 Y1.5844 
G01 Z-0.0070 F10.00 
G01 X0.7111 Y1.5902 F20.00 
G01 X0.7078 Y1.5965 
G01 X0.7056 Y1.6033 
G01 X0.7045 Y1.6104 
G01 X0.7045 Y1.6896 
G01 X0.7056 Y1.6967 
G01 X0.7078 Y1.7035 
G01 X0.7111 Y1.7098 
G01 X0.7153 Y1.7156 
G01 X0.7204 Y1.7207 
G01 X0.7262 Y1.7249 
G01 X0.7325 Y1.7282 
G01 X0.7393 Y1.7304 
G01 X0.7464 Y1.7315 
G01 X0.7536 Y1.7315 
G01 X0.7607 Y1.7304 
G01 X0.7675 Y1.7282 
G01 X0.7738 Y1.7249 
G01 X0.7796 Y1.7207 
G01 X0.7847 Y1.7156 
G01 X0.7889 Y1.7098 
G01 X0.7922 Y1.7035 
G01 X0.7944 Y1.6967 
G01 X0.7955 Y1.6896 
G01 X0.7955 Y1.6104 
G01 X0.7944 Y1.6033 
G01 X0.7922 Y1.5965 
G01 X0.7889 Y1.5902 
G01 X0.7847 Y1.5844 
G01 X0.7796 Y1.5793 
G01 X0.7738 Y1.5751 
G01 X0.7675 Y1.5718 
G01 X0.7607 Y1.5696 
G01 X0.7536 Y1.5685 
G01 X0.7464 Y1.5685 
G01 X0.7393 Y1.5696 
G01 X0.7325 Y1.5718 
G01 X0.7262 Y1.5751 
G01 X0.7204 Y1.5793 
G01 X0.7153 Y1.5844 
G00 Z0.1000 
G00 X0.8153 Y1.5844 
G01 Z-0.0070 F10.00 
G01 X0.8111 Y1.5902 F20.00 
G01 X0.8078 Y1.5965 
G01 X0.8056 Y1.6033 
G01 X0.8045 Y1.6104 
G01 X0.8045 Y1.6896 
G01 X0.8056 Y1.6967 
G01 X0.8078 Y1.7035 
G01 X0.8111 Y1.7098 
G01 X0.8153 Y1.7156 
G01 X0.8204 Y1.7207 
G01 X0.8262 Y1.7249 
G01 X0.8325 Y1.7282 
G01 X0.8393 Y1.7304 
G01 X0.8464 Y1.7315 
G01 X0.8536 Y1.7315 
G01 X0.8607 Y1.7304 
G01 X0.8675 Y1.7282 
G01 X0.8738 Y1.7249 
G01 X0.8796 Y1.7207 
G01 X0.8847 Y1.7156 
G01 X0.8889 Y1.7098 
G01 X0.8922 Y1.7035 
G01 X0.8944 Y1.6967 
G01 X0.8955 Y1.6896 
G01 X0.8955 Y1.6104 
G01 X0.8944 Y1.6033 
G01 X0.8922 Y1.5965 
G01 X0.8889 Y1.5902 
G01 X0.8847 Y1.5844 
G01 X0.8796 Y1.5793 
G01 X0.8738 Y1.5751 
G01 X0.8675 Y1.5718 
G01 X0.8607 Y1.5696 
G01 X0.8536 Y1.5685 
G01 X0.8464 Y1.5685 
G01 X0.8393 Y1.5696 
G01 X0.8325 Y1.5718 
G01 X0.8262 Y1.5751 
G01 X0.8204 Y1.5793 
G01 X0.8153 Y1.5844 
G00 Z0.1000 
G00 X0.9153 Y1.5844 
G01 Z-0.0070 F10.00 
G01 X0.9111 Y1.5902 F20.00 
G01 X0.9078 Y1.5965 
G01 X0.9056 Y1.6033 
G01 X0.9045 Y1.6104 
G01 X0.9045 Y1.6896 
G01 X0.9056 Y1.6967 
G01 X0.9078 Y1.7035 
G01 X0.9111 Y1.7098 
G01 X0.9153 Y1.7156 
G01 X0.9204 Y1.7207 
G01 X0.9262 Y1.7249 
G01 X0.9325 Y1.7282 
G01 X0.9393 Y1.7304 
G01 X0.9464 Y1.7315 
G01 X0.9536 Y1.7315 
G01 X0.9607 Y1.7304 
G01 X0.9675 Y1.7282 
G01 X0.9738 Y1.7249 
G01 X0.9796 Y1.7207 
G01 X0.9847 Y1.7156 
G01 X0.9889 Y1.7098 
G01 X0.9922 Y1.7035 
G01 X0.9944 Y1.6967 
G01 X0.9955 Y1.6896 
G01 X0.9955 Y1.6104 
G01 X0.9944 Y1.6033 
G01 X0.9922 Y1.5965 
G01 X0.9889 Y1.5902 
G01 X0.9847 Y1.5844 
G01 X0.9796 Y1.5793 
G01 X0.9738 Y1.5751 
G01 X0.9675 Y1.5718 
G01 X0.9607 Y1.5696 
G01 X0.9536 Y1.5685 
G01 X0.9464 Y1.5685 
G01 X0.9393 Y1.5696 
G01 X0.9325 Y1.5718 
G01 X0.9262 Y1.5751 
G01 X0.9204 Y1.5793 
G01 X0.9153 Y1.5844 
G00 Z0.1000 
G00 X1.0153 Y1.5844 
G01 Z-0.0070 F10.00 
G01 X1.0111 Y1.5902 F20.00 
G01 X1.0078 Y1.5965 
G01 X1.0056 Y1.6033 
G01 X1.0045 Y1.6104 
G01 X1.0045 Y1.6896 
G01 X1.0056 Y1.6967 
G01 X1.0078 Y1.7035 
G01 X1.0111 Y1.7098 
G01 X1.0153 Y1.7156 
G01 X1.0204 Y1.7207 
G01 X1.0262 Y1.7249 
G01 X1.0325 Y1.7282 
G01 X1.0393 Y1.7304 
G01 X1.0464 Y1.7315 
G01 X1.0536 Y1.7315 
G01 X1.0607 Y1.7304 
G01 X1.0675 Y1.7282 
G01 X1.0738 Y1.7249 
G01 X1.0796 Y1.7207 
G01 X1.0847 Y1.7156 
G01 X1.0889 Y1.7098 
G01 X1.0922 Y1.7035 
G01 X1.0944 Y1.6967 
G01 X1.0955 Y1.6896 
G01 X1.0955 Y1.6104 
G01 X1.0944 Y1.6033 
G01 X1.0922 Y1.5965 
G01 X1.0889 Y1.5902 
G01 X1.0847 Y1.5844 
G01 X1.0796 Y1.5793 
G01 X1.0738 Y1.5751 
G01 X1.0675 Y1.5718 
G01 X1.0607 Y1.5696 
G01 X1.0536 Y1.5685 
G01 X1.0464 Y1.5685 
G01 X1.0393 Y1.5696 
G01 X1.0325 Y1.5718 
G01 X1.0262 Y1.5751 
G01 X1.0204 Y1.5793 
G01 X1.0153 Y1.5844 
G00 Z0.1000 
G00 X1.1153 Y1.5844 
G01 Z-0.0070 F10.00 
G01 X1.1111 Y1.5902 F20.00 
G01 X1.1078 Y1.5965 
G01 X1.1056 Y1.6033 
G01 X1.1045 Y1.6104 
G01 X1.1045 Y1.6896 
G01 X1.1056 Y1.6967 
G01 X1.1078 Y1.7035 
G01 X1.1111 Y1.7098 
G01 X1.1153 Y1.7156 
G01 X1.1204 Y1.7207 
G01 X1.1262 Y1.7249 
G01 X1.1325 Y1.7282 
G01 X1.1393 Y1.7304 
G01 X1.1464 Y1.7315 
G01 X1.1536 Y1.7315 
G01 X1.1607 Y1.7304 
G01 X1.1675 Y1.7282 
G01 X1.1738 Y1.7249 
G01 X1.1796 Y1.7207 
G01 X1.1847 Y1.7156 
G01 X1.1889 Y1.7098 
G01 X1.1922 Y1.7035 
G01 X1.1944 Y1.6967 
G01 X1.1955 Y1.6896 
G01 X1.1955 Y1.6104 
G01 X1.1944 Y1.6033 
G01 X1.1922 Y1.5965 
G01 X1.1889 Y1.5902 
G01 X1.1847 Y1.5844 
G01 X1.1796 Y1.5793 
G01 X1.1738 Y1.5751 
G01 X1.1675 Y1.5718 
G01 X1.1607 Y1.5696 
G01 X1.1536 Y1.5685 
G01 X1.1464 Y1.5685 
G01 X1.1393 Y1.5696 
G01 X1.1325 Y1.5718 
G01 X1.1262 Y1.5751 
G01 X1.1204 Y1.5793 
G01 X1.1153 Y1.5844 
G00 Z0.1000 
G00 X1.2153 Y1.5844 
G01 Z-0.0070 F10.00 
G01 X1.2111 Y1.5902 F20.00 
G01 X1.2078 Y1.5965 
G01 X1.2056 Y1.6033 
G01 X1.2045 Y1.6104 
G01 X1.2045 Y1.6896 
G01 X1.2056 Y1.6967 
G01 X1.2078 Y1.7035 
G01 X1.2111 Y1.7098 
G01 X1.2153 Y1.7156 
G01 X1.2204 Y1.7207 
G01 X1.2262 Y1.7249 
G01 X1.2325 Y1.7282 
G01 X1.2393 Y1.7304 
G01 X1.2464 Y1.7315 
G01 X1.2536 Y1.7315 
G01 X1.2607 Y1.7304 
G01 X1.2675 Y1.7282 
G01 X1.2738 Y1.7249 
G01 X1.2796 Y1.7207 
G01 X1.2847 Y1.7156 
G01 X1.2889 Y1.7098 
G01 X1.2922 Y1.7035 
G01 X1.2944 Y1.6967 
G01 X1.2955 Y1.6896 
G01 X1.2955 Y1.6104 
G01 X1.2944 Y1.6033 
G01 X1.2922 Y1.5965 
G01 X1.2889 Y1.5902 
G01 X1.2847 Y1.5844 
G01 X1.2796 Y1.5793 
G01 X1.2738 Y1.5751 
G01 X1.2675 Y1.5718 
G01 X1.2607 Y1.5696 
G01 X1.2536 Y1.5685 
G01 X1.2464 Y1.5685 
G01 X1.2393 Y1.5696 
G01 X1.2325 Y1.5718 
G01 X1.2262 Y1.5751 
G01 X1.2204 Y1.5793 
G01 X1.2153 Y1.5844 
G00 Z0.1000 
G00 X1.1475 Y1.9995 
G01 Z-0.0070 F10.00 
G01 X1.1426 Y2.0005 F20.00 
G01 X1.1379 Y2.0024 
G01 X1.1337 Y2.0052 
G01 X1.1302 Y2.0087 
G01 X1.1274 Y2.0129 
G01 X1.1255 Y2.0176 
G01 X1.1245 Y2.0225 
G01 X1.1245 Y2.0275 
G01 X1.1255 Y2.0324 
G01 X1.1274 Y2.0371 
G01 X1.1302 Y2.0413 
G01 X1.1337 Y2.0448 
G01 X1.1379 Y2.0476 
G01 X1.1426 Y2.0495 
G01 X1.1475 Y2.0505 
G01 X1.5525 Y2.0505 
G01 X1.5574 Y2.0495 
G01 X1.5621 Y2.0476 
G01 X1.5663 Y2.0448 
G01 X1.5698 Y2.0413 
G01 X1.5726 Y2.0371 
G01 X1.5745 Y2.0324 
G01 X1.5755 Y2.0275 
G01 X1.5755 Y2.0225 
G01 X1.5745 Y2.0176 
G01 X1.5726 Y2.0129 
G01 X1.5698 Y2.0087 
G01 X1.5663 Y2.0052 
G01 X1.5621 Y2.0024 
G01 X1.5574 Y2.0005 
G01 X1.5525 Y1.9995 
G01 X1.1475 Y1.9995 
G00 Z0.1000 
G00 X1.1252 Y2.1393 
G01 Z-0.0070 F10.00 
G01 X1.1187 Y2.1350 F20.00 
G01 X1.1115 Y2.1320 
G01 X1.1039 Y2.1305 
G01 X1.0961 Y2.1305 
G01 X1.0885 Y2.1320 
G01 X1.0813 Y2.1350 
G01 X1.0748 Y2.1393 
G01 X1.0693 Y2.1448 
G01 X1.0650 Y2.1513 
G01 X1.0620 Y2.1585 
G01 X1.0605 Y2.1661 
G01 X1.0605 Y2.2339 
G01 X1.0620 Y2.2415 
G01 X1.0650 Y2.2487 
G01 X1.0693 Y2.2552 
G01 X1.0748 Y2.2607 
G01 X1.0813 Y2.2650 
G01 X1.0885 Y2.2680 
G01 X1.0961 Y2.2695 
G01 X1.1039 Y2.2695 
G01 X1.1115 Y2.2680 
G01 X1.1187 Y2.2650 
G01 X1.1252 Y2.2607 
G01 X1.1307 Y2.2552 
G01 X1.1350 Y2.2487 
G01 X1.1380 Y2.2415 
G01 X1.1395 Y2.2339 
G01 X1.1395 Y2.1661 
G01 X1.1380 Y2.1585 
G01 X1.1350 Y2.1513 
G01 X1.1307 Y2.1448 
G01 X1.1252 Y2.1393 
G00 Z0.1000 
G00 X1.1693 Y2.1448 
G01 Z-0.0070 F10.00 
G01 X1.1650 Y2.1513 F20.00 
G01 X1.1620 Y2.1585 
G01 X1.1605 Y2.1661 
G01 X1.1605 Y2.2339 
G01 X1.1620 Y2.2415 
G01 X1.1650 Y2.2487 
G01 X1.1693 Y2.2552 
G01 X1.1748 Y2.2607 
G01 X1.1813 Y2.2650 
G01 X1.1885 Y2.2680 
G01 X1.1961 Y2.2695 
G01 X1.2039 Y2.2695 
G01 X1.2115 Y2.2680 
G01 X1.2187 Y2.2650 
G01 X1.2252 Y2.2607 
G01 X1.2307 Y2.2552 
G01 X1.2350 Y2.2487 
G01 X1.2380 Y2.2415 
G01 X1.2395 Y2.2339 
G01 X1.2395 Y2.1661 
G01 X1.2380 Y2.1585 
G01 X1.2350 Y2.1513 
G01 X1.2307 Y2.1448 
G01 X1.2252 Y2.1393 
G01 X1.2187 Y2.1350 
G01 X1.2115 Y2.1320 
G01 X1.2039 Y2.1305 
G01 X1.1961 Y2.1305 
G01 X1.1885 Y2.1320 
G01 X1.1813 Y2.1350 
G01 X1.1748 Y2.1393 
G01 X1.1693 Y2.1448 
G00 Z0.1000 
G00 X1.2693 Y2.1448 
G01 Z-0.0070 F10.00 
G01 X1.2650 Y2.1513 F20.00 
G01 X1.2620 Y2.1585 
G01 X1.2605 Y2.1661 
G01 X1.2605 Y2.2339 
G01 X1.2620 Y2.2415 
G01 X1.2650 Y2.2487 
G01 X1.2693 Y2.2552 
G01 X1.2748 Y2.2607 
G01 X1.2813 Y2.2650 
G01 X1.2885 Y2.2680 
G01 X1.2961 Y2.2695 
G01 X1.3039 Y2.2695 
G01 X1.3115 Y2.2680 
G01 X1.3187 Y2.2650 
G01 X1.3252 Y2.2607 
G01 X1.3307 Y2.2552 
G01 X1.3350 Y2.2487 
G01 X1.3380 Y2.2415 
G01 X1.3395 Y2.2339 
G01 X1.3395 Y2.1661 
G01 X1.3380 Y2.1585 
G01 X1.3350 Y2.1513 
G01 X1.3307 Y2.1448 
G01 X1.3252 Y2.1393 
G01 X1.3187 Y2.1350 
G01 X1.3115 Y2.1320 
G01 X1.3039 Y2.1305 
G01 X1.2961 Y2.1305 
G01 X1.2885 Y2.1320 
G01 X1.2813 Y2.1350 
G01 X1.2748 Y2.1393 
G01 X1.2693 Y2.1448 
G00 Z0.1000 
G00 X1.3693 Y2.1448 
G01 Z-0.0070 F10.00 
G01 X1.3650 Y2.1513 F20.00 
G01 X1.3620 Y2.1585 
G01 X1.3605 Y2.1661 
G01 X1.3605 Y2.2339 
G01 X1.3620 Y2.2415 
G01 X1.3650 Y2.2487 
G01 X1.3693 Y2.2552 
G01 X1.3748 Y2.2607 
G01 X1.3813 Y2.2650 
G01 X1.3885 Y2.2680 
G01 X1.3961 Y2.2695 
G01 X1.4039 Y2.2695 
G01 X1.4115 Y2.2680 
G01 X1.4187 Y2.2650 
G01 X1.4252 Y2.2607 
G01 X1.4307 Y2.2552 
G01 X1.4350 Y2.2487 
G01 X1.4380 Y2.2415 
G01 X1.4395 Y2.2339 
G01 X1.4395 Y2.1661 
G01 X1.4380 Y2.1585 
G01 X1.4350 Y2.1513 
G01 X1.4307 Y2.1448 
G01 X1.4252 Y2.1393 
G01 X1.4187 Y2.1350 
G01 X1.4115 Y2.1320 
G01 X1.4039 Y2.1305 
G01 X1.3961 Y2.1305 
G01 X1.3885 Y2.1320 
G01 X1.3813 Y2.1350 
G01 X1.3748 Y2.1393 
G01 X1.3693 Y2.1448 
G00 Z0.1000 
G00 X0.8948 Y2.0413 
G01 Z-0.0070 F10.00 
G01 X0.8976 Y2.0371 F20.00 
G01 X0.8995 Y2.0324 
G01 X0.9005 Y2.0275 
G01 X0.9005 Y2.0225 
G01 X0.8995 Y2.0176 
G01 X0.8976 Y2.0129 
G01 X0.8948 Y2.0087 
G01 X0.8913 Y2.0052 
G01 X0.8871 Y2.0024 
G01 X0.8824 Y2.0005 
G01 X0.8775 Y1.9995 
G01 X0.4475 Y1.9995 
G01 X0.4426 Y2.0005 
G01 X0.4379 Y2.0024 
G01 X0.4337 Y2.0052 
G01 X0.4302 Y2.0087 
G01 X0.4274 Y2.0129 
G01 X0.4255 Y2.0176 
G01 X0.4245 Y2.0225 
G01 X0.4245 Y2.0275 
G01 X0.4255 Y2.0324 
G01 X0.4274 Y2.0371 
G01 X0.4302 Y2.0413 
G01 X0.4337 Y2.0448 
G01 X0.4379 Y2.0476 
G01 X0.4426 Y2.0495 
G01 X0.4475 Y2.0505 
G01 X0.8775 Y2.0505 
G01 X0.8824 Y2.0495 
G01 X0.8871 Y2.0476 
G01 X0.8913 Y2.0448 
G01 X0.8948 Y2.0413 
G00 Z0.1000 
G00 X0.7752 Y2.1393 
G01 Z-0.0070 F10.00 
G01 X0.7687 Y2.1350 F20.00 
G01 X0.7615 Y2.1320 
G01 X0.7539 Y2.1305 
G01 X0.7461 Y2.1305 
G01 X0.7385 Y2.1320 
G01 X0.7313 Y2.1350 
G01 X0.7248 Y2.1393 
G01 X0.7193 Y2.1448 
G01 X0.7150 Y2.1513 
G01 X0.7120 Y2.1585 
G01 X0.7105 Y2.1661 
G01 X0.7105 Y2.2339 
G01 X0.7120 Y2.2415 
G01 X0.7150 Y2.2487 
G01 X0.7193 Y2.2552 
G01 X0.7248 Y2.2607 
G01 X0.7313 Y2.2650 
G01 X0.7385 Y2.2680 
G01 X0.7461 Y2.2695 
G01 X0.7539 Y2.2695 
G01 X0.7615 Y2.2680 
G01 X0.7687 Y2.2650 
G01 X0.7752 Y2.2607 
G01 X0.7807 Y2.2552 
G01 X0.7850 Y2.2487 
G01 X0.7880 Y2.2415 
G01 X0.7895 Y2.2339 
G01 X0.7895 Y2.1661 
G01 X0.7880 Y2.1585 
G01 X0.7850 Y2.1513 
G01 X0.7807 Y2.1448 
G01 X0.7752 Y2.1393 
G00 Z0.1000 
G00 X0.6752 Y2.1393 
G01 Z-0.0070 F10.00 
G01 X0.6687 Y2.1350 F20.00 
G01 X0.6615 Y2.1320 
G01 X0.6539 Y2.1305 
G01 X0.6461 Y2.1305 
G01 X0.6385 Y2.1320 
G01 X0.6313 Y2.1350 
G01 X0.6248 Y2.1393 
G01 X0.6193 Y2.1448 
G01 X0.6150 Y2.1513 
G01 X0.6120 Y2.1585 
G01 X0.6105 Y2.1661 
G01 X0.6105 Y2.2339 
G01 X0.6120 Y2.2415 
G01 X0.6150 Y2.2487 
G01 X0.6193 Y2.2552 
G01 X0.6248 Y2.2607 
G01 X0.6313 Y2.2650 
G01 X0.6385 Y2.2680 
G01 X0.6461 Y2.2695 
G01 X0.6539 Y2.2695 
G01 X0.6615 Y2.2680 
G01 X0.6687 Y2.2650 
G01 X0.6752 Y2.2607 
G01 X0.6807 Y2.2552 
G01 X0.6850 Y2.2487 
G01 X0.6880 Y2.2415 
G01 X0.6895 Y2.2339 
G01 X0.6895 Y2.1661 
G01 X0.6880 Y2.1585 
G01 X0.6850 Y2.1513 
G01 X0.6807 Y2.1448 
G01 X0.6752 Y2.1393 
G00 Z0.1000 
G00 X0.5752 Y2.1393 
G01 Z-0.0070 F10.00 
G01 X0.5687 Y2.1350 F20.00 
G01 X0.5615 Y2.1320 
G01 X0.5539 Y2.1305 
G01 X0.5461 Y2.1305 
G01 X0.5385 Y2.1320 
G01 X0.5313 Y2.1350 
G01 X0.5248 Y2.1393 
G01 X0.5193 Y2.1448 
G01 X0.5150 Y2.1513 
G01 X0.5120 Y2.1585 
G01 X0.5105 Y2.1661 
G01 X0.5105 Y2.2339 
G01 X0.5120 Y2.2415 
G01 X0.5150 Y2.2487 
G01 X0.5193 Y2.2552 
G01 X0.5248 Y2.2607 
G01 X0.5313 Y2.2650 
G01 X0.5385 Y2.2680 
G01 X0.5461 Y2.2695 
G01 X0.5539 Y2.2695 
G01 X0.5615 Y2.2680 
G01 X0.5687 Y2.2650 
G01 X0.5752 Y2.2607 
G01 X0.5807 Y2.2552 
G01 X0.5850 Y2.2487 
G01 X0.5880 Y2.2415 
G01 X0.5895 Y2.2339 
G01 X0.5895 Y2.1661 
G01 X0.5880 Y2.1585 
G01 X0.5850 Y2.1513 
G01 X0.5807 Y2.1448 
G01 X0.5752 Y2.1393 
G00 Z0.1000 
G00 X0.4752 Y2.1393 
G01 Z-0.0070 F10.00 
G01 X0.4687 Y2.1350 F20.00 
G01 X0.4615 Y2.1320 
G01 X0.4539 Y2.1305 
G01 X0.4461 Y2.1305 
G01 X0.4385 Y2.1320 
G01 X0.4313 Y2.1350 
G01 X0.4248 Y2.1393 
G01 X0.4193 Y2.1448 
G01 X0.4150 Y2.1513 
G01 X0.4120 Y2.1585 
G01 X0.4105 Y2.1661 
G01 X0.4105 Y2.2339 
G01 X0.4120 Y2.2415 
G01 X0.4150 Y2.2487 
G01 X0.4193 Y2.2552 
G01 X0.4248 Y2.2607 
G01 X0.4313 Y2.2650 
G01 X0.4385 Y2.2680 
G01 X0.4461 Y2.2695 
G01 X0.4539 Y2.2695 
G01 X0.4615 Y2.2680 
G01 X0.4687 Y2.2650 
G01 X0.4752 Y2.2607 
G01 X0.4807 Y2.2552 
G01 X0.4850 Y2.2487 
G01 X0.4880 Y2.2415 
G01 X0.4895 Y2.2339 
G01 X0.4895 Y2.1661 
G01 X0.4880 Y2.1585 
G01 X0.4850 Y2.1513 
G01 X0.4807 Y2.1448 
G01 X0.4752 Y2.1393 
G00 Z0.1000 
G00 X0.4161 Y0.1910 
G01 Z-0.0070 F10.00 
G01 X0.4119 Y0.1967 F20.00 
G01 X0.4088 Y0.2029 
G01 X0.4066 Y0.2096 
G01 X0.4055 Y0.2165 
G01 X0.4055 Y0.2835 
G01 X0.4066 Y0.2904 
G01 X0.4088 Y0.2971 
G01 X0.4119 Y0.3033 
G01 X0.4161 Y0.3090 
G01 X0.4210 Y0.3139 
G01 X0.4267 Y0.3181 
G01 X0.4329 Y0.3212 
G01 X0.4396 Y0.3234 
G01 X0.4465 Y0.3245 
G01 X0.4535 Y0.3245 
G01 X0.4604 Y0.3234 
G01 X0.4671 Y0.3212 
G01 X0.4733 Y0.3181 
G01 X0.4790 Y0.3139 
G01 X0.4839 Y0.3090 
G01 X0.4881 Y0.3033 
G01 X0.4912 Y0.2971 
G01 X0.4934 Y0.2904 
G01 X0.4945 Y0.2835 
G01 X0.4945 Y0.2165 
G01 X0.4934 Y0.2096 
G01 X0.4912 Y0.2029 
G01 X0.4881 Y0.1967 
G01 X0.4839 Y0.1910 
G01 X0.4790 Y0.1861 
G01 X0.4733 Y0.1819 
G01 X0.4671 Y0.1788 
G01 X0.4604 Y0.1766 
G01 X0.4535 Y0.1755 
G01 X0.4465 Y0.1755 
G01 X0.4396 Y0.1766 
G01 X0.4329 Y0.1788 
G01 X0.4267 Y0.1819 
G01 X0.4210 Y0.1861 
G01 X0.4161 Y0.1910 
G00 Z0.1000 
G00 X0.5161 Y0.1910 
G01 Z-0.0070 F10.00 
G01 X0.5119 Y0.1967 F20.00 
G01 X0.5088 Y0.2029 
G01 X0.5066 Y0.2096 
G01 X0.5055 Y0.2165 
G01 X0.5055 Y0.2835 
G01 X0.5066 Y0.2904 
G01 X0.5088 Y0.2971 
G01 X0.5119 Y0.3033 
G01 X0.5161 Y0.3090 
G01 X0.5210 Y0.3139 
G01 X0.5267 Y0.3181 
G01 X0.5329 Y0.3212 
G01 X0.5396 Y0.3234 
G01 X0.5465 Y0.3245 
G01 X0.5535 Y0.3245 
G01 X0.5604 Y0.3234 
G01 X0.5671 Y0.3212 
G01 X0.5733 Y0.3181 
G01 X0.5790 Y0.3139 
G01 X0.5839 Y0.3090 
G01 X0.5881 Y0.3033 
G01 X0.5912 Y0.2971 
G01 X0.5934 Y0.2904 
G01 X0.5945 Y0.2835 
G01 X0.5945 Y0.2165 
G01 X0.5934 Y0.2096 
G01 X0.5912 Y0.2029 
G01 X0.5881 Y0.1967 
G01 X0.5839 Y0.1910 
G01 X0.5790 Y0.1861 
G01 X0.5733 Y0.1819 
G01 X0.5671 Y0.1788 
G01 X0.5604 Y0.1766 
G01 X0.5535 Y0.1755 
G01 X0.5465 Y0.1755 
G01 X0.5396 Y0.1766 
G01 X0.5329 Y0.1788 
G01 X0.5267 Y0.1819 
G01 X0.5210 Y0.1861 
G01 X0.5161 Y0.1910 
G00 Z0.1000 
G00 X0.6161 Y0.1910 
G01 Z-0.0070 F10.00 
G01 X0.6119 Y0.1967 F20.00 
G01 X0.6088 Y0.2029 
G01 X0.6066 Y0.2096 
G01 X0.6055 Y0.2165 
G01 X0.6055 Y0.2835 
G01 X0.6066 Y0.2904 
G01 X0.6088 Y0.2971 
G01 X0.6119 Y0.3033 
G01 X0.6161 Y0.3090 
G01 X0.6210 Y0.3139 
G01 X0.6267 Y0.3181 
G01 X0.6329 Y0.3212 
G01 X0.6396 Y0.3234 
G01 X0.6465 Y0.3245 
G01 X0.6535 Y0.3245 
G01 X0.6604 Y0.3234 
G01 X0.6671 Y0.3212 
G01 X0.6733 Y0.3181 
G01 X0.6790 Y0.3139 
G01 X0.6839 Y0.3090 
G01 X0.6881 Y0.3033 
G01 X0.6912 Y0.2971 
G01 X0.6934 Y0.2904 
G01 X0.6945 Y0.2835 
G01 X0.6945 Y0.2165 
G01 X0.6934 Y0.2096 
G01 X0.6912 Y0.2029 
G01 X0.6881 Y0.1967 
G01 X0.6839 Y0.1910 
G01 X0.6790 Y0.1861 
G01 X0.6733 Y0.1819 
G01 X0.6671 Y0.1788 
G01 X0.6604 Y0.1766 
G01 X0.6535 Y0.1755 
G01 X0.6465 Y0.1755 
G01 X0.6396 Y0.1766 
G01 X0.6329 Y0.1788 
G01 X0.6267 Y0.1819 
G01 X0.6210 Y0.1861 
G01 X0.6161 Y0.1910 
G00 Z0.1000 
G00 X0.7161 Y0.1910 
G01 Z-0.0070 F10.00 
G01 X0.7119 Y0.1967 F20.00 
G01 X0.7088 Y0.2029 
G01 X0.7066 Y0.2096 
G01 X0.7055 Y0.2165 
G01 X0.7055 Y0.2835 
G01 X0.7066 Y0.2904 
G01 X0.7088 Y0.2971 
G01 X0.7119 Y0.3033 
G01 X0.7161 Y0.3090 
G01 X0.7210 Y0.3139 
G01 X0.7267 Y0.3181 
G01 X0.7329 Y0.3212 
G01 X0.7396 Y0.3234 
G01 X0.7465 Y0.3245 
G01 X0.7535 Y0.3245 
G01 X0.7604 Y0.3234 
G01 X0.7671 Y0.3212 
G01 X0.7733 Y0.3181 
G01 X0.7790 Y0.3139 
G01 X0.7839 Y0.3090 
G01 X0.7881 Y0.3033 
G01 X0.7912 Y0.2971 
G01 X0.7934 Y0.2904 
G01 X0.7945 Y0.2835 
G01 X0.7945 Y0.2165 
G01 X0.7934 Y0.2096 
G01 X0.7912 Y0.2029 
G01 X0.7881 Y0.1967 
G01 X0.7839 Y0.1910 
G01 X0.7790 Y0.1861 
G01 X0.7733 Y0.1819 
G01 X0.7671 Y0.1788 
G01 X0.7604 Y0.1766 
G01 X0.7535 Y0.1755 
G01 X0.7465 Y0.1755 
G01 X0.7396 Y0.1766 
G01 X0.7329 Y0.1788 
G01 X0.7267 Y0.1819 
G01 X0.7210 Y0.1861 
G01 X0.7161 Y0.1910 
G00 Z0.1000 
G00 X0.8763 Y0.3056 
G01 Z-0.0070 F10.00 
G01 X0.8730 Y0.3106 F20.00 
G01 X0.8707 Y0.3161 
G01 X0.8695 Y0.3220 
G01 X0.8695 Y0.3624 
G01 X0.7624 Y0.4695 
G01 X0.5220 Y0.4695 
G01 X0.5161 Y0.4707 
G01 X0.5106 Y0.4730 
G01 X0.5056 Y0.4763 
G01 X0.4263 Y0.5556 
G01 X0.4230 Y0.5606 
G01 X0.4207 Y0.5661 
G01 X0.4195 Y0.5720 
G01 X0.4195 Y0.5780 
G01 X0.4207 Y0.5839 
G01 X0.4230 Y0.5894 
G01 X0.4263 Y0.5944 
G01 X0.4306 Y0.5987 
G01 X0.4356 Y0.6020 
G01 X0.4411 Y0.6043 
G01 X0.4470 Y0.6055 
G01 X0.4530 Y0.6055 
G01 X0.4589 Y0.6043 
G01 X0.4644 Y0.6020 
G01 X0.4694 Y0.5987 
G01 X0.5376 Y0.5305 
G01 X0.7780 Y0.5305 
G01 X0.7839 Y0.5293 
G01 X0.7894 Y0.5270 
G01 X0.7944 Y0.5237 
G01 X0.7987 Y0.5194 
G01 X0.9237 Y0.3944 
G01 X0.9270 Y0.3894 
G01 X0.9293 Y0.3839 
G01 X0.9305 Y0.3780 
G01 X0.9305 Y0.3220 
G01 X0.9293 Y0.3161 
G01 X0.9270 Y0.3106 
G01 X0.9237 Y0.3056 
G01 X0.9194 Y0.3013 
G01 X0.9144 Y0.2980 
G01 X0.9089 Y0.2957 
G01 X0.9030 Y0.2945 
G01 X0.8970 Y0.2945 
G01 X0.8911 Y0.2957 
G01 X0.8856 Y0.2980 
G01 X0.8806 Y0.3013 
G01 X0.8763 Y0.3056 
G00 Z0.1000 
G00 X1.0119 Y0.3033 
G01 Z-0.0070 F10.00 
G01 X1.0161 Y0.3090 F20.00 
G01 X1.0210 Y0.3139 
G01 X1.0267 Y0.3181 
G01 X1.0329 Y0.3212 
G01 X1.0396 Y0.3234 
G01 X1.0465 Y0.3245 
G01 X1.0535 Y0.3245 
G01 X1.0604 Y0.3234 
G01 X1.0671 Y0.3212 
G01 X1.0733 Y0.3181 
G01 X1.0790 Y0.3139 
G01 X1.0839 Y0.3090 
G01 X1.0881 Y0.3033 
G01 X1.0912 Y0.2971 
G01 X1.0934 Y0.2904 
G01 X1.0945 Y0.2835 
G01 X1.0945 Y0.2165 
G01 X1.0934 Y0.2096 
G01 X1.0912 Y0.2029 
G01 X1.0881 Y0.1967 
G01 X1.0839 Y0.1910 
G01 X1.0790 Y0.1861 
G01 X1.0733 Y0.1819 
G01 X1.0671 Y0.1788 
G01 X1.0604 Y0.1766 
G01 X1.0535 Y0.1755 
G01 X1.0465 Y0.1755 
G01 X1.0396 Y0.1766 
G01 X1.0329 Y0.1788 
G01 X1.0267 Y0.1819 
G01 X1.0210 Y0.1861 
G01 X1.0161 Y0.1910 
G01 X1.0119 Y0.1967 
G01 X1.0088 Y0.2029 
G01 X1.0066 Y0.2096 
G01 X1.0055 Y0.2165 
G01 X1.0055 Y0.2835 
G01 X1.0066 Y0.2904 
G01 X1.0088 Y0.2971 
G01 X1.0119 Y0.3033 
G00 Z0.1000 
G00 X1.1119 Y0.3033 
G01 Z-0.0070 F10.00 
G01 X1.1161 Y0.3090 F20.00 
G01 X1.1210 Y0.3139 
G01 X1.1267 Y0.3181 
G01 X1.1329 Y0.3212 
G01 X1.1396 Y0.3234 
G01 X1.1465 Y0.3245 
G01 X1.1535 Y0.3245 
G01 X1.1604 Y0.3234 
G01 X1.1671 Y0.3212 
G01 X1.1733 Y0.3181 
G01 X1.1790 Y0.3139 
G01 X1.1839 Y0.3090 
G01 X1.1881 Y0.3033 
G01 X1.1912 Y0.2971 
G01 X1.1934 Y0.2904 
G01 X1.1945 Y0.2835 
G01 X1.1945 Y0.2165 
G01 X1.1934 Y0.2096 
G01 X1.1912 Y0.2029 
G01 X1.1881 Y0.1967 
G01 X1.1839 Y0.1910 
G01 X1.1790 Y0.1861 
G01 X1.1733 Y0.1819 
G01 X1.1671 Y0.1788 
G01 X1.1604 Y0.1766 
G01 X1.1535 Y0.1755 
G01 X1.1465 Y0.1755 
G01 X1.1396 Y0.1766 
G01 X1.1329 Y0.1788 
G01 X1.1267 Y0.1819 
G01 X1.1210 Y0.1861 
G01 X1.1161 Y0.1910 
G01 X1.1119 Y0.1967 
G01 X1.1088 Y0.2029 
G01 X1.1066 Y0.2096 
G01 X1.1055 Y0.2165 
G01 X1.1055 Y0.2835 
G01 X1.1066 Y0.2904 
G01 X1.1088 Y0.2971 
G01 X1.1119 Y0.3033 
G00 Z0.1000 
G00 X1.2119 Y0.3033 
G01 Z-0.0070 F10.00 
G01 X1.2161 Y0.3090 F20.00 
G01 X1.2210 Y0.3139 
G01 X1.2267 Y0.3181 
G01 X1.2329 Y0.3212 
G01 X1.2396 Y0.3234 
G01 X1.2465 Y0.3245 
G01 X1.2535 Y0.3245 
G01 X1.2604 Y0.3234 
G01 X1.2671 Y0.3212 
G01 X1.2733 Y0.3181 
G01 X1.2790 Y0.3139 
G01 X1.2839 Y0.3090 
G01 X1.2881 Y0.3033 
G01 X1.2912 Y0.2971 
G01 X1.2934 Y0.2904 
G01 X1.2945 Y0.2835 
G01 X1.2945 Y0.2165 
G01 X1.2934 Y0.2096 
G01 X1.2912 Y0.2029 
G01 X1.2881 Y0.1967 
G01 X1.2839 Y0.1910 
G01 X1.2790 Y0.1861 
G01 X1.2733 Y0.1819 
G01 X1.2671 Y0.1788 
G01 X1.2604 Y0.1766 
G01 X1.2535 Y0.1755 
G01 X1.2465 Y0.1755 
G01 X1.2396 Y0.1766 
G01 X1.2329 Y0.1788 
G01 X1.2267 Y0.1819 
G01 X1.2210 Y0.1861 
G01 X1.2161 Y0.1910 
G01 X1.2119 Y0.1967 
G01 X1.2088 Y0.2029 
G01 X1.2066 Y0.2096 
G01 X1.2055 Y0.2165 
G01 X1.2055 Y0.2835 
G01 X1.2066 Y0.2904 
G01 X1.2088 Y0.2971 
G01 X1.2119 Y0.3033 
G00 Z0.1000 
G00 X1.3119 Y0.3033 
G01 Z-0.0070 F10.00 
G01 X1.3161 Y0.3090 F20.00 
G01 X1.3210 Y0.3139 
G01 X1.3267 Y0.3181 
G01 X1.3329 Y0.3212 
G01 X1.3396 Y0.3234 
G01 X1.3465 Y0.3245 
G01 X1.3535 Y0.3245 
G01 X1.3604 Y0.3234 
G01 X1.3671 Y0.3212 
G01 X1.3733 Y0.3181 
G01 X1.3790 Y0.3139 
G01 X1.3839 Y0.3090 
G01 X1.3881 Y0.3033 
G01 X1.3912 Y0.2971 
G01 X1.3934 Y0.2904 
G01 X1.3945 Y0.2835 
G01 X1.3945 Y0.2165 
G01 X1.3934 Y0.2096 
G01 X1.3912 Y0.2029 
G01 X1.3881 Y0.1967 
G01 X1.3839 Y0.1910 
G01 X1.3790 Y0.1861 
G01 X1.3733 Y0.1819 
G01 X1.3671 Y0.1788 
G01 X1.3604 Y0.1766 
G01 X1.3535 Y0.1755 
G01 X1.3465 Y0.1755 
G01 X1.3396 Y0.1766 
G01 X1.3329 Y0.1788 
G01 X1.3267 Y0.1819 
G01 X1.3210 Y0.1861 
G01 X1.3161 Y0.1910 
G01 X1.3119 Y0.1967 
G01 X1.3088 Y0.2029 
G01 X1.3066 Y0.2096 
G01 X1.3055 Y0.2165 
G01 X1.3055 Y0.2835 
G01 X1.3066 Y0.2904 
G01 X1.3088 Y0.2971 
G01 X1.3119 Y0.3033 
G00 Z0.1000 
G00 X1.2829 Y0.6755 
G01 Z-0.0070 F10.00 
G01 X1.2765 Y0.6708 F20.00 
G01 X1.2694 Y0.6672 
G01 X1.2618 Y0.6647 
G01 X1.2540 Y0.6635 
G01 X1.2460 Y0.6635 
G01 X1.2382 Y0.6647 
G01 X1.2306 Y0.6672 
G01 X1.2235 Y0.6708 
G01 X1.2171 Y0.6755 
G01 X1.2115 Y0.6811 
G01 X1.2068 Y0.6875 
G01 X1.2032 Y0.6946 
G01 X1.2007 Y0.7022 
G01 X1.2000 Y0.7069 
G01 X1.1993 Y0.7022 
G01 X1.1968 Y0.6946 
G01 X1.1932 Y0.6875 
G01 X1.1885 Y0.6811 
G01 X1.1829 Y0.6755 
G01 X1.1765 Y0.6708 
G01 X1.1694 Y0.6672 
G01 X1.1618 Y0.6647 
G01 X1.1540 Y0.6635 
G01 X1.1460 Y0.6635 
G01 X1.1382 Y0.6647 
G01 X1.1306 Y0.6672 
G01 X1.1235 Y0.6708 
G01 X1.1171 Y0.6755 
G01 X1.1115 Y0.6811 
G01 X1.1068 Y0.6875 
G01 X1.1032 Y0.6946 
G01 X1.1007 Y0.7022 
G01 X1.1000 Y0.7069 
G01 X1.0993 Y0.7022 
G01 X1.0968 Y0.6946 
G01 X1.0932 Y0.6875 
G01 X1.0885 Y0.6811 
G01 X1.0829 Y0.6755 
G01 X1.0765 Y0.6708 
G01 X1.0694 Y0.6672 
G01 X1.0618 Y0.6647 
G01 X1.0540 Y0.6635 
G01 X1.0460 Y0.6635 
G01 X1.0382 Y0.6647 
G01 X1.0306 Y0.6672 
G01 X1.0235 Y0.6708 
G01 X1.0171 Y0.6755 
G01 X1.0115 Y0.6811 
G01 X1.0068 Y0.6875 
G01 X1.0032 Y0.6946 
G01 X1.0007 Y0.7022 
G01 X1.0000 Y0.7069 
G01 X0.9993 Y0.7022 
G01 X0.9968 Y0.6946 
G01 X0.9932 Y0.6875 
G01 X0.9885 Y0.6811 
G01 X0.9829 Y0.6755 
G01 X0.9765 Y0.6708 
G01 X0.9694 Y0.6672 
G01 X0.9618 Y0.6647 
G01 X0.9540 Y0.6635 
G01 X0.9460 Y0.6635 
G01 X0.9382 Y0.6647 
G01 X0.9306 Y0.6672 
G01 X0.9235 Y0.6708 
G01 X0.9171 Y0.6755 
G01 X0.9115 Y0.6811 
G01 X0.9068 Y0.6875 
G01 X0.9032 Y0.6946 
G01 X0.9007 Y0.7022 
G01 X0.9000 Y0.7069 
G01 X0.8993 Y0.7022 
G01 X0.8968 Y0.6946 
G01 X0.8932 Y0.6875 
G01 X0.8885 Y0.6811 
G01 X0.8829 Y0.6755 
G01 X0.8765 Y0.6708 
G01 X0.8694 Y0.6672 
G01 X0.8618 Y0.6647 
G01 X0.8540 Y0.6635 
G01 X0.8460 Y0.6635 
G01 X0.8382 Y0.6647 
G01 X0.8306 Y0.6672 
G01 X0.8235 Y0.6708 
G01 X0.8171 Y0.6755 
G01 X0.8115 Y0.6811 
G01 X0.8068 Y0.6875 
G01 X0.8032 Y0.6946 
G01 X0.8007 Y0.7022 
G01 X0.8000 Y0.7069 
G01 X0.7993 Y0.7022 
G01 X0.7968 Y0.6946 
G01 X0.7932 Y0.6875 
G01 X0.7885 Y0.6811 
G01 X0.7829 Y0.6755 
G01 X0.7765 Y0.6708 
G01 X0.7694 Y0.6672 
G01 X0.7618 Y0.6647 
G01 X0.7540 Y0.6635 
G01 X0.7460 Y0.6635 
G01 X0.7382 Y0.6647 
G01 X0.7306 Y0.6672 
G01 X0.7235 Y0.6708 
G01 X0.7171 Y0.6755 
G01 X0.7115 Y0.6811 
G01 X0.7068 Y0.6875 
G01 X0.7032 Y0.6946 
G01 X0.7007 Y0.7022 
G01 X0.7000 Y0.7069 
G01 X0.6993 Y0.7022 
G01 X0.6968 Y0.6946 
G01 X0.6932 Y0.6875 
G01 X0.6885 Y0.6811 
G01 X0.6829 Y0.6755 
G01 X0.6765 Y0.6708 
G01 X0.6694 Y0.6672 
G01 X0.6618 Y0.6647 
G01 X0.6540 Y0.6635 
G01 X0.6460 Y0.6635 
G01 X0.6382 Y0.6647 
G01 X0.6306 Y0.6672 
G01 X0.6235 Y0.6708 
G01 X0.6171 Y0.6755 
G01 X0.6115 Y0.6811 
G01 X0.6068 Y0.6875 
G01 X0.6032 Y0.6946 
G01 X0.6007 Y0.7022 
G01 X0.6000 Y0.7069 
G01 X0.5993 Y0.7022 
G01 X0.5968 Y0.6946 
G01 X0.5932 Y0.6875 
G01 X0.5885 Y0.6811 
G01 X0.5829 Y0.6755 
G01 X0.5765 Y0.6708 
G01 X0.5694 Y0.6672 
G01 X0.5618 Y0.6647 
G01 X0.5540 Y0.6635 
G01 X0.5460 Y0.6635 
G01 X0.5382 Y0.6647 
G01 X0.5306 Y0.6672 
G01 X0.5235 Y0.6708 
G01 X0.5171 Y0.6755 
G01 X0.5115 Y0.6811 
G01 X0.5068 Y0.6875 
G01 X0.5032 Y0.6946 
G01 X0.5007 Y0.7022 
G01 X0.4995 Y0.7100 
G01 X0.4995 Y0.7900 
G01 X0.5007 Y0.7978 
G01 X0.5032 Y0.8054 
G01 X0.5068 Y0.8125 
G01 X0.5115 Y0.8189 
G01 X0.5171 Y0.8245 
G01 X0.5235 Y0.8292 
G01 X0.5306 Y0.8328 
G01 X0.5382 Y0.8353 
G01 X0.5460 Y0.8365 
G01 X0.5540 Y0.8365 
G01 X0.5618 Y0.8353 
G01 X0.5694 Y0.8328 
G01 X0.5765 Y0.8292 
G01 X0.5829 Y0.8245 
G01 X0.5885 Y0.8189 
G01 X0.5932 Y0.8125 
G01 X0.5968 Y0.8054 
G01 X0.5993 Y0.7978 
G01 X0.6000 Y0.7931 
G01 X0.6007 Y0.7978 
G01 X0.6032 Y0.8054 
G01 X0.6068 Y0.8125 
G01 X0.6115 Y0.8189 
G01 X0.6171 Y0.8245 
G01 X0.6235 Y0.8292 
G01 X0.6306 Y0.8328 
G01 X0.6382 Y0.8353 
G01 X0.6460 Y0.8365 
G01 X0.6540 Y0.8365 
G01 X0.6618 Y0.8353 
G01 X0.6694 Y0.8328 
G01 X0.6765 Y0.8292 
G01 X0.6829 Y0.8245 
G01 X0.6885 Y0.8189 
G01 X0.6932 Y0.8125 
G01 X0.6968 Y0.8054 
G01 X0.6993 Y0.7978 
G01 X0.7000 Y0.7931 
G01 X0.7007 Y0.7978 
G01 X0.7032 Y0.8054 
G01 X0.7068 Y0.8125 
G01 X0.7115 Y0.8189 
G01 X0.7171 Y0.8245 
G01 X0.7235 Y0.8292 
G01 X0.7306 Y0.8328 
G01 X0.7382 Y0.8353 
G01 X0.7460 Y0.8365 
G01 X0.7540 Y0.8365 
G01 X0.7618 Y0.8353 
G01 X0.7694 Y0.8328 
G01 X0.7765 Y0.8292 
G01 X0.7829 Y0.8245 
G01 X0.7885 Y0.8189 
G01 X0.7932 Y0.8125 
G01 X0.7968 Y0.8054 
G01 X0.7993 Y0.7978 
G01 X0.8000 Y0.7931 
G01 X0.8007 Y0.7978 
G01 X0.8032 Y0.8054 
G01 X0.8068 Y0.8125 
G01 X0.8115 Y0.8189 
G01 X0.8171 Y0.8245 
G01 X0.8235 Y0.8292 
G01 X0.8306 Y0.8328 
G01 X0.8382 Y0.8353 
G01 X0.8460 Y0.8365 
G01 X0.8540 Y0.8365 
G01 X0.8618 Y0.8353 
G01 X0.8694 Y0.8328 
G01 X0.8765 Y0.8292 
G01 X0.8829 Y0.8245 
G01 X0.8885 Y0.8189 
G01 X0.8932 Y0.8125 
G01 X0.8968 Y0.8054 
G01 X0.8993 Y0.7978 
G01 X0.9000 Y0.7931 
G01 X0.9007 Y0.7978 
G01 X0.9032 Y0.8054 
G01 X0.9068 Y0.8125 
G01 X0.9115 Y0.8189 
G01 X0.9171 Y0.8245 
G01 X0.9235 Y0.8292 
G01 X0.9306 Y0.8328 
G01 X0.9382 Y0.8353 
G01 X0.9460 Y0.8365 
G01 X0.9540 Y0.8365 
G01 X0.9618 Y0.8353 
G01 X0.9694 Y0.8328 
G01 X0.9765 Y0.8292 
G01 X0.9829 Y0.8245 
G01 X0.9885 Y0.8189 
G01 X0.9932 Y0.8125 
G01 X0.9968 Y0.8054 
G01 X0.9993 Y0.7978 
G01 X1.0000 Y0.7931 
G01 X1.0007 Y0.7978 
G01 X1.0032 Y0.8054 
G01 X1.0068 Y0.8125 
G01 X1.0115 Y0.8189 
G01 X1.0171 Y0.8245 
G01 X1.0235 Y0.8292 
G01 X1.0306 Y0.8328 
G01 X1.0382 Y0.8353 
G01 X1.0460 Y0.8365 
G01 X1.0540 Y0.8365 
G01 X1.0618 Y0.8353 
G01 X1.0694 Y0.8328 
G01 X1.0765 Y0.8292 
G01 X1.0829 Y0.8245 
G01 X1.0885 Y0.8189 
G01 X1.0932 Y0.8125 
G01 X1.0968 Y0.8054 
G01 X1.0993 Y0.7978 
G01 X1.1000 Y0.7931 
G01 X1.1007 Y0.7978 
G01 X1.1032 Y0.8054 
G01 X1.1068 Y0.8125 
G01 X1.1115 Y0.8189 
G01 X1.1171 Y0.8245 
G01 X1.1235 Y0.8292 
G01 X1.1306 Y0.8328 
G01 X1.1382 Y0.8353 
G01 X1.1460 Y0.8365 
G01 X1.1540 Y0.8365 
G01 X1.1618 Y0.8353 
G01 X1.1694 Y0.8328 
G01 X1.1765 Y0.8292 
G01 X1.1829 Y0.8245 
G01 X1.1885 Y0.8189 
G01 X1.1932 Y0.8125 
G01 X1.1968 Y0.8054 
G01 X1.1993 Y0.7978 
G01 X1.2000 Y0.7931 
G01 X1.2007 Y0.7978 
G01 X1.2032 Y0.8054 
G01 X1.2068 Y0.8125 
G01 X1.2115 Y0.8189 
G01 X1.2171 Y0.8245 
G01 X1.2235 Y0.8292 
G01 X1.2306 Y0.8328 
G01 X1.2382 Y0.8353 
G01 X1.2460 Y0.8365 
G01 X1.2540 Y0.8365 
G01 X1.2618 Y0.8353 
G01 X1.2694 Y0.8328 
G01 X1.2765 Y0.8292 
G01 X1.2829 Y0.8245 
G01 X1.2885 Y0.8189 
G01 X1.2932 Y0.8125 
G01 X1.2968 Y0.8054 
G01 X1.2993 Y0.7978 
G01 X1.3005 Y0.7900 
G01 X1.3005 Y0.7100 
G01 X1.2993 Y0.7022 
G01 X1.2968 Y0.6946 
G01 X1.2932 Y0.6875 
G01 X1.2885 Y0.6811 
G01 X1.2829 Y0.6755 
G00 Z0.1000 
G00 X1.2829 Y1.5755 
G01 Z-0.0070 F10.00 
G01 X1.2765 Y1.5708 F20.00 
G01 X1.2694 Y1.5672 
G01 X1.2618 Y1.5647 
G01 X1.2540 Y1.5635 
G01 X1.2460 Y1.5635 
G01 X1.2382 Y1.5647 
G01 X1.2306 Y1.5672 
G01 X1.2235 Y1.5708 
G01 X1.2171 Y1.5755 
G01 X1.2115 Y1.5811 
G01 X1.2068 Y1.5875 
G01 X1.2032 Y1.5946 
G01 X1.2007 Y1.6022 
G01 X1.2000 Y1.6069 
G01 X1.1993 Y1.6022 
G01 X1.1968 Y1.5946 
G01 X1.1932 Y1.5875 
G01 X1.1885 Y1.5811 
G01 X1.1829 Y1.5755 
G01 X1.1765 Y1.5708 
G01 X1.1694 Y1.5672 
G01 X1.1618 Y1.5647 
G01 X1.1540 Y1.5635 
G01 X1.1460 Y1.5635 
G01 X1.1382 Y1.5647 
G01 X1.1306 Y1.5672 
G01 X1.1235 Y1.5708 
G01 X1.1171 Y1.5755 
G01 X1.1115 Y1.5811 
G01 X1.1068 Y1.5875 
G01 X1.1032 Y1.5946 
G01 X1.1007 Y1.6022 
G01 X1.1000 Y1.6069 
G01 X1.0993 Y1.6022 
G01 X1.0968 Y1.5946 
G01 X1.0932 Y1.5875 
G01 X1.0885 Y1.5811 
G01 X1.0829 Y1.5755 
G01 X1.0765 Y1.5708 
G01 X1.0694 Y1.5672 
G01 X1.0618 Y1.5647 
G01 X1.0540 Y1.5635 
G01 X1.0460 Y1.5635 
G01 X1.0382 Y1.5647 
G01 X1.0306 Y1.5672 
G01 X1.0235 Y1.5708 
G01 X1.0171 Y1.5755 
G01 X1.0115 Y1.5811 
G01 X1.0068 Y1.5875 
G01 X1.0032 Y1.5946 
G01 X1.0007 Y1.6022 
G01 X1.0000 Y1.6069 
G01 X0.9993 Y1.6022 
G01 X0.9968 Y1.5946 
G01 X0.9932 Y1.5875 
G01 X0.9885 Y1.5811 
G01 X0.9829 Y1.5755 
G01 X0.9765 Y1.5708 
G01 X0.9694 Y1.5672 
G01 X0.9618 Y1.5647 
G01 X0.9540 Y1.5635 
G01 X0.9460 Y1.5635 
G01 X0.9382 Y1.5647 
G01 X0.9306 Y1.5672 
G01 X0.9235 Y1.5708 
G01 X0.9171 Y1.5755 
G01 X0.9115 Y1.5811 
G01 X0.9068 Y1.5875 
G01 X0.9032 Y1.5946 
G01 X0.9007 Y1.6022 
G01 X0.9000 Y1.6069 
G01 X0.8993 Y1.6022 
G01 X0.8968 Y1.5946 
G01 X0.8932 Y1.5875 
G01 X0.8885 Y1.5811 
G01 X0.8829 Y1.5755 
G01 X0.8765 Y1.5708 
G01 X0.8694 Y1.5672 
G01 X0.8618 Y1.5647 
G01 X0.8540 Y1.5635 
G01 X0.8460 Y1.5635 
G01 X0.8382 Y1.5647 
G01 X0.8306 Y1.5672 
G01 X0.8235 Y1.5708 
G01 X0.8171 Y1.5755 
G01 X0.8115 Y1.5811 
G01 X0.8068 Y1.5875 
G01 X0.8032 Y1.5946 
G01 X0.8007 Y1.6022 
G01 X0.8000 Y1.6069 
G01 X0.7993 Y1.6022 
G01 X0.7968 Y1.5946 
G01 X0.7932 Y1.5875 
G01 X0.7885 Y1.5811 
G01 X0.7829 Y1.5755 
G01 X0.7765 Y1.5708 
G01 X0.7694 Y1.5672 
G01 X0.7618 Y1.5647 
G01 X0.7540 Y1.5635 
G01 X0.7460 Y1.5635 
G01 X0.7382 Y1.5647 
G01 X0.7306 Y1.5672 
G01 X0.7235 Y1.5708 
G01 X0.7171 Y1.5755 
G01 X0.7115 Y1.5811 
G01 X0.7068 Y1.5875 
G01 X0.7032 Y1.5946 
G01 X0.7007 Y1.6022 
G01 X0.7000 Y1.6069 
G01 X0.6993 Y1.6022 
G01 X0.6968 Y1.5946 
G01 X0.6932 Y1.5875 
G01 X0.6885 Y1.5811 
G01 X0.6829 Y1.5755 
G01 X0.6765 Y1.5708 
G01 X0.6694 Y1.5672 
G01 X0.6618 Y1.5647 
G01 X0.6540 Y1.5635 
G01 X0.6460 Y1.5635 
G01 X0.6382 Y1.5647 
G01 X0.6306 Y1.5672 
G01 X0.6235 Y1.5708 
G01 X0.6171 Y1.5755 
G01 X0.6115 Y1.5811 
G01 X0.6068 Y1.5875 
G01 X0.6032 Y1.5946 
G01 X0.6007 Y1.6022 
G01 X0.6000 Y1.6069 
G01 X0.5993 Y1.6022 
G01 X0.5968 Y1.5946 
G01 X0.5932 Y1.5875 
G01 X0.5885 Y1.5811 
G01 X0.5829 Y1.5755 
G01 X0.5765 Y1.5708 
G01 X0.5694 Y1.5672 
G01 X0.5618 Y1.5647 
G01 X0.5540 Y1.5635 
G01 X0.5460 Y1.5635 
G01 X0.5382 Y1.5647 
G01 X0.5306 Y1.5672 
G01 X0.5235 Y1.5708 
G01 X0.5171 Y1.5755 
G01 X0.5115 Y1.5811 
G01 X0.5068 Y1.5875 
G01 X0.5032 Y1.5946 
G01 X0.5007 Y1.6022 
G01 X0.4995 Y1.6100 
G01 X0.4995 Y1.6900 
G01 X0.5007 Y1.6978 
G01 X0.5032 Y1.7054 
G01 X0.5068 Y1.7125 
G01 X0.5115 Y1.7189 
G01 X0.5171 Y1.7245 
G01 X0.5235 Y1.7292 
G01 X0.5306 Y1.7328 
G01 X0.5382 Y1.7353 
G01 X0.5460 Y1.7365 
G01 X0.5540 Y1.7365 
G01 X0.5618 Y1.7353 
G01 X0.5694 Y1.7328 
G01 X0.5765 Y1.7292 
G01 X0.5829 Y1.7245 
G01 X0.5885 Y1.7189 
G01 X0.5932 Y1.7125 
G01 X0.5968 Y1.7054 
G01 X0.5993 Y1.6978 
G01 X0.6000 Y1.6931 
G01 X0.6007 Y1.6978 
G01 X0.6032 Y1.7054 
G01 X0.6068 Y1.7125 
G01 X0.6115 Y1.7189 
G01 X0.6171 Y1.7245 
G01 X0.6235 Y1.7292 
G01 X0.6306 Y1.7328 
G01 X0.6382 Y1.7353 
G01 X0.6460 Y1.7365 
G01 X0.6540 Y1.7365 
G01 X0.6618 Y1.7353 
G01 X0.6694 Y1.7328 
G01 X0.6765 Y1.7292 
G01 X0.6829 Y1.7245 
G01 X0.6885 Y1.7189 
G01 X0.6932 Y1.7125 
G01 X0.6968 Y1.7054 
G01 X0.6993 Y1.6978 
G01 X0.7000 Y1.6931 
G01 X0.7007 Y1.6978 
G01 X0.7032 Y1.7054 
G01 X0.7068 Y1.7125 
G01 X0.7115 Y1.7189 
G01 X0.7171 Y1.7245 
G01 X0.7235 Y1.7292 
G01 X0.7306 Y1.7328 
G01 X0.7382 Y1.7353 
G01 X0.7460 Y1.7365 
G01 X0.7540 Y1.7365 
G01 X0.7618 Y1.7353 
G01 X0.7694 Y1.7328 
G01 X0.7765 Y1.7292 
G01 X0.7829 Y1.7245 
G01 X0.7885 Y1.7189 
G01 X0.7932 Y1.7125 
G01 X0.7968 Y1.7054 
G01 X0.7993 Y1.6978 
G01 X0.8000 Y1.6931 
G01 X0.8007 Y1.6978 
G01 X0.8032 Y1.7054 
G01 X0.8068 Y1.7125 
G01 X0.8115 Y1.7189 
G01 X0.8171 Y1.7245 
G01 X0.8235 Y1.7292 
G01 X0.8306 Y1.7328 
G01 X0.8382 Y1.7353 
G01 X0.8460 Y1.7365 
G01 X0.8540 Y1.7365 
G01 X0.8618 Y1.7353 
G01 X0.8694 Y1.7328 
G01 X0.8765 Y1.7292 
G01 X0.8829 Y1.7245 
G01 X0.8885 Y1.7189 
G01 X0.8932 Y1.7125 
G01 X0.8968 Y1.7054 
G01 X0.8993 Y1.6978 
G01 X0.9000 Y1.6931 
G01 X0.9007 Y1.6978 
G01 X0.9032 Y1.7054 
G01 X0.9068 Y1.7125 
G01 X0.9115 Y1.7189 
G01 X0.9171 Y1.7245 
G01 X0.9235 Y1.7292 
G01 X0.9306 Y1.7328 
G01 X0.9382 Y1.7353 
G01 X0.9460 Y1.7365 
G01 X0.9540 Y1.7365 
G01 X0.9618 Y1.7353 
G01 X0.9694 Y1.7328 
G01 X0.9765 Y1.7292 
G01 X0.9829 Y1.7245 
G01 X0.9885 Y1.7189 
G01 X0.9932 Y1.7125 
G01 X0.9968 Y1.7054 
G01 X0.9993 Y1.6978 
G01 X1.0000 Y1.6931 
G01 X1.0007 Y1.6978 
G01 X1.0032 Y1.7054 
G01 X1.0068 Y1.7125 
G01 X1.0115 Y1.7189 
G01 X1.0171 Y1.7245 
G01 X1.0235 Y1.7292 
G01 X1.0306 Y1.7328 
G01 X1.0382 Y1.7353 
G01 X1.0460 Y1.7365 
G01 X1.0540 Y1.7365 
G01 X1.0618 Y1.7353 
G01 X1.0694 Y1.7328 
G01 X1.0765 Y1.7292 
G01 X1.0829 Y1.7245 
G01 X1.0885 Y1.7189 
G01 X1.0932 Y1.7125 
G01 X1.0968 Y1.7054 
G01 X1.0993 Y1.6978 
G01 X1.1000 Y1.6931 
G01 X1.1007 Y1.6978 
G01 X1.1032 Y1.7054 
G01 X1.1068 Y1.7125 
G01 X1.1115 Y1.7189 
G01 X1.1171 Y1.7245 
G01 X1.1235 Y1.7292 
G01 X1.1306 Y1.7328 
G01 X1.1382 Y1.7353 
G01 X1.1460 Y1.7365 
G01 X1.1540 Y1.7365 
G01 X1.1618 Y1.7353 
G01 X1.1694 Y1.7328 
G01 X1.1765 Y1.7292 
G01 X1.1829 Y1.7245 
G01 X1.1885 Y1.7189 
G01 X1.1932 Y1.7125 
G01 X1.1968 Y1.7054 
G01 X1.1993 Y1.6978 
G01 X1.2000 Y1.6931 
G01 X1.2007 Y1.6978 
G01 X1.2032 Y1.7054 
G01 X1.2068 Y1.7125 
G01 X1.2115 Y1.7189 
G01 X1.2171 Y1.7245 
G01 X1.2235 Y1.7292 
G01 X1.2306 Y1.7328 
G01 X1.2382 Y1.7353 
G01 X1.2460 Y1.7365 
G01 X1.2540 Y1.7365 
G01 X1.2618 Y1.7353 
G01 X1.2694 Y1.7328 
G01 X1.2765 Y1.7292 
G01 X1.2829 Y1.7245 
G01 X1.2885 Y1.7189 
G01 X1.2932 Y1.7125 
G01 X1.2968 Y1.7054 
G01 X1.2993 Y1.6978 
G01 X1.3005 Y1.6900 
G01 X1.3005 Y1.6100 
G01 X1.2993 Y1.6022 
G01 X1.2968 Y1.5946 
G01 X1.2932 Y1.5875 
G01 X1.2885 Y1.5811 
G01 X1.2829 Y1.5755 
G00 Z0.1000 
G00 X1.2829 Y2.1288 
G01 Z-0.0070 F10.00 
G01 X1.2767 Y2.1319 F20.00 
G01 X1.2710 Y2.1361 
G01 X1.2661 Y2.1410 
G01 X1.2619 Y2.1467 
G01 X1.2588 Y2.1529 
G01 X1.2566 Y2.1596 
G01 X1.2555 Y2.1665 
G01 X1.2555 Y2.2335 
G01 X1.2566 Y2.2404 
G01 X1.2588 Y2.2471 
G01 X1.2619 Y2.2533 
G01 X1.2661 Y2.2590 
G01 X1.2710 Y2.2639 
G01 X1.2767 Y2.2681 
G01 X1.2829 Y2.2712 
G01 X1.2896 Y2.2734 
G01 X1.2965 Y2.2745 
G01 X1.3035 Y2.2745 
G01 X1.3104 Y2.2734 
G01 X1.3171 Y2.2712 
G01 X1.3233 Y2.2681 
G01 X1.3290 Y2.2639 
G01 X1.3339 Y2.2590 
G01 X1.3381 Y2.2533 
G01 X1.3412 Y2.2471 
G01 X1.3434 Y2.2404 
G01 X1.3445 Y2.2335 
G01 X1.3445 Y2.1665 
G01 X1.3434 Y2.1596 
G01 X1.3412 Y2.1529 
G01 X1.3381 Y2.1467 
G01 X1.3339 Y2.1410 
G01 X1.3290 Y2.1361 
G01 X1.3233 Y2.1319 
G01 X1.3171 Y2.1288 
G01 X1.3104 Y2.1266 
G01 X1.3035 Y2.1255 
G01 X1.2965 Y2.1255 
G01 X1.2896 Y2.1266 
G01 X1.2829 Y2.1288 
G00 Z0.1000 
G00 X1.2290 Y2.1361 
G01 Z-0.0070 F10.00 
G01 X1.2233 Y2.1319 F20.00 
G01 X1.2171 Y2.1288 
G01 X1.2104 Y2.1266 
G01 X1.2035 Y2.1255 
G01 X1.1965 Y2.1255 
G01 X1.1896 Y2.1266 
G01 X1.1829 Y2.1288 
G01 X1.1767 Y2.1319 
G01 X1.1710 Y2.1361 
G01 X1.1661 Y2.1410 
G01 X1.1619 Y2.1467 
G01 X1.1588 Y2.1529 
G01 X1.1566 Y2.1596 
G01 X1.1555 Y2.1665 
G01 X1.1555 Y2.2335 
G01 X1.1566 Y2.2404 
G01 X1.1588 Y2.2471 
G01 X1.1619 Y2.2533 
G01 X1.1661 Y2.2590 
G01 X1.1710 Y2.2639 
G01 X1.1767 Y2.2681 
G01 X1.1829 Y2.2712 
G01 X1.1896 Y2.2734 
G01 X1.1965 Y2.2745 
G01 X1.2035 Y2.2745 
G01 X1.2104 Y2.2734 
G01 X1.2171 Y2.2712 
G01 X1.2233 Y2.2681 
G01 X1.2290 Y2.2639 
G01 X1.2339 Y2.2590 
G01 X1.2381 Y2.2533 
G01 X1.2412 Y2.2471 
G01 X1.2434 Y2.2404 
G01 X1.2445 Y2.2335 
G01 X1.2445 Y2.1665 
G01 X1.2434 Y2.1596 
G01 X1.2412 Y2.1529 
G01 X1.2381 Y2.1467 
G01 X1.2339 Y2.1410 
G01 X1.2290 Y2.1361 
G00 Z0.1000 
G00 X1.1290 Y2.1361 
G01 Z-0.0070 F10.00 
G01 X1.1233 Y2.1319 F20.00 
G01 X1.1171 Y2.1288 
G01 X1.1104 Y2.1266 
G01 X1.1035 Y2.1255 
G01 X1.0965 Y2.1255 
G01 X1.0896 Y2.1266 
G01 X1.0829 Y2.1288 
G01 X1.0767 Y2.1319 
G01 X1.0710 Y2.1361 
G01 X1.0661 Y2.1410 
G01 X1.0619 Y2.1467 
G01 X1.0588 Y2.1529 
G01 X1.0566 Y2.1596 
G01 X1.0555 Y2.1665 
G01 X1.0555 Y2.2335 
G01 X1.0566 Y2.2404 
G01 X1.0588 Y2.2471 
G01 X1.0619 Y2.2533 
G01 X1.0661 Y2.2590 
G01 X1.0710 Y2.2639 
G01 X1.0767 Y2.2681 
G01 X1.0829 Y2.2712 
G01 X1.0896 Y2.2734 
G01 X1.0965 Y2.2745 
G01 X1.1035 Y2.2745 
G01 X1.1104 Y2.2734 
G01 X1.1171 Y2.2712 
G01 X1.1233 Y2.2681 
G01 X1.1290 Y2.2639 
G01 X1.1339 Y2.2590 
G01 X1.1381 Y2.2533 
G01 X1.1412 Y2.2471 
G01 X1.1434 Y2.2404 
G01 X1.1445 Y2.2335 
G01 X1.1445 Y2.1665 
G01 X1.1434 Y2.1596 
G01 X1.1412 Y2.1529 
G01 X1.1381 Y2.1467 
G01 X1.1339 Y2.1410 
G01 X1.1290 Y2.1361 
G00 Z0.1000 
G00 X1.1306 Y2.0487 
G01 Z-0.0070 F10.00 
G01 X1.1356 Y2.0520 F20.00 
G01 X1.1411 Y2.0543 
G01 X1.1470 Y2.0555 
G01 X1.5530 Y2.0555 
G01 X1.5589 Y2.0543 
G01 X1.5644 Y2.0520 
G01 X1.5694 Y2.0487 
G01 X1.5737 Y2.0444 
G01 X1.5770 Y2.0394 
G01 X1.5793 Y2.0339 
G01 X1.5805 Y2.0280 
G01 X1.5805 Y2.0220 
G01 X1.5793 Y2.0161 
G01 X1.5770 Y2.0106 
G01 X1.5737 Y2.0056 
G01 X1.5694 Y2.0013 
G01 X1.5644 Y1.9980 
G01 X1.5589 Y1.9957 
G01 X1.5530 Y1.9945 
G01 X1.1470 Y1.9945 
G01 X1.1411 Y1.9957 
G01 X1.1356 Y1.9980 
G01 X1.1306 Y2.0013 
G01 X1.1263 Y2.0056 
G01 X1.1230 Y2.0106 
G01 X1.1207 Y2.0161 
G01 X1.1195 Y2.0220 
G01 X1.1195 Y2.0280 
G01 X1.1207 Y2.0339 
G01 X1.1230 Y2.0394 
G01 X1.1263 Y2.0444 
G01 X1.1306 Y2.0487 
G00 Z0.1000 
G00 X0.8987 Y2.0444 
G01 Z-0.0070 F10.00 
G01 X0.9020 Y2.0394 F20.00 
G01 X0.9043 Y2.0339 
G01 X0.9055 Y2.0280 
G01 X0.9055 Y2.0220 
G01 X0.9043 Y2.0161 
G01 X0.9020 Y2.0106 
G01 X0.8987 Y2.0056 
G01 X0.8944 Y2.0013 
G01 X0.8894 Y1.9980 
G01 X0.8839 Y1.9957 
G01 X0.8780 Y1.9945 
G01 X0.4470 Y1.9945 
G01 X0.4411 Y1.9957 
G01 X0.4356 Y1.9980 
G01 X0.4306 Y2.0013 
G01 X0.4263 Y2.0056 
G01 X0.4230 Y2.0106 
G01 X0.4207 Y2.0161 
G01 X0.4195 Y2.0220 
G01 X0.4195 Y2.0280 
G01 X0.4207 Y2.0339 
G01 X0.4230 Y2.0394 
G01 X0.4263 Y2.0444 
G01 X0.4306 Y2.0487 
G01 X0.4356 Y2.0520 
G01 X0.4411 Y2.0543 
G01 X0.4470 Y2.0555 
G01 X0.8780 Y2.0555 
G01 X0.8839 Y2.0543 
G01 X0.8894 Y2.0520 
G01 X0.8944 Y2.0487 
G01 X0.8987 Y2.0444 
G00 Z0.1000 
G00 X0.7790 Y2.1361 
G01 Z-0.0070 F10.00 
G01 X0.7733 Y2.1319 F20.00 
G01 X0.7671 Y2.1288 
G01 X0.7604 Y2.1266 
G01 X0.7535 Y2.1255 
G01 X0.7465 Y2.1255 
G01 X0.7396 Y2.1266 
G01 X0.7329 Y2.1288 
G01 X0.7267 Y2.1319 
G01 X0.7210 Y2.1361 
G01 X0.7161 Y2.1410 
G01 X0.7119 Y2.1467 
G01 X0.7088 Y2.1529 
G01 X0.7066 Y2.1596 
G01 X0.7055 Y2.1665 
G01 X0.7055 Y2.2335 
G01 X0.7066 Y2.2404 
G01 X0.7088 Y2.2471 
G01 X0.7119 Y2.2533 
G01 X0.7161 Y2.2590 
G01 X0.7210 Y2.2639 
G01 X0.7267 Y2.2681 
G01 X0.7329 Y2.2712 
G01 X0.7396 Y2.2734 
G01 X0.7465 Y2.2745 
G01 X0.7535 Y2.2745 
G01 X0.7604 Y2.2734 
G01 X0.7671 Y2.2712 
G01 X0.7733 Y2.2681 
G01 X0.7790 Y2.2639 
G01 X0.7839 Y2.2590 
G01 X0.7881 Y2.2533 
G01 X0.7912 Y2.2471 
G01 X0.7934 Y2.2404 
G01 X0.7945 Y2.2335 
G01 X0.7945 Y2.1665 
G01 X0.7934 Y2.1596 
G01 X0.7912 Y2.1529 
G01 X0.7881 Y2.1467 
G01 X0.7839 Y2.1410 
G01 X0.7790 Y2.1361 
G00 Z0.1000 
G00 X0.6790 Y2.1361 
G01 Z-0.0070 F10.00 
G01 X0.6733 Y2.1319 F20.00 
G01 X0.6671 Y2.1288 
G01 X0.6604 Y2.1266 
G01 X0.6535 Y2.1255 
G01 X0.6465 Y2.1255 
G01 X0.6396 Y2.1266 
G01 X0.6329 Y2.1288 
G01 X0.6267 Y2.1319 
G01 X0.6210 Y2.1361 
G01 X0.6161 Y2.1410 
G01 X0.6119 Y2.1467 
G01 X0.6088 Y2.1529 
G01 X0.6066 Y2.1596 
G01 X0.6055 Y2.1665 
G01 X0.6055 Y2.2335 
G01 X0.6066 Y2.2404 
G01 X0.6088 Y2.2471 
G01 X0.6119 Y2.2533 
G01 X0.6161 Y2.2590 
G01 X0.6210 Y2.2639 
G01 X0.6267 Y2.2681 
G01 X0.6329 Y2.2712 
G01 X0.6396 Y2.2734 
G01 X0.6465 Y2.2745 
G01 X0.6535 Y2.2745 
G01 X0.6604 Y2.2734 
G01 X0.6671 Y2.2712 
G01 X0.6733 Y2.2681 
G01 X0.6790 Y2.2639 
G01 X0.6839 Y2.2590 
G01 X0.6881 Y2.2533 
G01 X0.6912 Y2.2471 
G01 X0.6934 Y2.2404 
G01 X0.6945 Y2.2335 
G01 X0.6945 Y2.1665 
G01 X0.6934 Y2.1596 
G01 X0.6912 Y2.1529 
G01 X0.6881 Y2.1467 
G01 X0.6839 Y2.1410 
G01 X0.6790 Y2.1361 
G00 Z0.1000 
G00 X0.5790 Y2.1361 
G01 Z-0.0070 F10.00 
G01 X0.5733 Y2.1319 F20.00 
G01 X0.5671 Y2.1288 
G01 X0.5604 Y2.1266 
G01 X0.5535 Y2.1255 
G01 X0.5465 Y2.1255 
G01 X0.5396 Y2.1266 
G01 X0.5329 Y2.1288 
G01 X0.5267 Y2.1319 
G01 X0.5210 Y2.1361 
G01 X0.5161 Y2.1410 
G01 X0.5119 Y2.1467 
G01 X0.5088 Y2.1529 
G01 X0.5066 Y2.1596 
G01 X0.5055 Y2.1665 
G01 X0.5055 Y2.2335 
G01 X0.5066 Y2.2404 
G01 X0.5088 Y2.2471 
G01 X0.5119 Y2.2533 
G01 X0.5161 Y2.2590 
G01 X0.5210 Y2.2639 
G01 X0.5267 Y2.2681 
G01 X0.5329 Y2.2712 
G01 X0.5396 Y2.2734 
G01 X0.5465 Y2.2745 
G01 X0.5535 Y2.2745 
G01 X0.5604 Y2.2734 
G01 X0.5671 Y2.2712 
G01 X0.5733 Y2.2681 
G01 X0.5790 Y2.2639 
G01 X0.5839 Y2.2590 
G01 X0.5881 Y2.2533 
G01 X0.5912 Y2.2471 
G01 X0.5934 Y2.2404 
G01 X0.5945 Y2.2335 
G01 X0.5945 Y2.1665 
G01 X0.5934 Y2.1596 
G01 X0.5912 Y2.1529 
G01 X0.5881 Y2.1467 
G01 X0.5839 Y2.1410 
G01 X0.5790 Y2.1361 
G00 Z0.1000 
G00 X0.4790 Y2.1361 
G01 Z-0.0070 F10.00 
G01 X0.4733 Y2.1319 F20.00 
G01 X0.4671 Y2.1288 
G01 X0.4604 Y2.1266 
G01 X0.4535 Y2.1255 
G01 X0.4465 Y2.1255 
G01 X0.4396 Y2.1266 
G01 X0.4329 Y2.1288 
G01 X0.4267 Y2.1319 
G01 X0.4210 Y2.1361 
G01 X0.4161 Y2.1410 
G01 X0.4119 Y2.1467 
G01 X0.4088 Y2.1529 
G01 X0.4066 Y2.1596 
G01 X0.4055 Y2.1665 
G01 X0.4055 Y2.2335 
G01 X0.4066 Y2.2404 
G01 X0.4088 Y2.2471 
G01 X0.4119 Y2.2533 
G01 X0.4161 Y2.2590 
G01 X0.4210 Y2.2639 
G01 X0.4267 Y2.2681 
G01 X0.4329 Y2.2712 
G01 X0.4396 Y2.2734 
G01 X0.4465 Y2.2745 
G01 X0.4535 Y2.2745 
G01 X0.4604 Y2.2734 
G01 X0.4671 Y2.2712 
G01 X0.4733 Y2.2681 
G01 X0.4790 Y2.2639 
G01 X0.4839 Y2.2590 
G01 X0.4881 Y2.2533 
G01 X0.4912 Y2.2471 
G01 X0.4934 Y2.2404 
G01 X0.4945 Y2.2335 
G01 X0.4945 Y2.1665 
G01 X0.4934 Y2.1596 
G01 X0.4912 Y2.1529 
G01 X0.4881 Y2.1467 
G01 X0.4839 Y2.1410 
G01 X0.4790 Y2.1361 
G00 Z0.1000 
G00 X1.3661 Y2.1410 
G01 Z-0.0070 F10.00 
G01 X1.3619 Y2.1467 F20.00 
G01 X1.3588 Y2.1529 
G01 X1.3566 Y2.1596 
G01 X1.3555 Y2.1665 
G01 X1.3555 Y2.2335 
G01 X1.3566 Y2.2404 
G01 X1.3588 Y2.2471 
G01 X1.3619 Y2.2533 
G01 X1.3661 Y2.2590 
G01 X1.3710 Y2.2639 
G01 X1.3767 Y2.2681 
G01 X1.3829 Y2.2712 
G01 X1.3896 Y2.2734 
G01 X1.3965 Y2.2745 
G01 X1.4035 Y2.2745 
G01 X1.4104 Y2.2734 
G01 X1.4171 Y2.2712 
G01 X1.4233 Y2.2681 
G01 X1.4290 Y2.2639 
G01 X1.4339 Y2.2590 
G01 X1.4381 Y2.2533 
G01 X1.4412 Y2.2471 
G01 X1.4434 Y2.2404 
G01 X1.4445 Y2.2335 
G01 X1.4445 Y2.1665 
G01 X1.4434 Y2.1596 
G01 X1.4412 Y2.1529 
G01 X1.4381 Y2.1467 
G01 X1.4339 Y2.1410 
G01 X1.4290 Y2.1361 
G01 X1.4233 Y2.1319 
G01 X1.4171 Y2.1288 
G01 X1.4104 Y2.1266 
G01 X1.4035 Y2.1255 
G01 X1.3965 Y2.1255 
G01 X1.3896 Y2.1266 
G01 X1.3829 Y2.1288 
G01 X1.3767 Y2.1319 
G01 X1.3710 Y2.1361 
G01 X1.3661 Y2.1410 
G00 Z0.1000 
G00 X0.4122 Y0.1878 
G01 Z-0.0070 F10.00 
G01 X0.4077 Y0.1941 F20.00 
G01 X0.4041 Y0.2010 
G01 X0.4017 Y0.2084 
G01 X0.4005 Y0.2161 
G01 X0.4005 Y0.2839 
G01 X0.4017 Y0.2916 
G01 X0.4041 Y0.2990 
G01 X0.4077 Y0.3059 
G01 X0.4122 Y0.3122 
G01 X0.4178 Y0.3178 
G01 X0.4241 Y0.3223 
G01 X0.4310 Y0.3259 
G01 X0.4384 Y0.3283 
G01 X0.4461 Y0.3295 
G01 X0.4539 Y0.3295 
G01 X0.4616 Y0.3283 
G01 X0.4690 Y0.3259 
G01 X0.4759 Y0.3223 
G01 X0.4822 Y0.3178 
G01 X0.4878 Y0.3122 
G01 X0.4923 Y0.3059 
G01 X0.4959 Y0.2990 
G01 X0.4983 Y0.2916 
G01 X0.4995 Y0.2839 
G01 X0.4995 Y0.2161 
G01 X0.4983 Y0.2084 
G01 X0.4959 Y0.2010 
G01 X0.4923 Y0.1941 
G01 X0.4878 Y0.1878 
G01 X0.4822 Y0.1822 
G01 X0.4759 Y0.1777 
G01 X0.4690 Y0.1741 
G01 X0.4616 Y0.1717 
G01 X0.4539 Y0.1705 
G01 X0.4461 Y0.1705 
G01 X0.4384 Y0.1717 
G01 X0.4310 Y0.1741 
G01 X0.4241 Y0.1777 
G01 X0.4178 Y0.1822 
G01 X0.4122 Y0.1878 
G00 Z0.1000 
G00 X0.5122 Y0.1878 
G01 Z-0.0070 F10.00 
G01 X0.5077 Y0.1941 F20.00 
G01 X0.5041 Y0.2010 
G01 X0.5017 Y0.2084 
G01 X0.5005 Y0.2161 
G01 X0.5005 Y0.2839 
G01 X0.5017 Y0.2916 
G01 X0.5041 Y0.2990 
G01 X0.5077 Y0.3059 
G01 X0.5122 Y0.3122 
G01 X0.5178 Y0.3178 
G01 X0.5241 Y0.3223 
G01 X0.5310 Y0.3259 
G01 X0.5384 Y0.3283 
G01 X0.5461 Y0.3295 
G01 X0.5539 Y0.3295 
G01 X0.5616 Y0.3283 
G01 X0.5690 Y0.3259 
G01 X0.5759 Y0.3223 
G01 X0.5822 Y0.3178 
G01 X0.5878 Y0.3122 
G01 X0.5923 Y0.3059 
G01 X0.5959 Y0.2990 
G01 X0.5983 Y0.2916 
G01 X0.5995 Y0.2839 
G01 X0.5995 Y0.2161 
G01 X0.5983 Y0.2084 
G01 X0.5959 Y0.2010 
G01 X0.5923 Y0.1941 
G01 X0.5878 Y0.1878 
G01 X0.5822 Y0.1822 
G01 X0.5759 Y0.1777 
G01 X0.5690 Y0.1741 
G01 X0.5616 Y0.1717 
G01 X0.5539 Y0.1705 
G01 X0.5461 Y0.1705 
G01 X0.5384 Y0.1717 
G01 X0.5310 Y0.1741 
G01 X0.5241 Y0.1777 
G01 X0.5178 Y0.1822 
G01 X0.5122 Y0.1878 
G00 Z0.1000 
G00 X0.6122 Y0.1878 
G01 Z-0.0070 F10.00 
G01 X0.6077 Y0.1941 F20.00 
G01 X0.6041 Y0.2010 
G01 X0.6017 Y0.2084 
G01 X0.6005 Y0.2161 
G01 X0.6005 Y0.2839 
G01 X0.6017 Y0.2916 
G01 X0.6041 Y0.2990 
G01 X0.6077 Y0.3059 
G01 X0.6122 Y0.3122 
G01 X0.6178 Y0.3178 
G01 X0.6241 Y0.3223 
G01 X0.6310 Y0.3259 
G01 X0.6384 Y0.3283 
G01 X0.6461 Y0.3295 
G01 X0.6539 Y0.3295 
G01 X0.6616 Y0.3283 
G01 X0.6690 Y0.3259 
G01 X0.6759 Y0.3223 
G01 X0.6822 Y0.3178 
G01 X0.6878 Y0.3122 
G01 X0.6923 Y0.3059 
G01 X0.6959 Y0.2990 
G01 X0.6983 Y0.2916 
G01 X0.6995 Y0.2839 
G01 X0.6995 Y0.2161 
G01 X0.6983 Y0.2084 
G01 X0.6959 Y0.2010 
G01 X0.6923 Y0.1941 
G01 X0.6878 Y0.1878 
G01 X0.6822 Y0.1822 
G01 X0.6759 Y0.1777 
G01 X0.6690 Y0.1741 
G01 X0.6616 Y0.1717 
G01 X0.6539 Y0.1705 
G01 X0.6461 Y0.1705 
G01 X0.6384 Y0.1717 
G01 X0.6310 Y0.1741 
G01 X0.6241 Y0.1777 
G01 X0.6178 Y0.1822 
G01 X0.6122 Y0.1878 
G00 Z0.1000 
G00 X0.7122 Y0.1878 
G01 Z-0.0070 F10.00 
G01 X0.7077 Y0.1941 F20.00 
G01 X0.7041 Y0.2010 
G01 X0.7017 Y0.2084 
G01 X0.7005 Y0.2161 
G01 X0.7005 Y0.2839 
G01 X0.7017 Y0.2916 
G01 X0.7041 Y0.2990 
G01 X0.7077 Y0.3059 
G01 X0.7122 Y0.3122 
G01 X0.7178 Y0.3178 
G01 X0.7241 Y0.3223 
G01 X0.7310 Y0.3259 
G01 X0.7384 Y0.3283 
G01 X0.7461 Y0.3295 
G01 X0.7539 Y0.3295 
G01 X0.7616 Y0.3283 
G01 X0.7690 Y0.3259 
G01 X0.7759 Y0.3223 
G01 X0.7822 Y0.3178 
G01 X0.7878 Y0.3122 
G01 X0.7923 Y0.3059 
G01 X0.7959 Y0.2990 
G01 X0.7983 Y0.2916 
G01 X0.7995 Y0.2839 
G01 X0.7995 Y0.2161 
G01 X0.7983 Y0.2084 
G01 X0.7959 Y0.2010 
G01 X0.7923 Y0.1941 
G01 X0.7878 Y0.1878 
G01 X0.7822 Y0.1822 
G01 X0.7759 Y0.1777 
G01 X0.7690 Y0.1741 
G01 X0.7616 Y0.1717 
G01 X0.7539 Y0.1705 
G01 X0.7461 Y0.1705 
G01 X0.7384 Y0.1717 
G01 X0.7310 Y0.1741 
G01 X0.7241 Y0.1777 
G01 X0.7178 Y0.1822 
G01 X0.7122 Y0.1878 
G00 Z0.1000 
G00 X0.8724 Y0.3024 
G01 Z-0.0070 F10.00 
G01 X0.8685 Y0.3082 F20.00 
G01 X0.8659 Y0.3146 
G01 X0.8645 Y0.3215 
G01 X0.8645 Y0.3603 
G01 X0.7603 Y0.4645 
G01 X0.5215 Y0.4645 
G01 X0.5146 Y0.4659 
G01 X0.5082 Y0.4685 
G01 X0.5024 Y0.4724 
G01 X0.4224 Y0.5524 
G01 X0.4185 Y0.5582 
G01 X0.4159 Y0.5646 
G01 X0.4145 Y0.5715 
G01 X0.4145 Y0.5785 
G01 X0.4159 Y0.5854 
G01 X0.4185 Y0.5918 
G01 X0.4224 Y0.5976 
G01 X0.4274 Y0.6026 
G01 X0.4332 Y0.6065 
G01 X0.4396 Y0.6091 
G01 X0.4465 Y0.6105 
G01 X0.4535 Y0.6105 
G01 X0.4604 Y0.6091 
G01 X0.4668 Y0.6065 
G01 X0.4726 Y0.6026 
G01 X0.5397 Y0.5355 
G01 X0.7785 Y0.5355 
G01 X0.7854 Y0.5341 
G01 X0.7918 Y0.5315 
G01 X0.7976 Y0.5276 
G01 X0.8026 Y0.5226 
G01 X0.9276 Y0.3976 
G01 X0.9315 Y0.3918 
G01 X0.9341 Y0.3854 
G01 X0.9355 Y0.3785 
G01 X0.9355 Y0.3215 
G01 X0.9341 Y0.3146 
G01 X0.9315 Y0.3082 
G01 X0.9276 Y0.3024 
G01 X0.9226 Y0.2974 
G01 X0.9168 Y0.2935 
G01 X0.9104 Y0.2909 
G01 X0.9035 Y0.2895 
G01 X0.8965 Y0.2895 
G01 X0.8896 Y0.2909 
G01 X0.8832 Y0.2935 
G01 X0.8774 Y0.2974 
G01 X0.8724 Y0.3024 
G00 Z0.1000 
G00 X1.0041 Y0.2990 
G01 Z-0.0070 F10.00 
G01 X1.0077 Y0.3059 F20.00 
G01 X1.0122 Y0.3122 
G01 X1.0178 Y0.3178 
G01 X1.0241 Y0.3223 
G01 X1.0310 Y0.3259 
G01 X1.0384 Y0.3283 
G01 X1.0461 Y0.3295 
G01 X1.0539 Y0.3295 
G01 X1.0616 Y0.3283 
G01 X1.0690 Y0.3259 
G01 X1.0759 Y0.3223 
G01 X1.0822 Y0.3178 
G01 X1.0878 Y0.3122 
G01 X1.0923 Y0.3059 
G01 X1.0959 Y0.2990 
G01 X1.0983 Y0.2916 
G01 X1.0995 Y0.2839 
G01 X1.0995 Y0.2161 
G01 X1.0983 Y0.2084 
G01 X1.0959 Y0.2010 
G01 X1.0923 Y0.1941 
G01 X1.0878 Y0.1878 
G01 X1.0822 Y0.1822 
G01 X1.0759 Y0.1777 
G01 X1.0690 Y0.1741 
G01 X1.0616 Y0.1717 
G01 X1.0539 Y0.1705 
G01 X1.0461 Y0.1705 
G01 X1.0384 Y0.1717 
G01 X1.0310 Y0.1741 
G01 X1.0241 Y0.1777 
G01 X1.0178 Y0.1822 
G01 X1.0122 Y0.1878 
G01 X1.0077 Y0.1941 
G01 X1.0041 Y0.2010 
G01 X1.0017 Y0.2084 
G01 X1.0005 Y0.2161 
G01 X1.0005 Y0.2839 
G01 X1.0017 Y0.2916 
G01 X1.0041 Y0.2990 
G00 Z0.1000 
G00 X1.1041 Y0.2990 
G01 Z-0.0070 F10.00 
G01 X1.1077 Y0.3059 F20.00 
G01 X1.1122 Y0.3122 
G01 X1.1178 Y0.3178 
G01 X1.1241 Y0.3223 
G01 X1.1310 Y0.3259 
G01 X1.1384 Y0.3283 
G01 X1.1461 Y0.3295 
G01 X1.1539 Y0.3295 
G01 X1.1616 Y0.3283 
G01 X1.1690 Y0.3259 
G01 X1.1759 Y0.3223 
G01 X1.1822 Y0.3178 
G01 X1.1878 Y0.3122 
G01 X1.1923 Y0.3059 
G01 X1.1959 Y0.2990 
G01 X1.1983 Y0.2916 
G01 X1.1995 Y0.2839 
G01 X1.1995 Y0.2161 
G01 X1.1983 Y0.2084 
G01 X1.1959 Y0.2010 
G01 X1.1923 Y0.1941 
G01 X1.1878 Y0.1878 
G01 X1.1822 Y0.1822 
G01 X1.1759 Y0.1777 
G01 X1.1690 Y0.1741 
G01 X1.1616 Y0.1717 
G01 X1.1539 Y0.1705 
G01 X1.1461 Y0.1705 
G01 X1.1384 Y0.1717 
G01 X1.1310 Y0.1741 
G01 X1.1241 Y0.1777 
G01 X1.1178 Y0.1822 
G01 X1.1122 Y0.1878 
G01 X1.1077 Y0.1941 
G01 X1.1041 Y0.2010 
G01 X1.1017 Y0.2084 
G01 X1.1005 Y0.2161 
G01 X1.1005 Y0.2839 
G01 X1.1017 Y0.2916 
G01 X1.1041 Y0.2990 
G00 Z0.1000 
G00 X1.2041 Y0.2990 
G01 Z-0.0070 F10.00 
G01 X1.2077 Y0.3059 F20.00 
G01 X1.2122 Y0.3122 
G01 X1.2178 Y0.3178 
G01 X1.2241 Y0.3223 
G01 X1.2310 Y0.3259 
G01 X1.2384 Y0.3283 
G01 X1.2461 Y0.3295 
G01 X1.2539 Y0.3295 
G01 X1.2616 Y0.3283 
G01 X1.2690 Y0.3259 
G01 X1.2759 Y0.3223 
G01 X1.2822 Y0.3178 
G01 X1.2878 Y0.3122 
G01 X1.2923 Y0.3059 
G01 X1.2959 Y0.2990 
G01 X1.2983 Y0.2916 
G01 X1.2995 Y0.2839 
G01 X1.2995 Y0.2161 
G01 X1.2983 Y0.2084 
G01 X1.2959 Y0.2010 
G01 X1.2923 Y0.1941 
G01 X1.2878 Y0.1878 
G01 X1.2822 Y0.1822 
G01 X1.2759 Y0.1777 
G01 X1.2690 Y0.1741 
G01 X1.2616 Y0.1717 
G01 X1.2539 Y0.1705 
G01 X1.2461 Y0.1705 
G01 X1.2384 Y0.1717 
G01 X1.2310 Y0.1741 
G01 X1.2241 Y0.1777 
G01 X1.2178 Y0.1822 
G01 X1.2122 Y0.1878 
G01 X1.2077 Y0.1941 
G01 X1.2041 Y0.2010 
G01 X1.2017 Y0.2084 
G01 X1.2005 Y0.2161 
G01 X1.2005 Y0.2839 
G01 X1.2017 Y0.2916 
G01 X1.2041 Y0.2990 
G00 Z0.1000 
G00 X1.3041 Y0.2990 
G01 Z-0.0070 F10.00 
G01 X1.3077 Y0.3059 F20.00 
G01 X1.3122 Y0.3122 
G01 X1.3178 Y0.3178 
G01 X1.3241 Y0.3223 
G01 X1.3310 Y0.3259 
G01 X1.3384 Y0.3283 
G01 X1.3461 Y0.3295 
G01 X1.3539 Y0.3295 
G01 X1.3616 Y0.3283 
G01 X1.3690 Y0.3259 
G01 X1.3759 Y0.3223 
G01 X1.3822 Y0.3178 
G01 X1.3878 Y0.3122 
G01 X1.3923 Y0.3059 
G01 X1.3959 Y0.2990 
G01 X1.3983 Y0.2916 
G01 X1.3995 Y0.2839 
G01 X1.3995 Y0.2161 
G01 X1.3983 Y0.2084 
G01 X1.3959 Y0.2010 
G01 X1.3923 Y0.1941 
G01 X1.3878 Y0.1878 
G01 X1.3822 Y0.1822 
G01 X1.3759 Y0.1777 
G01 X1.3690 Y0.1741 
G01 X1.3616 Y0.1717 
G01 X1.3539 Y0.1705 
G01 X1.3461 Y0.1705 
G01 X1.3384 Y0.1717 
G01 X1.3310 Y0.1741 
G01 X1.3241 Y0.1777 
G01 X1.3178 Y0.1822 
G01 X1.3122 Y0.1878 
G01 X1.3077 Y0.1941 
G01 X1.3041 Y0.2010 
G01 X1.3017 Y0.2084 
G01 X1.3005 Y0.2161 
G01 X1.3005 Y0.2839 
G01 X1.3017 Y0.2916 
G01 X1.3041 Y0.2990 
G00 Z0.1000 
G00 X1.2862 Y0.6717 
G01 Z-0.0070 F10.00 
G01 X1.2791 Y0.6665 F20.00 
G01 X1.2713 Y0.6626 
G01 X1.2630 Y0.6599 
G01 X1.2544 Y0.6585 
G01 X1.2456 Y0.6585 
G01 X1.2370 Y0.6599 
G01 X1.2287 Y0.6626 
G01 X1.2209 Y0.6665 
G01 X1.2138 Y0.6717 
G01 X1.2077 Y0.6778 
G01 X1.2025 Y0.6849 
G01 X1.2000 Y0.6899 
G01 X1.1975 Y0.6849 
G01 X1.1923 Y0.6778 
G01 X1.1862 Y0.6717 
G01 X1.1791 Y0.6665 
G01 X1.1713 Y0.6626 
G01 X1.1630 Y0.6599 
G01 X1.1544 Y0.6585 
G01 X1.1456 Y0.6585 
G01 X1.1370 Y0.6599 
G01 X1.1287 Y0.6626 
G01 X1.1209 Y0.6665 
G01 X1.1138 Y0.6717 
G01 X1.1077 Y0.6778 
G01 X1.1025 Y0.6849 
G01 X1.1000 Y0.6899 
G01 X1.0975 Y0.6849 
G01 X1.0923 Y0.6778 
G01 X1.0862 Y0.6717 
G01 X1.0791 Y0.6665 
G01 X1.0713 Y0.6626 
G01 X1.0630 Y0.6599 
G01 X1.0544 Y0.6585 
G01 X1.0456 Y0.6585 
G01 X1.0370 Y0.6599 
G01 X1.0287 Y0.6626 
G01 X1.0209 Y0.6665 
G01 X1.0138 Y0.6717 
G01 X1.0077 Y0.6778 
G01 X1.0025 Y0.6849 
G01 X1.0000 Y0.6899 
G01 X0.9975 Y0.6849 
G01 X0.9923 Y0.6778 
G01 X0.9862 Y0.6717 
G01 X0.9791 Y0.6665 
G01 X0.9713 Y0.6626 
G01 X0.9630 Y0.6599 
G01 X0.9544 Y0.6585 
G01 X0.9456 Y0.6585 
G01 X0.9370 Y0.6599 
G01 X0.9287 Y0.6626 
G01 X0.9209 Y0.6665 
G01 X0.9138 Y0.6717 
G01 X0.9077 Y0.6778 
G01 X0.9025 Y0.6849 
G01 X0.9000 Y0.6899 
G01 X0.8975 Y0.6849 
G01 X0.8923 Y0.6778 
G01 X0.8862 Y0.6717 
G01 X0.8791 Y0.6665 
G01 X0.8713 Y0.6626 
G01 X0.8630 Y0.6599 
G01 X0.8544 Y0.6585 
G01 X0.8456 Y0.6585 
G01 X0.8370 Y0.6599 
G01 X0.8287 Y0.6626 
G01 X0.8209 Y0.6665 
G01 X0.8138 Y0.6717 
G01 X0.8077 Y0.6778 
G01 X0.8025 Y0.6849 
G01 X0.8000 Y0.6899 
G01 X0.7975 Y0.6849 
G01 X0.7923 Y0.6778 
G01 X0.7862 Y0.6717 
G01 X0.7791 Y0.6665 
G01 X0.7713 Y0.6626 
G01 X0.7630 Y0.6599 
G01 X0.7544 Y0.6585 
G01 X0.7456 Y0.6585 
G01 X0.7370 Y0.6599 
G01 X0.7287 Y0.6626 
G01 X0.7209 Y0.6665 
G01 X0.7138 Y0.6717 
G01 X0.7077 Y0.6778 
G01 X0.7025 Y0.6849 
G01 X0.7000 Y0.6899 
G01 X0.6975 Y0.6849 
G01 X0.6923 Y0.6778 
G01 X0.6862 Y0.6717 
G01 X0.6791 Y0.6665 
G01 X0.6713 Y0.6626 
G01 X0.6630 Y0.6599 
G01 X0.6544 Y0.6585 
G01 X0.6456 Y0.6585 
G01 X0.6370 Y0.6599 
G01 X0.6287 Y0.6626 
G01 X0.6209 Y0.6665 
G01 X0.6138 Y0.6717 
G01 X0.6077 Y0.6778 
G01 X0.6025 Y0.6849 
G01 X0.6000 Y0.6899 
G01 X0.5975 Y0.6849 
G01 X0.5923 Y0.6778 
G01 X0.5862 Y0.6717 
G01 X0.5791 Y0.6665 
G01 X0.5713 Y0.6626 
G01 X0.5630 Y0.6599 
G01 X0.5544 Y0.6585 
G01 X0.5456 Y0.6585 
G01 X0.5370 Y0.6599 
G01 X0.5287 Y0.6626 
G01 X0.5209 Y0.6665 
G01 X0.5138 Y0.6717 
G01 X0.5077 Y0.6778 
G01 X0.5025 Y0.6849 
G01 X0.4986 Y0.6927 
G01 X0.4959 Y0.7010 
G01 X0.4945 Y0.7096 
G01 X0.4945 Y0.7904 
G01 X0.4959 Y0.7990 
G01 X0.4986 Y0.8073 
G01 X0.5025 Y0.8151 
G01 X0.5077 Y0.8222 
G01 X0.5138 Y0.8283 
G01 X0.5209 Y0.8335 
G01 X0.5287 Y0.8374 
G01 X0.5370 Y0.8401 
G01 X0.5456 Y0.8415 
G01 X0.5544 Y0.8415 
G01 X0.5630 Y0.8401 
G01 X0.5713 Y0.8374 
G01 X0.5791 Y0.8335 
G01 X0.5862 Y0.8283 
G01 X0.5923 Y0.8222 
G01 X0.5975 Y0.8151 
G01 X0.6000 Y0.8101 
G01 X0.6025 Y0.8151 
G01 X0.6077 Y0.8222 
G01 X0.6138 Y0.8283 
G01 X0.6209 Y0.8335 
G01 X0.6287 Y0.8374 
G01 X0.6370 Y0.8401 
G01 X0.6456 Y0.8415 
G01 X0.6544 Y0.8415 
G01 X0.6630 Y0.8401 
G01 X0.6713 Y0.8374 
G01 X0.6791 Y0.8335 
G01 X0.6862 Y0.8283 
G01 X0.6923 Y0.8222 
G01 X0.6975 Y0.8151 
G01 X0.7000 Y0.8101 
G01 X0.7025 Y0.8151 
G01 X0.7077 Y0.8222 
G01 X0.7138 Y0.8283 
G01 X0.7209 Y0.8335 
G01 X0.7287 Y0.8374 
G01 X0.7370 Y0.8401 
G01 X0.7456 Y0.8415 
G01 X0.7544 Y0.8415 
G01 X0.7630 Y0.8401 
G01 X0.7713 Y0.8374 
G01 X0.7791 Y0.8335 
G01 X0.7862 Y0.8283 
G01 X0.7923 Y0.8222 
G01 X0.7975 Y0.8151 
G01 X0.8000 Y0.8101 
G01 X0.8025 Y0.8151 
G01 X0.8077 Y0.8222 
G01 X0.8138 Y0.8283 
G01 X0.8209 Y0.8335 
G01 X0.8287 Y0.8374 
G01 X0.8370 Y0.8401 
G01 X0.8456 Y0.8415 
G01 X0.8544 Y0.8415 
G01 X0.8630 Y0.8401 
G01 X0.8713 Y0.8374 
G01 X0.8791 Y0.8335 
G01 X0.8862 Y0.8283 
G01 X0.8923 Y0.8222 
G01 X0.8975 Y0.8151 
G01 X0.9000 Y0.8101 
G01 X0.9025 Y0.8151 
G01 X0.9077 Y0.8222 
G01 X0.9138 Y0.8283 
G01 X0.9209 Y0.8335 
G01 X0.9287 Y0.8374 
G01 X0.9370 Y0.8401 
G01 X0.9456 Y0.8415 
G01 X0.9544 Y0.8415 
G01 X0.9630 Y0.8401 
G01 X0.9713 Y0.8374 
G01 X0.9791 Y0.8335 
G01 X0.9862 Y0.8283 
G01 X0.9923 Y0.8222 
G01 X0.9975 Y0.8151 
G01 X1.0000 Y0.8101 
G01 X1.0025 Y0.8151 
G01 X1.0077 Y0.8222 
G01 X1.0138 Y0.8283 
G01 X1.0209 Y0.8335 
G01 X1.0287 Y0.8374 
G01 X1.0370 Y0.8401 
G01 X1.0456 Y0.8415 
G01 X1.0544 Y0.8415 
G01 X1.0630 Y0.8401 
G01 X1.0713 Y0.8374 
G01 X1.0791 Y0.8335 
G01 X1.0862 Y0.8283 
G01 X1.0923 Y0.8222 
G01 X1.0975 Y0.8151 
G01 X1.1000 Y0.8101 
G01 X1.1025 Y0.8151 
G01 X1.1077 Y0.8222 
G01 X1.1138 Y0.8283 
G01 X1.1209 Y0.8335 
G01 X1.1287 Y0.8374 
G01 X1.1370 Y0.8401 
G01 X1.1456 Y0.8415 
G01 X1.1544 Y0.8415 
G01 X1.1630 Y0.8401 
G01 X1.1713 Y0.8374 
G01 X1.1791 Y0.8335 
G01 X1.1862 Y0.8283 
G01 X1.1923 Y0.8222 
G01 X1.1975 Y0.8151 
G01 X1.2000 Y0.8101 
G01 X1.2025 Y0.8151 
G01 X1.2077 Y0.8222 
G01 X1.2138 Y0.8283 
G01 X1.2209 Y0.8335 
G01 X1.2287 Y0.8374 
G01 X1.2370 Y0.8401 
G01 X1.2456 Y0.8415 
G01 X1.2544 Y0.8415 
G01 X1.2630 Y0.8401 
G01 X1.2713 Y0.8374 
G01 X1.2791 Y0.8335 
G01 X1.2862 Y0.8283 
G01 X1.2923 Y0.8222 
G01 X1.2975 Y0.8151 
G01 X1.3014 Y0.8073 
G01 X1.3041 Y0.7990 
G01 X1.3055 Y0.7904 
G01 X1.3055 Y0.7096 
G01 X1.3041 Y0.7010 
G01 X1.3014 Y0.6927 
G01 X1.2975 Y0.6849 
G01 X1.2923 Y0.6778 
G01 X1.2862 Y0.6717 
G00 Z0.1000 
G00 X1.2862 Y1.5717 
G01 Z-0.0070 F10.00 
G01 X1.2791 Y1.5665 F20.00 
G01 X1.2713 Y1.5626 
G01 X1.2630 Y1.5599 
G01 X1.2544 Y1.5585 
G01 X1.2456 Y1.5585 
G01 X1.2370 Y1.5599 
G01 X1.2287 Y1.5626 
G01 X1.2209 Y1.5665 
G01 X1.2138 Y1.5717 
G01 X1.2077 Y1.5778 
G01 X1.2025 Y1.5849 
G01 X1.2000 Y1.5899 
G01 X1.1975 Y1.5849 
G01 X1.1923 Y1.5778 
G01 X1.1862 Y1.5717 
G01 X1.1791 Y1.5665 
G01 X1.1713 Y1.5626 
G01 X1.1630 Y1.5599 
G01 X1.1544 Y1.5585 
G01 X1.1456 Y1.5585 
G01 X1.1370 Y1.5599 
G01 X1.1287 Y1.5626 
G01 X1.1209 Y1.5665 
G01 X1.1138 Y1.5717 
G01 X1.1077 Y1.5778 
G01 X1.1025 Y1.5849 
G01 X1.1000 Y1.5899 
G01 X1.0975 Y1.5849 
G01 X1.0923 Y1.5778 
G01 X1.0862 Y1.5717 
G01 X1.0791 Y1.5665 
G01 X1.0713 Y1.5626 
G01 X1.0630 Y1.5599 
G01 X1.0544 Y1.5585 
G01 X1.0456 Y1.5585 
G01 X1.0370 Y1.5599 
G01 X1.0287 Y1.5626 
G01 X1.0209 Y1.5665 
G01 X1.0138 Y1.5717 
G01 X1.0077 Y1.5778 
G01 X1.0025 Y1.5849 
G01 X1.0000 Y1.5899 
G01 X0.9975 Y1.5849 
G01 X0.9923 Y1.5778 
G01 X0.9862 Y1.5717 
G01 X0.9791 Y1.5665 
G01 X0.9713 Y1.5626 
G01 X0.9630 Y1.5599 
G01 X0.9544 Y1.5585 
G01 X0.9456 Y1.5585 
G01 X0.9370 Y1.5599 
G01 X0.9287 Y1.5626 
G01 X0.9209 Y1.5665 
G01 X0.9138 Y1.5717 
G01 X0.9077 Y1.5778 
G01 X0.9025 Y1.5849 
G01 X0.9000 Y1.5899 
G01 X0.8975 Y1.5849 
G01 X0.8923 Y1.5778 
G01 X0.8862 Y1.5717 
G01 X0.8791 Y1.5665 
G01 X0.8713 Y1.5626 
G01 X0.8630 Y1.5599 
G01 X0.8544 Y1.5585 
G01 X0.8456 Y1.5585 
