(.../workspace_github/pcb-gcode/pcb-gcode.ulp)
(Copyright 2005 - 2012 by John Johnson)
(See readme.txt for licensing terms.)
(This file generated from the board:)
(.../WCTRL_3DSENSE/wctrl_3dsense.brd)
(Current profile is .../pcb-gcode/profiles/generic.pp  )
(This file generated 10.02.19 21:46)
(Settings from pcb-machine.h)
(spindle on time = 0.0000)
(spindle speed = 10000.0000)
(tool change at 0.0000 0.0000 12.7000 )
(feed rate xy = F0.00  )
(feed rate z  = F100.00 )
(Z Axis Settings)
(  High     Up        Down     Drill)
(12.7000 	1.0000 	-0.1000 	-2.0000 )
(Settings from pcb-defaults.h)
(isolate min = 0.0000)
(isolate max = 0.2000)
(isolate step = 0.1000)
(Generated bottom outlines, bottom drill, )
(Unit of measure: mm)
( Tool|       Size       |  Min Sub |  Max Sub |   Count )
( T01  0.813mm 0.0320in 0.0000in 0.0000in )
( T02  1.016mm 0.0400in 0.0000in 0.0000in )
( T03  1.300mm 0.0512in 0.0000in 0.0000in )
( T04  2.750mm 0.1083in 0.0000in 0.0000in )
(Metric Mode)
G21
(Absolute Coordinates)
G90
S10000
G00 Z12.7000 
G00 X0.0000 Y0.0000 
M03
G04 P0.000000
M05
M06 T01  ; 0.8128 
G00 Z1.0000 
M03
G04 P0.000000
G00 Z1.000000
G00 X-6.3500 Y27.3050 
G01 Z-2.0000 F100.00 
G01 Z1.000000
(R1.0000  P1.000000)
G00 X-12.7000 Y22.8600 
G01 Z-2.0000 F100.00 
G00 Z1.0000 
G00 X-16.5100 Y27.3050 
G01 Z-2.0000 F100.00 
G00 Z1.0000 
G00 X-16.5100 Y17.7800 
G01 Z-2.0000 F100.00 
G00 Z1.0000 
G00 X-16.5100 Y12.7000 
G01 Z-2.0000 F100.00 
G00 Z1.0000 
G00 X-12.7000 Y12.7000 
G01 Z-2.0000 F100.00 
G00 Z1.0000 
G00 X-26.6700 Y12.7000 
G01 Z-2.0000 F100.00 
G00 Z1.0000 
G00 X-26.6700 Y17.7800 
G01 Z-2.0000 F100.00 
G00 Z1.0000 
G00 X-26.6700 Y21.5900 
G01 Z-2.0000 F100.00 
G00 Z1.0000 
G00 X-27.9400 Y23.4950 
G01 Z-2.0000 F100.00 
G00 Z1.0000 
G00 X-25.4000 Y23.4950 
G01 Z-2.0000 F100.00 
G00 Z1.0000 
G00 X-27.9400 Y27.3050 
G01 Z-2.0000 F100.00 
G00 Z1.0000 
G00 X-26.6700 Y29.2100 
G01 Z-2.0000 F100.00 
G00 Z1.0000 
G00 X-29.2100 Y29.2100 
G01 Z-2.0000 F100.00 
G00 Z1.0000 
M05
G00 Z12.7000 
G00 X0.0000 Y0.0000 
M06 T02  ; 1.0160 
G00 Z1.0000 
M03
G04 P0.000000
G00 Z1.000000
G00 X-8.8900 Y6.9850 
G01 Z-2.0000 F100.00 
G01 Z1.000000
(R1.0000  P1.000000)
G00 X-11.4300 Y6.9850 
G01 Z-2.0000 F100.00 
G00 Z1.0000 
G00 X-24.1300 Y6.9850 
G01 Z-2.0000 F100.00 
G00 Z1.0000 
G00 X-26.6700 Y6.9850 
G01 Z-2.0000 F100.00 
G00 Z1.0000 
G00 X-29.2100 Y6.9850 
G01 Z-2.0000 F100.00 
G00 Z1.0000 
G00 X-29.2100 Y34.2900 
G01 Z-2.0000 F100.00 
G00 Z1.0000 
G00 X-26.6700 Y34.2900 
G01 Z-2.0000 F100.00 
G00 Z1.0000 
M05
G00 Z12.7000 
G00 X0.0000 Y0.0000 
M06 T03  ; 1.3000 
G00 Z1.0000 
M03
G04 P0.000000
G00 Z1.000000
G00 X-8.8900 Y3.5560 
G01 Z-2.0000 F100.00 
G01 Z1.000000
(R1.0000  P1.000000)
G00 X-11.4300 Y3.5560 
G01 Z-2.0000 F100.00 
G00 Z1.0000 
G00 X-24.1300 Y3.5560 
G01 Z-2.0000 F100.00 
G00 Z1.0000 
G00 X-26.6700 Y3.5560 
G01 Z-2.0000 F100.00 
G00 Z1.0000 
G00 X-29.2100 Y3.5560 
G01 Z-2.0000 F100.00 
G00 Z1.0000 
G00 X-29.2100 Y38.1000 
G01 Z-2.0000 F100.00 
G00 Z1.0000 
G00 X-26.6700 Y38.1000 
G01 Z-2.0000 F100.00 
G00 Z1.0000 
M05
G00 Z12.7000 
G00 X0.0000 Y0.0000 
M06 T04  ; 2.7500 
G00 Z1.0000 
M03
G04 P0.000000
G00 Z1.000000
G00 X-3.3850 Y3.0700 
G01 Z-2.0000 F100.00 
G01 Z1.000000
(R1.0000  P1.000000)
G00 X-33.8650 Y3.1750 
G01 Z-2.0000 F100.00 
G00 Z1.0000 
G00 X-33.2300 Y36.8300 
G01 Z-2.0000 F100.00 
G00 Z1.0000 
G00 X-3.3850 Y36.8300 
G01 Z-2.0000 F100.00 
G00 Z1.0000 
T01 
G00 Z12.7000 
M05
M02
