(.../pcb-gcode-3.6.2.4/pcb-gcode.ulp)
(Copyright 2005 - 2012 by John Johnson)
(See readme.txt for licensing terms.)
(This file generated from the board:)
(.../workspace_pcbgcode/WEMOS_GPIO/wemos_gpio_7x.brd)
(Current profile is .../pcb-gcode-3.6.2.4/profiles/generic.pp  )
(This file generated 02.06.2018 20:26)
(Settings from pcb-machine.h)
(spindle on time = 3.0000)
(  Tool Size)
(0.1778 )
(spindle speed = 30000.0000)
(tool change at 0.0000 0.0000 25.4000 )
(feed rate xy = F100.00 )
(feed rate z  = F100.00 )
(Z Axis Settings)
(  High     Up        Down     Drill)
(12.7000 	2.5400 	-0.1778 	-3.0000 )
(Settings from pcb-defaults.h)
(isolate min = 0.0000)
(isolate max = 0.3810)
(isolate step = 0.1016)
(Generated bottom outlines, bottom drill, )
(Unit of measure: mm)
(Metric Mode)
G21
(Absolute Coordinates)
G90
S30000
G00 Z12.7000 
G00 X0.0000 Y0.0000 
M03
G04 P3.000000
G00 Z2.5400 
G00 X-0.9245 Y1.0167 
G01 Z-0.1778 F100.00 
G01 X-1.0167 Y0.9245 F100.00 
G01 X-1.1296 Y0.8592 
G01 X-1.2556 Y0.8255 
G01 X-98.4644 Y0.8255 
G01 X-98.5904 Y0.8592 
G01 X-98.7033 Y0.9245 
G01 X-98.7955 Y1.0167 
G01 X-98.8607 Y1.1296 
G01 X-98.8945 Y1.2556 
G01 X-98.8945 Y68.9744 
G01 X-98.8607 Y69.1004 
G01 X-98.7955 Y69.2133 
G01 X-98.7033 Y69.3055 
G01 X-98.5904 Y69.3707 
G01 X-98.4644 Y69.4045 
G01 X-1.2556 Y69.4045 
G01 X-1.1296 Y69.3707 
G01 X-1.0167 Y69.3055 
G01 X-0.9245 Y69.2133 
G01 X-0.8592 Y69.1004 
G01 X-0.8255 Y68.9744 
G01 X-0.8255 Y58.0208 
G01 X-0.8592 Y57.8949 
G01 X-0.9245 Y57.7819 
G01 X-1.0167 Y57.6897 
G01 X-1.1296 Y57.6245 
G01 X-1.2556 Y57.5908 
G01 X-1.3860 Y57.5908 
G01 X-1.5120 Y57.6245 
G01 X-1.6249 Y57.6897 
G01 X-1.7171 Y57.7819 
G01 X-6.2740 Y62.3388 
G01 X-6.3000 Y62.3587 
G01 X-6.3199 Y62.3847 
G01 X-6.3430 Y62.4078 
G01 X-6.3594 Y62.4362 
G01 X-6.3793 Y62.4622 
G01 X-6.3919 Y62.4924 
G01 X-6.4082 Y62.5208 
G01 X-6.4167 Y62.5524 
G01 X-6.4293 Y62.5827 
G01 X-6.4335 Y62.6151 
G01 X-6.4420 Y62.6468 
G01 X-6.4420 Y62.6795 
G01 X-6.4463 Y62.7120 
G01 X-6.4420 Y62.7444 
G01 X-6.4420 Y62.7772 
G01 X-6.4335 Y62.8088 
G01 X-6.4293 Y62.8413 
G01 X-6.4167 Y62.8715 
G01 X-6.4082 Y62.9031 
G01 X-6.3919 Y62.9315 
G01 X-6.3793 Y62.9618 
G01 X-6.3594 Y62.9877 
G01 X-6.3430 Y63.0161 
G01 X-6.3199 Y63.0392 
G01 X-6.3000 Y63.0652 
G01 X-6.2740 Y63.0851 
G01 X-6.2508 Y63.1083 
G01 X-6.2225 Y63.1247 
G01 X-6.1965 Y63.1446 
G01 X-6.1662 Y63.1571 
G01 X-6.1379 Y63.1735 
G01 X-6.1063 Y63.1820 
G01 X-6.0760 Y63.1945 
G01 X-6.0435 Y63.1988 
G01 X-6.0119 Y63.2073 
G01 X-5.9792 Y63.2073 
G01 X-5.9467 Y63.2115 
G01 X-5.9142 Y63.2073 
G01 X-5.8815 Y63.2073 
G01 X-5.8499 Y63.1988 
G01 X-5.8174 Y63.1945 
G01 X-5.7872 Y63.1820 
G01 X-5.7555 Y63.1735 
G01 X-5.7272 Y63.1571 
G01 X-5.3423 Y62.9977 
G01 X-4.5377 Y62.9977 
G01 X-3.7945 Y63.3056 
G01 X-3.2256 Y63.8745 
G01 X-2.9177 Y64.6177 
G01 X-2.9177 Y65.4223 
G01 X-3.2256 Y66.1655 
G01 X-3.7945 Y66.7344 
G01 X-4.5377 Y67.0423 
G01 X-5.3423 Y67.0423 
G01 X-6.0855 Y66.7344 
G01 X-6.6544 Y66.1655 
G01 X-6.9623 Y65.4223 
G01 X-6.9623 Y64.6177 
G01 X-6.8029 Y64.2328 
G01 X-6.7865 Y64.2045 
G01 X-6.7780 Y64.1728 
G01 X-6.7655 Y64.1426 
G01 X-6.7612 Y64.1101 
G01 X-6.7527 Y64.0785 
G01 X-6.7527 Y64.0458 
G01 X-6.7485 Y64.0133 
G01 X-6.7527 Y63.9808 
G01 X-6.7527 Y63.9481 
G01 X-6.7612 Y63.9165 
G01 X-6.7655 Y63.8840 
G01 X-6.7780 Y63.8537 
G01 X-6.7865 Y63.8221 
G01 X-6.8029 Y63.7938 
G01 X-6.8154 Y63.7635 
G01 X-6.8353 Y63.7375 
G01 X-6.8517 Y63.7092 
G01 X-6.8749 Y63.6860 
G01 X-6.8948 Y63.6600 
G01 X-6.9208 Y63.6401 
G01 X-6.9439 Y63.6170 
G01 X-6.9723 Y63.6006 
G01 X-6.9982 Y63.5806 
G01 X-7.0285 Y63.5681 
G01 X-7.0569 Y63.5517 
G01 X-7.0885 Y63.5433 
G01 X-7.1187 Y63.5307 
G01 X-7.1512 Y63.5265 
G01 X-7.1828 Y63.5180 
G01 X-7.2156 Y63.5180 
G01 X-7.2480 Y63.5137 
G01 X-7.2805 Y63.5180 
G01 X-7.3132 Y63.5180 
G01 X-7.3449 Y63.5265 
G01 X-7.3773 Y63.5307 
G01 X-7.4076 Y63.5433 
G01 X-7.4392 Y63.5517 
G01 X-7.4676 Y63.5681 
G01 X-7.4978 Y63.5806 
G01 X-7.5238 Y63.6006 
G01 X-7.5522 Y63.6170 
G01 X-7.5753 Y63.6401 
G01 X-7.6013 Y63.6600 
G01 X-7.6212 Y63.6860 
G01 X-7.9944 Y64.0592 
G01 X-8.3073 Y64.3721 
G01 X-8.6854 Y64.5287 
G01 X-45.9246 Y64.5287 
G01 X-46.3027 Y64.3721 
G01 X-48.5871 Y62.0877 
G01 X-48.7001 Y62.0224 
G01 X-48.8261 Y61.9887 
G01 X-59.1239 Y61.9887 
G01 X-59.2499 Y62.0224 
G01 X-59.3629 Y62.0877 
G01 X-59.4551 Y62.1799 
G01 X-61.1023 Y63.8271 
G01 X-61.1675 Y63.9401 
G01 X-61.2013 Y64.0660 
G01 X-61.2013 Y66.2446 
G01 X-61.3579 Y66.6227 
G01 X-61.7631 Y67.0279 
G01 X-62.9173 Y68.1821 
G01 X-63.2954 Y68.3387 
G01 X-85.2946 Y68.3387 
G01 X-85.6727 Y68.1821 
G01 X-86.0779 Y67.7769 
G01 X-95.8092 Y58.0456 
G01 X-96.1221 Y57.7327 
G01 X-96.2787 Y57.3546 
G01 X-96.2787 Y29.0054 
G01 X-96.1221 Y28.6273 
G01 X-93.0757 Y25.5809 
G01 X-93.0105 Y25.4679 
G01 X-92.9767 Y25.3419 
G01 X-92.9767 Y22.9099 
G01 X-92.7428 Y22.3451 
G01 X-92.3105 Y21.9128 
G01 X-91.7457 Y21.6789 
G01 X-91.1343 Y21.6789 
G01 X-90.6435 Y21.8822 
G01 X-90.6152 Y21.8986 
G01 X-90.5835 Y21.9070 
G01 X-90.5533 Y21.9196 
G01 X-90.5208 Y21.9238 
G01 X-90.4892 Y21.9323 
G01 X-90.4565 Y21.9323 
G01 X-90.4240 Y21.9366 
G01 X-90.3915 Y21.9323 
G01 X-90.3588 Y21.9323 
G01 X-90.3272 Y21.9238 
G01 X-90.2947 Y21.9196 
G01 X-90.2644 Y21.9070 
G01 X-90.2328 Y21.8986 
G01 X-90.2045 Y21.8822 
G01 X-90.1742 Y21.8697 
G01 X-90.1482 Y21.8497 
G01 X-90.1199 Y21.8334 
G01 X-90.0967 Y21.8102 
G01 X-90.0707 Y21.7903 
G01 X-90.0508 Y21.7643 
G01 X-90.0277 Y21.7411 
G01 X-90.0113 Y21.7128 
G01 X-89.9914 Y21.6868 
G01 X-89.9788 Y21.6566 
G01 X-89.9625 Y21.6282 
G01 X-89.9540 Y21.5966 
G01 X-89.9414 Y21.5663 
G01 X-89.9372 Y21.5339 
G01 X-89.9287 Y21.5022 
G01 X-89.9287 Y21.4695 
G01 X-89.9244 Y21.4370 
G01 X-89.9287 Y21.4045 
G01 X-89.9287 Y13.2609 
G01 X-89.9625 Y13.1350 
G01 X-90.0277 Y13.0220 
G01 X-90.0970 Y12.9527 
G01 X-90.1336 Y12.9161 
G01 X-90.1892 Y12.8605 
G01 X-90.2327 Y12.8354 
G01 X-90.3021 Y12.7953 
G01 X-90.3766 Y12.7754 
G01 X-90.4281 Y12.7616 
G01 X-90.4930 Y12.7616 
G01 X-90.5585 Y12.7616 
G01 X-90.6110 Y12.7756 
G01 X-90.6845 Y12.7953 
G01 X-90.7267 Y12.8197 
G01 X-90.7974 Y12.8605 
G01 X-90.8346 Y12.8977 
G01 X-90.9447 Y12.9781 
G01 X-90.9447 Y12.8844 
G01 X-90.8976 Y12.8529 
G01 X-90.7791 Y12.7344 
G01 X-90.6859 Y12.5951 
G01 X-90.6218 Y12.4402 
G01 X-90.5891 Y12.2758 
G01 X-90.5891 Y10.5842 
G01 X-90.6218 Y10.4198 
G01 X-90.6859 Y10.2649 
G01 X-90.7791 Y10.1256 
G01 X-90.8976 Y10.0071 
G01 X-90.9447 Y9.9756 
G01 X-90.9447 Y9.8819 
G01 X-90.8361 Y9.9608 
G01 X-90.7974 Y9.9994 
G01 X-90.7373 Y10.0342 
G01 X-90.6845 Y10.0647 
G01 X-90.6162 Y10.0830 
G01 X-90.5585 Y10.0984 
G01 X-90.4937 Y10.0984 
G01 X-90.4281 Y10.0984 
G01 X-90.3714 Y10.0832 
G01 X-90.3021 Y10.0647 
G01 X-90.2417 Y10.0298 
G01 X-90.1892 Y9.9995 
G01 X-90.1357 Y9.9460 
G01 X-90.0970 Y9.9073 
G01 X-89.6841 Y9.4944 
G01 X-89.1753 Y9.2837 
G01 X-88.6246 Y9.2837 
G01 X-88.1159 Y9.4944 
G01 X-87.9341 Y9.6762 
G01 X-87.8212 Y9.7414 
G01 X-87.6952 Y9.7751 
G01 X-87.5648 Y9.7751 
G01 X-87.5325 Y9.7665 
G01 X-87.4388 Y9.7414 
G01 X-87.3259 Y9.6762 
G01 X-87.2337 Y9.5840 
G01 X-87.1441 Y9.4944 
G01 X-86.6354 Y9.2837 
G01 X-86.0846 Y9.2837 
G01 X-85.5759 Y9.4944 
G01 X-85.1864 Y9.8839 
G01 X-84.9757 Y10.3926 
G01 X-84.9757 Y12.4673 
G01 X-85.1864 Y12.9761 
G01 X-85.2311 Y13.0208 
G01 X-85.2975 Y13.1350 
G01 X-85.3152 Y13.2008 
G01 X-85.3313 Y13.2609 
G01 X-85.3313 Y16.5789 
G01 X-85.2975 Y16.7049 
G01 X-85.2323 Y16.8179 
G01 X-85.1401 Y16.9101 
G01 X-83.2608 Y18.7894 
G01 X-82.9479 Y19.1023 
G01 X-82.7913 Y19.4804 
G01 X-82.7913 Y21.4045 
G01 X-82.7956 Y21.4370 
G01 X-82.7913 Y21.4695 
G01 X-82.7913 Y21.5022 
G01 X-82.7828 Y21.5339 
G01 X-82.7785 Y21.5663 
G01 X-82.7660 Y21.5966 
G01 X-82.7575 Y21.6282 
G01 X-82.7412 Y21.6566 
G01 X-82.7286 Y21.6868 
G01 X-82.7087 Y21.7128 
G01 X-82.6923 Y21.7411 
G01 X-82.6692 Y21.7643 
G01 X-82.6492 Y21.7903 
G01 X-82.6233 Y21.8102 
G01 X-82.6001 Y21.8334 
G01 X-82.5718 Y21.8497 
G01 X-82.5458 Y21.8697 
G01 X-82.5155 Y21.8822 
G01 X-82.4872 Y21.8986 
G01 X-82.4556 Y21.9070 
G01 X-82.4253 Y21.9196 
G01 X-82.3928 Y21.9238 
G01 X-82.3612 Y21.9323 
G01 X-82.3285 Y21.9323 
G01 X-82.2960 Y21.9366 
G01 X-82.2635 Y21.9323 
G01 X-82.2308 Y21.9323 
G01 X-82.1992 Y21.9238 
G01 X-82.1667 Y21.9196 
G01 X-82.1365 Y21.9070 
G01 X-82.1048 Y21.8986 
G01 X-82.0765 Y21.8822 
G01 X-81.5857 Y21.6789 
G01 X-80.9743 Y21.6789 
G01 X-80.4095 Y21.9128 
G01 X-80.3141 Y22.0083 
G01 X-80.2339 Y22.0546 
G01 X-80.2012 Y22.0735 
G01 X-80.1441 Y22.0887 
G01 X-80.0752 Y22.1072 
G01 X-79.9448 Y22.1072 
G01 X-79.8787 Y22.0895 
G01 X-79.8188 Y22.0735 
G01 X-79.8028 Y22.0642 
G01 X-79.7059 Y22.0083 
G01 X-79.6137 Y21.9160 
G01 X-79.6105 Y21.9128 
G01 X-79.0457 Y21.6789 
G01 X-78.4343 Y21.6789 
G01 X-77.8695 Y21.9128 
G01 X-77.8663 Y21.9160 
G01 X-77.7774 Y22.0050 
G01 X-77.7741 Y22.0083 
G01 X-77.6801 Y22.0625 
G01 X-77.6612 Y22.0735 
G01 X-77.6042 Y22.0887 
G01 X-77.5352 Y22.1072 
G01 X-77.4048 Y22.1072 
G01 X-77.3387 Y22.0895 
G01 X-77.2788 Y22.0735 
G01 X-77.2511 Y22.0574 
G01 X-77.1659 Y22.0083 
G01 X-77.0737 Y21.9160 
G01 X-77.0705 Y21.9128 
G01 X-76.5057 Y21.6789 
G01 X-75.8943 Y21.6789 
G01 X-75.3295 Y21.9128 
G01 X-75.3263 Y21.9160 
G01 X-75.2374 Y22.0050 
G01 X-75.2341 Y22.0083 
G01 X-75.1401 Y22.0625 
G01 X-75.1212 Y22.0735 
G01 X-75.0642 Y22.0887 
G01 X-74.9952 Y22.1072 
G01 X-74.8648 Y22.1072 
G01 X-74.7987 Y22.0895 
G01 X-74.7388 Y22.0735 
G01 X-74.7111 Y22.0574 
G01 X-74.6259 Y22.0083 
G01 X-74.5337 Y21.9160 
G01 X-74.5305 Y21.9128 
G01 X-73.9657 Y21.6789 
G01 X-73.3543 Y21.6789 
G01 X-72.7895 Y21.9128 
G01 X-72.3572 Y22.3451 
G01 X-72.1233 Y22.9099 
G01 X-72.1233 Y25.3501 
G01 X-72.3572 Y25.9149 
G01 X-72.7895 Y26.3471 
G01 X-73.3543 Y26.5811 
G01 X-73.9657 Y26.5811 
G01 X-74.5305 Y26.3471 
G01 X-74.6259 Y26.2517 
G01 X-74.7061 Y26.2054 
G01 X-74.7388 Y26.1865 
G01 X-74.7959 Y26.1713 
G01 X-74.8648 Y26.1528 
G01 X-74.9952 Y26.1528 
G01 X-75.0613 Y26.1705 
G01 X-75.1212 Y26.1865 
G01 X-75.1372 Y26.1958 
G01 X-75.2341 Y26.2517 
G01 X-75.3263 Y26.3440 
G01 X-75.3295 Y26.3472 
G01 X-75.8943 Y26.5811 
G01 X-76.5057 Y26.5811 
G01 X-77.0705 Y26.3471 
G01 X-77.1659 Y26.2517 
G01 X-77.2461 Y26.2054 
G01 X-77.2788 Y26.1865 
G01 X-77.3359 Y26.1713 
G01 X-77.4048 Y26.1528 
G01 X-77.5352 Y26.1528 
G01 X-77.6013 Y26.1705 
G01 X-77.6612 Y26.1865 
G01 X-77.6772 Y26.1958 
G01 X-77.7741 Y26.2517 
G01 X-77.8663 Y26.3440 
G01 X-77.8695 Y26.3472 
G01 X-78.4343 Y26.5811 
G01 X-79.0457 Y26.5811 
G01 X-79.6105 Y26.3472 
G01 X-79.6137 Y26.3440 
G01 X-79.7026 Y26.2550 
G01 X-79.7059 Y26.2517 
G01 X-79.7999 Y26.1975 
G01 X-79.8188 Y26.1865 
G01 X-79.8758 Y26.1713 
G01 X-79.9448 Y26.1528 
G01 X-80.0752 Y26.1528 
G01 X-80.1413 Y26.1705 
G01 X-80.2012 Y26.1865 
G01 X-80.2289 Y26.2026 
G01 X-80.3141 Y26.2517 
G01 X-80.4063 Y26.3439 
G01 X-80.4095 Y26.3471 
G01 X-80.9743 Y26.5811 
G01 X-81.5857 Y26.5811 
G01 X-82.1505 Y26.3471 
G01 X-82.2459 Y26.2517 
G01 X-82.3261 Y26.2054 
G01 X-82.3588 Y26.1865 
G01 X-82.4159 Y26.1713 
G01 X-82.4848 Y26.1528 
G01 X-82.6152 Y26.1528 
G01 X-82.6813 Y26.1705 
G01 X-82.7412 Y26.1865 
G01 X-82.7572 Y26.1958 
G01 X-82.8541 Y26.2517 
G01 X-82.9463 Y26.3440 
G01 X-82.9495 Y26.3472 
G01 X-83.5143 Y26.5811 
G01 X-84.1257 Y26.5811 
G01 X-84.6905 Y26.3471 
G01 X-84.7859 Y26.2517 
G01 X-84.8661 Y26.2054 
G01 X-84.8988 Y26.1865 
G01 X-84.9559 Y26.1713 
G01 X-85.0248 Y26.1528 
G01 X-85.1552 Y26.1528 
G01 X-85.2213 Y26.1705 
G01 X-85.2812 Y26.1865 
G01 X-85.2972 Y26.1958 
G01 X-85.3941 Y26.2517 
G01 X-85.4863 Y26.3440 
G01 X-85.4895 Y26.3472 
G01 X-86.0543 Y26.5811 
G01 X-86.6657 Y26.5811 
G01 X-87.2305 Y26.3471 
G01 X-87.3259 Y26.2517 
G01 X-87.4061 Y26.2054 
G01 X-87.4388 Y26.1865 
G01 X-87.4959 Y26.1713 
G01 X-87.5648 Y26.1528 
G01 X-87.6952 Y26.1528 
G01 X-87.7613 Y26.1705 
G01 X-87.8212 Y26.1865 
G01 X-87.8372 Y26.1958 
G01 X-87.9341 Y26.2517 
G01 X-88.0263 Y26.3440 
G01 X-88.0295 Y26.3472 
G01 X-88.5943 Y26.5811 
G01 X-89.2057 Y26.5811 
G01 X-89.7705 Y26.3471 
G01 X-89.8659 Y26.2517 
G01 X-89.9461 Y26.2054 
G01 X-89.9788 Y26.1865 
G01 X-90.0359 Y26.1713 
G01 X-90.1048 Y26.1528 
G01 X-90.2352 Y26.1528 
G01 X-90.3013 Y26.1705 
G01 X-90.3612 Y26.1865 
G01 X-90.3772 Y26.1958 
G01 X-90.4741 Y26.2517 
G01 X-90.5663 Y26.3440 
G01 X-90.5695 Y26.3471 
G01 X-91.0679 Y26.5536 
G01 X-91.0995 Y26.5620 
G01 X-91.1279 Y26.5784 
G01 X-91.1581 Y26.5910 
G01 X-91.1841 Y26.6109 
G01 X-91.2125 Y26.6273 
G01 X-91.2356 Y26.6504 
G01 X-91.2616 Y26.6703 
G01 X-91.2815 Y26.6963 
G01 X-94.1223 Y29.5371 
G01 X-94.1875 Y29.6501 
G01 X-94.2213 Y29.7761 
G01 X-94.2213 Y56.5839 
G01 X-94.1875 Y56.7099 
G01 X-94.1223 Y56.8229 
G01 X-94.0301 Y56.9151 
G01 X-84.7629 Y66.1823 
G01 X-84.6499 Y66.2475 
G01 X-84.5239 Y66.2813 
G01 X-64.0661 Y66.2813 
G01 X-63.9401 Y66.2475 
G01 X-63.8271 Y66.1823 
G01 X-63.7349 Y66.0901 
G01 X-63.3577 Y65.7129 
G01 X-63.2925 Y65.5999 
G01 X-63.2587 Y65.4739 
G01 X-63.2587 Y63.2954 
G01 X-63.1021 Y62.9173 
G01 X-62.7892 Y62.6044 
G01 X-62.6969 Y62.5121 
G01 X-60.5856 Y60.4008 
G01 X-60.2727 Y60.0879 
G01 X-59.8946 Y59.9313 
G01 X-48.9724 Y59.9313 
G01 X-48.8464 Y59.8975 
G01 X-48.7335 Y59.8323 
G01 X-48.6413 Y59.7401 
G01 X-48.5761 Y59.6272 
G01 X-48.5423 Y59.5012 
G01 X-48.5423 Y59.2012 
G01 X-48.4476 Y58.9725 
G01 X-48.2725 Y58.7974 
G01 X-48.0438 Y58.7027 
G01 X-46.1962 Y58.7027 
G01 X-45.9809 Y58.7919 
G01 X-45.9526 Y58.8082 
G01 X-45.9209 Y58.8167 
G01 X-45.8907 Y58.8292 
G01 X-45.8582 Y58.8335 
G01 X-45.8266 Y58.8420 
G01 X-45.7939 Y58.8420 
G01 X-45.7614 Y58.8463 
G01 X-45.7289 Y58.8420 
G01 X-45.6962 Y58.8420 
G01 X-45.6646 Y58.8335 
G01 X-45.6321 Y58.8293 
G01 X-45.6018 Y58.8167 
G01 X-45.5702 Y58.8082 
G01 X-45.5419 Y58.7919 
G01 X-45.5116 Y58.7793 
G01 X-45.4856 Y58.7594 
G01 X-45.4573 Y58.7430 
G01 X-45.4341 Y58.7199 
G01 X-45.4081 Y58.7000 
G01 X-45.3882 Y58.6740 
G01 X-45.3651 Y58.6508 
G01 X-45.3487 Y58.6225 
G01 X-45.3288 Y58.5965 
G01 X-45.3162 Y58.5662 
G01 X-45.2998 Y58.5379 
G01 X-45.2914 Y58.5062 
G01 X-45.2788 Y58.4760 
G01 X-45.2746 Y58.4435 
G01 X-45.2661 Y58.4119 
G01 X-45.2661 Y58.3792 
G01 X-45.2618 Y58.3467 
G01 X-45.2661 Y58.3142 
G01 X-45.2661 Y56.6624 
G01 X-45.2998 Y56.5364 
G01 X-45.3651 Y56.4235 
G01 X-45.4573 Y56.3313 
G01 X-45.5702 Y56.2660 
G01 X-45.6962 Y56.2323 
G01 X-47.6822 Y56.2323 
G01 X-47.9109 Y56.1376 
G01 X-48.1030 Y55.9454 
G01 X-48.1140 Y55.9312 
G01 X-48.1607 Y55.8703 
G01 X-48.2037 Y55.8373 
G01 X-48.2641 Y55.7909 
G01 X-48.3247 Y55.7658 
G01 X-48.3846 Y55.7410 
G01 X-48.4621 Y55.7308 
G01 X-48.5139 Y55.7240 
G01 X-48.6146 Y55.7372 
G01 X-48.6432 Y55.7410 
G01 X-48.7102 Y55.7688 
G01 X-48.7421 Y55.7751 
G01 X-49.0631 Y55.7751 
G01 X-49.0631 Y55.6989 
G01 X-48.7407 Y55.6989 
G01 X-48.7080 Y55.6854 
G01 X-48.6830 Y55.6604 
G01 X-48.6695 Y55.6277 
G01 X-48.6695 Y53.5923 
G01 X-48.6830 Y53.5596 
G01 X-48.7080 Y53.5346 
G01 X-48.7407 Y53.5211 
G01 X-49.0631 Y53.5211 
G01 X-49.0631 Y53.4449 
G01 X-48.7421 Y53.4449 
G01 X-48.7102 Y53.4512 
G01 X-48.6432 Y53.4790 
G01 X-48.6175 Y53.4824 
G01 X-48.5139 Y53.4960 
G01 X-48.4636 Y53.4894 
G01 X-48.3846 Y53.4790 
G01 X-48.3276 Y53.4554 
G01 X-48.2642 Y53.4291 
G01 X-48.2047 Y53.3835 
G01 X-48.1607 Y53.3497 
G01 X-48.1151 Y53.2902 
G01 X-48.1030 Y53.2746 
G01 X-47.9973 Y53.1688 
G01 X-47.9074 Y53.0789 
G01 X-47.8398 Y52.9637 
G01 X-47.8155 Y52.8729 
G01 X-47.8061 Y52.8377 
G01 X-47.8061 Y50.9474 
G01 X-47.8398 Y50.8214 
G01 X-47.9051 Y50.7085 
G01 X-47.9973 Y50.6163 
G01 X-48.1102 Y50.5510 
G01 X-48.2362 Y50.5173 
G01 X-50.1968 Y50.5173 
G01 X-50.4255 Y50.4226 
G01 X-50.6176 Y50.2304 
G01 X-50.6285 Y50.2162 
G01 X-50.6753 Y50.1553 
G01 X-50.7183 Y50.1223 
G01 X-50.7787 Y50.0759 
G01 X-50.8393 Y50.0508 
G01 X-50.8992 Y50.0260 
G01 X-50.9767 Y50.0158 
G01 X-51.0285 Y50.0090 
G01 X-51.1292 Y50.0222 
G01 X-51.1578 Y50.0260 
G01 X-51.2248 Y50.0538 
G01 X-51.2567 Y50.0601 
G01 X-51.5777 Y50.0601 
G01 X-51.5777 Y49.9839 
G01 X-51.2553 Y49.9839 
G01 X-51.2226 Y49.9704 
G01 X-51.1976 Y49.9454 
G01 X-51.1841 Y49.9127 
G01 X-51.1841 Y47.8773 
G01 X-51.1976 Y47.8446 
G01 X-51.2226 Y47.8196 
G01 X-51.2553 Y47.8061 
G01 X-51.5777 Y47.8061 
G01 X-51.5777 Y47.7299 
G01 X-51.2567 Y47.7299 
G01 X-51.2248 Y47.7362 
G01 X-51.1578 Y47.7640 
G01 X-51.1321 Y47.7674 
G01 X-51.0285 Y47.7810 
G01 X-50.9782 Y47.7744 
G01 X-50.8992 Y47.7640 
G01 X-50.8422 Y47.7404 
G01 X-50.7788 Y47.7141 
G01 X-50.7193 Y47.6685 
G01 X-50.6753 Y47.6347 
G01 X-50.6297 Y47.5752 
G01 X-50.6176 Y47.5596 
G01 X-50.5373 Y47.4792 
G01 X-50.4472 Y47.3891 
G01 X-50.3798 Y47.2741 
G01 X-50.3607 Y47.2025 
G01 X-50.3461 Y47.1481 
G01 X-50.3461 Y45.3195 
G01 X-50.3418 Y45.2870 
G01 X-50.3461 Y45.2546 
G01 X-50.3461 Y45.2218 
G01 X-50.3546 Y45.1902 
G01 X-50.3588 Y45.1577 
G01 X-50.3714 Y45.1275 
G01 X-50.3798 Y45.0959 
G01 X-50.3962 Y45.0675 
G01 X-50.4088 Y45.0372 
G01 X-50.4287 Y45.0113 
G01 X-50.4451 Y44.9829 
G01 X-50.4682 Y44.9598 
G01 X-50.4882 Y44.9338 
G01 X-50.5141 Y44.9138 
G01 X-50.5373 Y44.8907 
G01 X-50.5656 Y44.8743 
G01 X-50.5916 Y44.8544 
G01 X-50.6219 Y44.8419 
G01 X-50.6502 Y44.8255 
G01 X-50.6819 Y44.8170 
G01 X-50.7121 Y44.8045 
G01 X-50.7446 Y44.8002 
G01 X-50.7762 Y44.7917 
G01 X-50.8089 Y44.7917 
G01 X-50.8414 Y44.7875 
G01 X-50.8739 Y44.7917 
G01 X-50.9066 Y44.7917 
G01 X-50.9382 Y44.8002 
G01 X-50.9541 Y44.8023 
G01 X-52.8130 Y44.8023 
G01 X-53.0417 Y44.7076 
G01 X-53.2338 Y44.5154 
G01 X-53.2448 Y44.5012 
G01 X-53.2915 Y44.4403 
G01 X-53.3345 Y44.4073 
G01 X-53.3949 Y44.3609 
G01 X-53.4555 Y44.3358 
G01 X-53.5154 Y44.3110 
G01 X-53.5929 Y44.3008 
G01 X-53.6447 Y44.2940 
G01 X-53.7454 Y44.3072 
G01 X-53.7740 Y44.3110 
G01 X-53.8410 Y44.3388 
G01 X-53.8729 Y44.3451 
G01 X-54.1939 Y44.3451 
G01 X-54.1939 Y44.2689 
G01 X-53.8715 Y44.2689 
G01 X-53.8388 Y44.2554 
G01 X-53.8138 Y44.2304 
G01 X-53.8003 Y44.1977 
G01 X-53.8003 Y42.1623 
G01 X-53.8138 Y42.1296 
G01 X-53.8388 Y42.1046 
G01 X-53.8715 Y42.0911 
G01 X-54.1939 Y42.0911 
G01 X-54.1939 Y42.0149 
G01 X-53.8729 Y42.0149 
G01 X-53.8410 Y42.0212 
G01 X-53.7740 Y42.0490 
G01 X-53.7483 Y42.0524 
G01 X-53.6447 Y42.0660 
G01 X-53.5944 Y42.0594 
G01 X-53.5154 Y42.0490 
G01 X-53.4584 Y42.0254 
G01 X-53.3950 Y41.9991 
G01 X-53.3355 Y41.9535 
G01 X-53.2915 Y41.9197 
G01 X-53.2459 Y41.8602 
G01 X-53.2338 Y41.8446 
G01 X-53.0773 Y41.6880 
G01 X-52.9878 Y41.5985 
G01 X-52.9851 Y41.5958 
G01 X-52.9198 Y41.4829 
G01 X-52.8955 Y41.3921 
G01 X-52.8861 Y41.3569 
G01 X-52.8861 Y34.6862 
G01 X-52.8818 Y34.6537 
G01 X-52.8861 Y34.6213 
G01 X-52.8861 Y34.5885 
G01 X-52.8946 Y34.5569 
G01 X-52.8988 Y34.5244 
G01 X-52.9114 Y34.4942 
G01 X-52.9198 Y34.4625 
G01 X-52.9362 Y34.4342 
G01 X-53.0893 Y34.0646 
G01 X-53.0893 Y32.3554 
G01 X-52.9018 Y31.9026 
G01 X-52.5552 Y31.5560 
G01 X-52.1024 Y31.3685 
G01 X-51.6124 Y31.3685 
G01 X-51.1596 Y31.5560 
G01 X-50.9837 Y31.7319 
G01 X-50.8975 Y31.8181 
G01 X-50.8915 Y31.8241 
G01 X-50.7786 Y31.8893 
G01 X-50.6878 Y31.9136 
G01 X-50.6526 Y31.9231 
G01 X-50.5222 Y31.9231 
G01 X-50.3962 Y31.8893 
G01 X-50.2858 Y31.8255 
G01 X-50.1911 Y31.7319 
G01 X-50.0152 Y31.5560 
G01 X-49.5624 Y31.3685 
G01 X-49.0724 Y31.3685 
G01 X-48.6196 Y31.5560 
G01 X-48.4437 Y31.7319 
G01 X-48.3575 Y31.8181 
G01 X-48.3515 Y31.8241 
G01 X-48.2386 Y31.8893 
G01 X-48.1478 Y31.9136 
G01 X-48.1126 Y31.9231 
G01 X-47.9822 Y31.9231 
G01 X-47.8562 Y31.8893 
G01 X-47.7458 Y31.8255 
G01 X-47.6511 Y31.7319 
G01 X-47.4752 Y31.5560 
G01 X-47.0224 Y31.3685 
G01 X-46.5324 Y31.3685 
G01 X-46.0796 Y31.5560 
G01 X-45.9037 Y31.7319 
G01 X-45.8175 Y31.8181 
G01 X-45.8115 Y31.8241 
G01 X-45.6986 Y31.8893 
G01 X-45.6078 Y31.9136 
G01 X-45.5726 Y31.9231 
G01 X-45.4422 Y31.9231 
G01 X-45.3162 Y31.8893 
G01 X-45.2058 Y31.8255 
G01 X-45.1111 Y31.7319 
G01 X-44.9352 Y31.5560 
G01 X-44.4824 Y31.3685 
G01 X-43.9924 Y31.3685 
G01 X-43.5396 Y31.5560 
G01 X-43.3637 Y31.7319 
G01 X-43.2775 Y31.8181 
G01 X-43.2715 Y31.8241 
G01 X-43.1586 Y31.8893 
G01 X-43.0678 Y31.9136 
G01 X-43.0326 Y31.9231 
G01 X-42.9022 Y31.9231 
G01 X-42.7762 Y31.8893 
G01 X-42.6658 Y31.8255 
G01 X-42.5711 Y31.7319 
G01 X-42.3952 Y31.5560 
G01 X-41.9424 Y31.3685 
G01 X-41.4524 Y31.3685 
G01 X-40.9996 Y31.5560 
G01 X-40.8237 Y31.7319 
G01 X-40.7375 Y31.8181 
G01 X-40.7315 Y31.8241 
G01 X-40.6186 Y31.8893 
G01 X-40.5278 Y31.9136 
G01 X-40.4926 Y31.9231 
G01 X-40.3622 Y31.9231 
G01 X-40.2362 Y31.8893 
G01 X-40.1258 Y31.8255 
G01 X-40.0311 Y31.7319 
G01 X-39.8552 Y31.5560 
G01 X-39.4024 Y31.3685 
G01 X-38.9124 Y31.3685 
G01 X-38.4596 Y31.5560 
G01 X-38.2837 Y31.7319 
G01 X-38.1975 Y31.8181 
G01 X-38.1915 Y31.8241 
G01 X-38.0786 Y31.8893 
G01 X-37.9878 Y31.9136 
G01 X-37.9526 Y31.9231 
G01 X-37.8222 Y31.9231 
G01 X-37.6962 Y31.8893 
G01 X-37.5858 Y31.8255 
G01 X-37.4911 Y31.7319 
G01 X-37.3152 Y31.5560 
G01 X-36.8624 Y31.3685 
G01 X-36.3724 Y31.3685 
G01 X-35.9196 Y31.5560 
G01 X-35.7437 Y31.7319 
G01 X-35.6575 Y31.8181 
G01 X-35.6515 Y31.8241 
G01 X-35.5386 Y31.8893 
G01 X-35.4478 Y31.9136 
G01 X-35.4126 Y31.9231 
G01 X-35.2822 Y31.9231 
G01 X-35.1562 Y31.8893 
G01 X-35.0458 Y31.8255 
G01 X-34.9511 Y31.7319 
G01 X-34.7752 Y31.5560 
G01 X-34.3224 Y31.3685 
G01 X-33.8324 Y31.3685 
G01 X-33.3796 Y31.5560 
G01 X-33.2037 Y31.7319 
G01 X-33.1175 Y31.8181 
G01 X-33.1115 Y31.8241 
G01 X-32.9986 Y31.8893 
G01 X-32.9078 Y31.9136 
G01 X-32.8726 Y31.9231 
G01 X-32.7422 Y31.9231 
G01 X-32.6162 Y31.8893 
G01 X-32.5058 Y31.8255 
G01 X-32.4111 Y31.7319 
G01 X-32.2352 Y31.5560 
G01 X-31.7824 Y31.3685 
G01 X-31.2924 Y31.3685 
G01 X-30.8396 Y31.5560 
G01 X-30.6637 Y31.7319 
G01 X-30.5775 Y31.8181 
G01 X-30.5715 Y31.8241 
G01 X-30.4586 Y31.8893 
G01 X-30.3678 Y31.9136 
G01 X-30.3326 Y31.9231 
G01 X-30.2022 Y31.9231 
G01 X-30.0762 Y31.8893 
G01 X-29.9658 Y31.8255 
G01 X-29.8711 Y31.7319 
G01 X-29.6952 Y31.5560 
G01 X-29.2424 Y31.3685 
G01 X-28.7524 Y31.3685 
G01 X-28.2996 Y31.5560 
G01 X-28.1237 Y31.7319 
G01 X-28.0375 Y31.8181 
G01 X-28.0315 Y31.8241 
G01 X-27.9186 Y31.8893 
G01 X-27.8278 Y31.9136 
G01 X-27.7926 Y31.9231 
G01 X-27.6622 Y31.9231 
G01 X-27.5362 Y31.8893 
G01 X-27.4258 Y31.8255 
G01 X-27.3311 Y31.7319 
G01 X-27.1552 Y31.5560 
G01 X-26.7024 Y31.3685 
G01 X-26.2124 Y31.3685 
G01 X-25.7596 Y31.5560 
G01 X-25.5837 Y31.7319 
G01 X-25.4975 Y31.8181 
G01 X-25.4915 Y31.8241 
G01 X-25.3786 Y31.8893 
G01 X-25.2878 Y31.9136 
G01 X-25.2526 Y31.9231 
G01 X-25.1222 Y31.9231 
G01 X-24.9962 Y31.8893 
G01 X-24.8858 Y31.8255 
G01 X-24.7911 Y31.7319 
G01 X-24.6152 Y31.5560 
G01 X-24.1624 Y31.3685 
G01 X-23.6724 Y31.3685 
G01 X-23.2196 Y31.5560 
G01 X-23.0437 Y31.7319 
G01 X-22.9575 Y31.8181 
G01 X-22.9515 Y31.8241 
G01 X-22.8386 Y31.8893 
G01 X-22.7478 Y31.9136 
G01 X-22.7126 Y31.9231 
G01 X-22.5822 Y31.9231 
G01 X-22.4562 Y31.8893 
G01 X-22.3458 Y31.8255 
G01 X-22.2511 Y31.7319 
G01 X-22.0752 Y31.5560 
G01 X-21.6224 Y31.3685 
G01 X-21.1324 Y31.3685 
G01 X-20.6796 Y31.5560 
G01 X-20.5037 Y31.7319 
G01 X-20.4175 Y31.8181 
G01 X-20.4115 Y31.8241 
G01 X-20.2986 Y31.8893 
G01 X-20.2078 Y31.9136 
G01 X-20.1726 Y31.9231 
G01 X-20.0422 Y31.9231 
G01 X-19.9162 Y31.8893 
G01 X-19.8058 Y31.8255 
G01 X-19.7111 Y31.7319 
G01 X-19.5352 Y31.5560 
G01 X-19.0824 Y31.3685 
G01 X-18.5924 Y31.3685 
G01 X-18.1396 Y31.5560 
G01 X-17.7930 Y31.9026 
G01 X-17.6055 Y32.3554 
G01 X-17.6055 Y33.3472 
G01 X-17.6097 Y33.3820 
G01 X-17.6055 Y33.4122 
G01 X-17.6055 Y33.4426 
G01 X-17.5964 Y33.4764 
G01 X-17.5915 Y33.5112 
G01 X-17.5796 Y33.5392 
G01 X-17.5717 Y33.5685 
G01 X-17.5542 Y33.5989 
G01 X-15.9911 Y37.2753 
G01 X-15.9670 Y37.3333 
G01 X-15.9647 Y37.3373 
G01 X-15.9259 Y37.3869 
G01 X-15.8876 Y37.4368 
G01 X-15.8843 Y37.4401 
G01 X-15.8340 Y37.4779 
G01 X-15.7842 Y37.5162 
G01 X-15.7801 Y37.5185 
G01 X-15.7217 Y37.5420 
G01 X-15.5672 Y37.6060 
G01 X-15.2206 Y37.9526 
G01 X-15.0331 Y38.4054 
G01 X-15.0331 Y40.1146 
G01 X-15.2206 Y40.5674 
G01 X-15.5672 Y40.9140 
G01 X-16.0200 Y41.1015 
G01 X-16.5100 Y41.1015 
G01 X-16.9628 Y40.9140 
G01 X-17.1387 Y40.7381 
G01 X-17.2249 Y40.6519 
G01 X-17.2309 Y40.6459 
G01 X-17.3438 Y40.5807 
G01 X-17.4346 Y40.5564 
G01 X-17.4698 Y40.5469 
G01 X-17.6002 Y40.5469 
G01 X-17.7262 Y40.5807 
G01 X-17.8366 Y40.6444 
G01 X-17.9313 Y40.7381 
G01 X-18.1072 Y40.9140 
G01 X-18.5600 Y41.1015 
G01 X-19.0500 Y41.1015 
G01 X-19.5028 Y40.9140 
G01 X-19.6787 Y40.7381 
G01 X-19.7649 Y40.6519 
G01 X-19.7709 Y40.6459 
G01 X-19.8838 Y40.5807 
G01 X-19.9746 Y40.5564 
G01 X-20.0098 Y40.5469 
G01 X-20.1402 Y40.5469 
G01 X-20.2662 Y40.5807 
G01 X-20.3766 Y40.6444 
G01 X-20.4713 Y40.7381 
G01 X-20.6472 Y40.9140 
G01 X-21.1000 Y41.1015 
G01 X-21.5900 Y41.1015 
G01 X-22.0428 Y40.9140 
G01 X-22.2187 Y40.7381 
G01 X-22.3049 Y40.6519 
G01 X-22.3109 Y40.6459 
G01 X-22.4238 Y40.5807 
G01 X-22.5146 Y40.5564 
G01 X-22.5498 Y40.5469 
G01 X-22.6802 Y40.5469 
G01 X-22.8062 Y40.5807 
G01 X-22.9166 Y40.6444 
G01 X-23.0113 Y40.7381 
G01 X-23.1872 Y40.9140 
G01 X-23.6400 Y41.1015 
G01 X-24.1300 Y41.1015 
G01 X-24.5828 Y40.9140 
G01 X-24.7587 Y40.7381 
G01 X-24.8449 Y40.6519 
G01 X-24.8509 Y40.6459 
G01 X-24.9638 Y40.5807 
G01 X-25.0546 Y40.5564 
G01 X-25.0898 Y40.5469 
G01 X-25.2202 Y40.5469 
G01 X-25.3462 Y40.5807 
G01 X-25.4566 Y40.6444 
G01 X-25.5513 Y40.7381 
G01 X-25.7272 Y40.9140 
G01 X-26.1800 Y41.1015 
G01 X-26.6700 Y41.1015 
G01 X-27.1228 Y40.9140 
G01 X-27.3909 Y40.6459 
G01 X-27.5038 Y40.5807 
G01 X-27.6298 Y40.5469 
G01 X-27.7602 Y40.5469 
G01 X-27.7925 Y40.5556 
G01 X-27.8862 Y40.5807 
G01 X-27.9991 Y40.6459 
G01 X-28.0913 Y40.7381 
G01 X-28.2672 Y40.9140 
G01 X-28.7200 Y41.1015 
G01 X-29.2100 Y41.1015 
G01 X-29.6628 Y40.9140 
G01 X-29.9309 Y40.6459 
G01 X-30.0438 Y40.5807 
G01 X-30.1698 Y40.5469 
G01 X-30.3002 Y40.5469 
G01 X-30.3325 Y40.5556 
G01 X-30.4262 Y40.5807 
G01 X-30.5391 Y40.6459 
G01 X-30.6313 Y40.7381 
G01 X-30.8072 Y40.9140 
G01 X-31.2600 Y41.1015 
G01 X-31.7500 Y41.1015 
G01 X-32.2028 Y40.9140 
G01 X-32.3787 Y40.7381 
G01 X-32.4649 Y40.6519 
G01 X-32.4709 Y40.6459 
G01 X-32.5838 Y40.5807 
G01 X-32.6746 Y40.5564 
G01 X-32.7098 Y40.5469 
G01 X-32.8402 Y40.5469 
G01 X-32.9662 Y40.5807 
G01 X-33.0766 Y40.6444 
G01 X-33.1713 Y40.7381 
G01 X-33.3472 Y40.9140 
G01 X-33.8000 Y41.1015 
G01 X-34.2900 Y41.1015 
G01 X-34.7428 Y40.9140 
G01 X-35.0894 Y40.5674 
G01 X-35.1079 Y40.5226 
G01 X-35.1090 Y40.5161 
G01 X-35.1328 Y40.4624 
G01 X-35.1553 Y40.4082 
G01 X-35.1593 Y40.4029 
G01 X-35.1620 Y40.3969 
G01 X-35.1989 Y40.3513 
G01 X-35.2347 Y40.3047 
G01 X-35.2399 Y40.3007 
G01 X-35.2441 Y40.2956 
G01 X-35.2916 Y40.2611 
G01 X-35.3382 Y40.2253 
G01 X-35.3443 Y40.2228 
G01 X-35.3496 Y40.2189 
G01 X-35.4044 Y40.1979 
G01 X-35.4587 Y40.1754 
G01 X-35.4652 Y40.1745 
G01 X-35.4713 Y40.1722 
G01 X-35.5297 Y40.1660 
G01 X-35.5879 Y40.1584 
G01 X-35.5945 Y40.1592 
G01 X-35.6010 Y40.1585 
G01 X-35.6590 Y40.1677 
G01 X-35.7173 Y40.1754 
G01 X-35.7233 Y40.1779 
G01 X-35.7298 Y40.1789 
G01 X-35.7835 Y40.2028 
G01 X-35.8377 Y40.2253 
G01 X-35.8430 Y40.2293 
G01 X-35.8490 Y40.2320 
G01 X-35.8946 Y40.2689 
G01 X-35.9412 Y40.3047 
G01 X-35.9452 Y40.3099 
G01 X-35.9503 Y40.3141 
G01 X-35.9848 Y40.3615 
G01 X-35.9963 Y40.3765 
G01 X-36.0803 Y40.4605 
G01 X-36.0897 Y40.4673 
G01 X-36.0897 Y40.3621 
G01 X-36.0424 Y40.3149 
G01 X-35.9660 Y40.2005 
G01 X-35.9133 Y40.0733 
G01 X-35.8865 Y39.9384 
G01 X-35.8865 Y38.5816 
G01 X-35.9133 Y38.4467 
G01 X-35.9660 Y38.3195 
G01 X-36.0424 Y38.2051 
G01 X-36.0897 Y38.1579 
G01 X-36.0897 Y37.6599 
G01 X-36.0863 Y37.6541 
G01 X-36.0653 Y37.6261 
G01 X-36.0539 Y37.5979 
G01 X-36.0387 Y37.5716 
G01 X-36.0296 Y37.5377 
G01 X-36.0165 Y37.5052 
G01 X-36.0128 Y37.4750 
G01 X-36.0049 Y37.4456 
G01 X-36.0049 Y37.4105 
G01 X-36.0007 Y37.3757 
G01 X-36.0049 Y37.3456 
G01 X-36.0049 Y37.3152 
G01 X-36.0140 Y37.2813 
G01 X-36.0189 Y37.2466 
G01 X-36.0308 Y37.2186 
G01 X-36.0387 Y37.1892 
G01 X-36.0562 Y37.1589 
G01 X-36.8913 Y35.1947 
G01 X-36.9154 Y35.1367 
G01 X-36.9177 Y35.1327 
G01 X-36.9565 Y35.0831 
G01 X-36.9948 Y35.0332 
G01 X-36.9981 Y35.0299 
G01 X-37.0484 Y34.9921 
G01 X-37.0982 Y34.9538 
G01 X-37.1023 Y34.9515 
G01 X-37.1607 Y34.9280 
G01 X-37.3152 Y34.8640 
G01 X-37.5833 Y34.5959 
G01 X-37.6962 Y34.5307 
G01 X-37.8222 Y34.4969 
G01 X-37.9526 Y34.4969 
G01 X-37.9849 Y34.5056 
G01 X-38.0786 Y34.5307 
G01 X-38.1915 Y34.5959 
G01 X-38.2837 Y34.6881 
G01 X-38.4596 Y34.8640 
G01 X-38.9124 Y35.0515 
G01 X-39.4024 Y35.0515 
G01 X-39.8552 Y34.8640 
G01 X-40.1233 Y34.5959 
G01 X-40.2362 Y34.5307 
G01 X-40.3622 Y34.4969 
G01 X-40.4926 Y34.4969 
G01 X-40.5249 Y34.5056 
G01 X-40.6186 Y34.5307 
G01 X-40.7315 Y34.5959 
G01 X-40.8237 Y34.6881 
G01 X-40.9996 Y34.8640 
G01 X-41.4524 Y35.0515 
G01 X-41.9424 Y35.0515 
G01 X-42.3952 Y34.8640 
G01 X-42.4093 Y34.8499 
G01 X-42.4881 Y34.8044 
G01 X-42.5222 Y34.7847 
G01 X-42.5989 Y34.7641 
G01 X-42.6482 Y34.7509 
G01 X-42.7127 Y34.7509 
G01 X-42.7786 Y34.7509 
G01 X-42.8537 Y34.7710 
G01 X-42.9046 Y34.7847 
G01 X-42.9682 Y34.8214 
G01 X-43.0175 Y34.8499 
G01 X-43.0629 Y34.8953 
G01 X-43.1097 Y34.9421 
G01 X-43.1552 Y35.0209 
G01 X-43.1749 Y35.0550 
G01 X-43.1955 Y35.1317 
G01 X-43.2087 Y35.1810 
G01 X-43.2087 Y35.2455 
G01 X-43.2087 Y35.3114 
G01 X-43.2087 Y42.9881 
G01 X-43.1876 Y43.0668 
G01 X-43.1749 Y43.1141 
G01 X-43.1657 Y43.1301 
G01 X-43.1097 Y43.2270 
G01 X-43.0175 Y43.3192 
G01 X-42.9046 Y43.3844 
G01 X-42.8728 Y43.3929 
G01 X-42.7786 Y43.4182 
G01 X-42.6482 Y43.4182 
G01 X-42.5695 Y43.3971 
G01 X-42.5222 Y43.3844 
G01 X-42.5062 Y43.3752 
G01 X-42.4093 Y43.3192 
G01 X-42.3254 Y43.2353 
G01 X-42.3112 Y43.2244 
G01 X-42.2503 Y43.1777 
G01 X-42.2173 Y43.1347 
G01 X-42.1709 Y43.0743 
G01 X-42.1458 Y43.0137 
G01 X-42.1210 Y42.9538 
G01 X-42.1108 Y42.8763 
G01 X-42.1040 Y42.8245 
G01 X-42.1172 Y42.7238 
G01 X-42.1210 Y42.6952 
G01 X-42.1488 Y42.6281 
G01 X-42.1551 Y42.5963 
G01 X-42.1551 Y42.2753 
G01 X-42.0789 Y42.2753 
G01 X-42.0789 Y42.5977 
G01 X-42.0654 Y42.6304 
G01 X-42.0404 Y42.6554 
G01 X-42.0077 Y42.6689 
G01 X-39.2723 Y42.6689 
G01 X-39.2396 Y42.6554 
G01 X-39.2146 Y42.6304 
G01 X-39.2011 Y42.5977 
G01 X-39.2011 Y42.2753 
G01 X-39.1249 Y42.2753 
G01 X-39.1249 Y42.5963 
G01 X-39.1312 Y42.6281 
G01 X-39.1590 Y42.6951 
G01 X-39.1624 Y42.7209 
G01 X-39.1760 Y42.8244 
G01 X-39.1694 Y42.8748 
G01 X-39.1590 Y42.9537 
G01 X-39.1354 Y43.0108 
G01 X-39.1091 Y43.0742 
G01 X-39.0635 Y43.1337 
G01 X-39.0297 Y43.1777 
G01 X-38.9702 Y43.2233 
G01 X-38.9546 Y43.2353 
G01 X-38.7624 Y43.4275 
G01 X-38.6677 Y43.6562 
G01 X-38.6677 Y45.5312 
G01 X-38.6339 Y45.6572 
G01 X-38.5687 Y45.7701 
G01 X-38.4765 Y45.8623 
G01 X-38.3636 Y45.9275 
G01 X-38.2376 Y45.9613 
G01 X-38.1538 Y45.9613 
G01 X-38.1213 Y45.9656 
G01 X-38.0888 Y45.9613 
G01 X-38.0561 Y45.9613 
G01 X-38.0245 Y45.9528 
G01 X-37.9920 Y45.9485 
G01 X-37.9618 Y45.9360 
G01 X-37.9301 Y45.9275 
G01 X-37.9018 Y45.9112 
G01 X-37.8715 Y45.8986 
G01 X-37.8456 Y45.8787 
G01 X-37.8172 Y45.8623 
G01 X-37.7940 Y45.8392 
G01 X-37.7681 Y45.8192 
G01 X-37.7481 Y45.7933 
G01 X-37.7250 Y45.7701 
G01 X-37.7086 Y45.7417 
G01 X-37.6887 Y45.7158 
G01 X-37.6761 Y45.6855 
G01 X-37.6598 Y45.6572 
G01 X-37.6513 Y45.6255 
G01 X-37.6294 Y45.5726 
G01 X-37.2828 Y45.2260 
G01 X-36.8300 Y45.0385 
G01 X-36.3400 Y45.0385 
G01 X-35.8872 Y45.2260 
G01 X-35.7113 Y45.4019 
G01 X-35.6251 Y45.4881 
G01 X-35.6191 Y45.4941 
G01 X-35.5062 Y45.5593 
G01 X-35.4154 Y45.5836 
G01 X-35.3802 Y45.5931 
G01 X-35.2498 Y45.5931 
G01 X-35.1238 Y45.5593 
G01 X-35.0134 Y45.4955 
G01 X-34.9187 Y45.4019 
G01 X-34.7428 Y45.2260 
G01 X-34.2900 Y45.0385 
G01 X-33.8000 Y45.0385 
G01 X-33.3472 Y45.2260 
G01 X-33.1713 Y45.4019 
G01 X-33.0851 Y45.4881 
G01 X-33.0791 Y45.4941 
G01 X-32.9662 Y45.5593 
G01 X-32.8754 Y45.5836 
G01 X-32.8402 Y45.5931 
G01 X-32.7098 Y45.5931 
G01 X-32.5838 Y45.5593 
G01 X-32.4734 Y45.4955 
G01 X-32.3787 Y45.4019 
G01 X-32.2028 Y45.2260 
G01 X-31.7500 Y45.0385 
G01 X-31.2600 Y45.0385 
G01 X-30.8072 Y45.2260 
G01 X-30.6313 Y45.4019 
G01 X-30.5451 Y45.4881 
G01 X-30.5391 Y45.4941 
G01 X-30.4262 Y45.5593 
G01 X-30.3354 Y45.5836 
G01 X-30.3002 Y45.5931 
G01 X-30.1698 Y45.5931 
G01 X-30.0438 Y45.5593 
G01 X-29.9334 Y45.4955 
G01 X-29.8387 Y45.4019 
G01 X-29.6628 Y45.2260 
G01 X-29.2100 Y45.0385 
G01 X-28.7200 Y45.0385 
G01 X-28.2672 Y45.2260 
G01 X-28.0913 Y45.4019 
G01 X-28.0051 Y45.4881 
G01 X-27.9991 Y45.4941 
G01 X-27.8862 Y45.5593 
G01 X-27.7954 Y45.5836 
G01 X-27.7602 Y45.5931 
G01 X-27.6298 Y45.5931 
G01 X-27.5038 Y45.5593 
G01 X-27.3934 Y45.4955 
G01 X-27.2987 Y45.4019 
G01 X-27.1228 Y45.2260 
G01 X-26.6700 Y45.0385 
G01 X-26.1800 Y45.0385 
G01 X-25.7272 Y45.2260 
G01 X-25.5513 Y45.4019 
G01 X-25.4651 Y45.4881 
G01 X-25.4591 Y45.4941 
G01 X-25.3462 Y45.5593 
G01 X-25.2554 Y45.5836 
G01 X-25.2202 Y45.5931 
G01 X-25.0898 Y45.5931 
G01 X-24.9638 Y45.5593 
G01 X-24.8534 Y45.4955 
G01 X-24.7587 Y45.4019 
G01 X-24.5828 Y45.2260 
G01 X-24.1300 Y45.0385 
G01 X-23.6400 Y45.0385 
G01 X-23.1872 Y45.2260 
G01 X-23.0113 Y45.4019 
G01 X-22.9251 Y45.4881 
G01 X-22.9191 Y45.4941 
G01 X-22.8062 Y45.5593 
G01 X-22.7154 Y45.5836 
G01 X-22.6802 Y45.5931 
G01 X-22.5498 Y45.5931 
G01 X-22.4238 Y45.5593 
G01 X-22.3134 Y45.4955 
G01 X-22.2187 Y45.4019 
G01 X-22.0428 Y45.2260 
G01 X-21.5900 Y45.0385 
G01 X-21.1000 Y45.0385 
G01 X-20.6472 Y45.2260 
G01 X-20.4713 Y45.4019 
G01 X-20.3851 Y45.4881 
G01 X-20.3791 Y45.4941 
G01 X-20.2662 Y45.5593 
G01 X-20.1754 Y45.5836 
G01 X-20.1402 Y45.5931 
G01 X-20.0098 Y45.5931 
G01 X-19.8838 Y45.5593 
G01 X-19.7734 Y45.4955 
G01 X-19.6787 Y45.4019 
G01 X-19.5028 Y45.2260 
G01 X-19.0500 Y45.0385 
G01 X-18.5600 Y45.0385 
G01 X-18.1072 Y45.2260 
G01 X-17.9313 Y45.4019 
G01 X-17.8451 Y45.4881 
G01 X-17.8391 Y45.4941 
G01 X-17.7262 Y45.5593 
G01 X-17.6354 Y45.5836 
G01 X-17.6002 Y45.5931 
G01 X-17.4698 Y45.5931 
G01 X-17.3438 Y45.5593 
G01 X-17.2334 Y45.4955 
G01 X-17.1387 Y45.4019 
G01 X-16.9628 Y45.2260 
G01 X-16.5100 Y45.0385 
G01 X-16.0200 Y45.0385 
G01 X-15.5672 Y45.2260 
G01 X-15.2206 Y45.5726 
G01 X-15.0331 Y46.0254 
G01 X-15.0331 Y47.7346 
G01 X-15.1862 Y48.1042 
G01 X-15.2025 Y48.1325 
G01 X-15.2110 Y48.1642 
G01 X-15.2235 Y48.1944 
G01 X-15.2278 Y48.2269 
G01 X-15.2363 Y48.2585 
G01 X-15.2363 Y48.2913 
G01 X-15.2406 Y48.3237 
G01 X-15.2363 Y48.3562 
G01 X-15.2363 Y53.9605 
G01 X-15.2363 Y54.0250 
G01 X-15.2363 Y54.0909 
G01 X-15.2218 Y54.1448 
G01 X-15.2025 Y54.2168 
G01 X-15.1872 Y54.2434 
G01 X-15.1373 Y54.3298 
G01 X-15.1332 Y54.3339 
G01 X-14.9225 Y54.8426 
G01 X-14.9225 Y56.9173 
G01 X-15.1332 Y57.4261 
G01 X-15.5227 Y57.8156 
G01 X-16.0314 Y58.0263 
G01 X-16.5821 Y58.0263 
G01 X-17.0909 Y57.8156 
G01 X-17.1805 Y57.7260 
G01 X-17.2704 Y57.6361 
G01 X-17.3856 Y57.5686 
G01 X-17.4764 Y57.5443 
G01 X-17.5116 Y57.5348 
G01 X-17.6420 Y57.5348 
G01 X-17.7680 Y57.5686 
G01 X-17.8809 Y57.6338 
G01 X-17.9717 Y57.7246 
G01 X-18.0627 Y57.8156 
G01 X-18.5714 Y58.0263 
G01 X-19.1222 Y58.0263 
G01 X-19.6309 Y57.8156 
G01 X-19.7205 Y57.7260 
G01 X-19.8104 Y57.6361 
G01 X-19.9256 Y57.5686 
G01 X-20.0164 Y57.5443 
G01 X-20.0516 Y57.5348 
G01 X-20.1820 Y57.5348 
G01 X-20.3080 Y57.5686 
G01 X-20.4209 Y57.6338 
G01 X-20.5117 Y57.7246 
G01 X-20.6027 Y57.8156 
G01 X-21.1114 Y58.0263 
G01 X-21.6622 Y58.0263 
G01 X-22.1709 Y57.8156 
G01 X-22.2605 Y57.7260 
G01 X-22.3504 Y57.6361 
G01 X-22.4656 Y57.5686 
G01 X-22.5564 Y57.5443 
G01 X-22.5916 Y57.5348 
G01 X-22.7220 Y57.5348 
G01 X-22.8480 Y57.5686 
G01 X-22.9609 Y57.6338 
G01 X-23.0517 Y57.7246 
G01 X-23.1427 Y57.8156 
G01 X-23.6514 Y58.0263 
G01 X-24.2021 Y58.0263 
G01 X-24.7109 Y57.8156 
G01 X-24.8005 Y57.7260 
G01 X-24.8904 Y57.6361 
G01 X-25.0056 Y57.5686 
G01 X-25.0964 Y57.5443 
G01 X-25.1316 Y57.5348 
G01 X-25.2620 Y57.5348 
G01 X-25.3880 Y57.5686 
G01 X-25.5009 Y57.6338 
G01 X-25.5917 Y57.7246 
G01 X-25.6827 Y57.8156 
G01 X-26.1914 Y58.0263 
G01 X-26.7421 Y58.0263 
G01 X-27.2509 Y57.8156 
G01 X-27.3405 Y57.7260 
G01 X-27.4304 Y57.6361 
G01 X-27.5456 Y57.5686 
G01 X-27.6364 Y57.5443 
G01 X-27.6716 Y57.5348 
G01 X-27.8020 Y57.5348 
G01 X-27.9280 Y57.5686 
G01 X-28.0409 Y57.6338 
G01 X-28.1317 Y57.7246 
G01 X-28.2227 Y57.8156 
G01 X-28.7314 Y58.0263 
G01 X-29.2821 Y58.0263 
G01 X-29.7909 Y57.8156 
G01 X-29.8805 Y57.7260 
G01 X-29.9704 Y57.6361 
G01 X-30.0856 Y57.5686 
G01 X-30.1764 Y57.5443 
G01 X-30.2116 Y57.5348 
G01 X-30.3420 Y57.5348 
G01 X-30.4680 Y57.5686 
G01 X-30.5809 Y57.6338 
G01 X-30.6717 Y57.7246 
G01 X-30.7627 Y57.8156 
G01 X-31.2714 Y58.0263 
G01 X-31.8222 Y58.0263 
G01 X-32.3309 Y57.8156 
G01 X-32.4205 Y57.7260 
G01 X-32.5104 Y57.6361 
G01 X-32.6256 Y57.5686 
G01 X-32.7164 Y57.5443 
G01 X-32.7516 Y57.5348 
G01 X-32.8820 Y57.5348 
G01 X-33.0080 Y57.5686 
G01 X-33.1209 Y57.6338 
G01 X-33.2117 Y57.7246 
G01 X-33.3027 Y57.8156 
G01 X-33.8114 Y58.0263 
G01 X-34.3621 Y58.0263 
G01 X-34.8709 Y57.8156 
G01 X-35.2604 Y57.4261 
G01 X-35.4711 Y56.9173 
G01 X-35.4711 Y54.8426 
G01 X-35.2604 Y54.3339 
G01 X-35.1727 Y54.2462 
G01 X-35.1075 Y54.1332 
G01 X-35.0737 Y54.0072 
G01 X-35.0737 Y50.3590 
G01 X-35.1060 Y50.2384 
G01 X-35.1075 Y50.2331 
G01 X-35.1727 Y50.1201 
G01 X-35.2649 Y50.0279 
G01 X-35.3778 Y49.9627 
G01 X-35.5038 Y49.9290 
G01 X-35.6342 Y49.9290 
G01 X-35.7548 Y49.9613 
G01 X-35.7602 Y49.9627 
G01 X-35.8731 Y50.0279 
G01 X-35.9653 Y50.1201 
G01 X-36.9723 Y51.1271 
G01 X-37.0375 Y51.2401 
G01 X-37.0713 Y51.3661 
G01 X-37.0713 Y57.8539 
G01 X-37.0375 Y57.9799 
G01 X-36.9723 Y58.0929 
G01 X-36.8801 Y58.1851 
G01 X-35.2329 Y59.8323 
G01 X-35.1199 Y59.8975 
G01 X-34.9939 Y59.9313 
G01 X-10.7261 Y59.9313 
G01 X-10.6001 Y59.8975 
G01 X-10.4871 Y59.8323 
G01 X-10.3949 Y59.7401 
G01 X-8.7477 Y58.0929 
G01 X-8.6824 Y57.9799 
G01 X-8.6487 Y57.8539 
G01 X-8.6487 Y47.5509 
G01 X-8.6824 Y47.4250 
G01 X-8.7477 Y47.3120 
G01 X-8.8399 Y47.2198 
G01 X-8.9206 Y47.1391 
G01 X-9.1313 Y46.6303 
G01 X-9.1313 Y46.0796 
G01 X-8.9206 Y45.5709 
G01 X-8.7388 Y45.3891 
G01 X-8.6736 Y45.2762 
G01 X-8.6398 Y45.1502 
G01 X-8.6398 Y45.0198 
G01 X-8.6485 Y44.9875 
G01 X-8.6736 Y44.8938 
G01 X-8.7388 Y44.7809 
G01 X-8.8310 Y44.6887 
G01 X-8.9206 Y44.5991 
G01 X-9.1313 Y44.0904 
G01 X-9.1313 Y43.5396 
G01 X-8.9206 Y43.0309 
G01 X-8.7388 Y42.8491 
G01 X-8.6736 Y42.7362 
G01 X-8.6398 Y42.6102 
G01 X-8.6398 Y42.4798 
G01 X-8.6485 Y42.4475 
G01 X-8.6736 Y42.3538 
G01 X-8.7388 Y42.2409 
G01 X-8.8310 Y42.1487 
G01 X-8.9206 Y42.0591 
G01 X-9.1313 Y41.5504 
G01 X-9.1313 Y40.9996 
G01 X-8.9206 Y40.4909 
G01 X-8.5077 Y40.0780 
G01 X-8.4695 Y40.0398 
G01 X-8.4155 Y39.9858 
G01 X-8.3857 Y39.9341 
G01 X-8.3503 Y39.8729 
G01 X-8.3320 Y39.8045 
G01 X-8.3166 Y39.7469 
G01 X-8.3166 Y39.6820 
G01 X-8.3166 Y39.6165 
G01 X-8.3318 Y39.5597 
G01 X-8.3503 Y39.4905 
G01 X-8.3804 Y39.4384 
G01 X-8.4155 Y39.3776 
G01 X-8.4527 Y39.3404 
G01 X-8.5331 Y39.2303 
G01 X-8.4394 Y39.2303 
G01 X-8.4079 Y39.2774 
G01 X-8.2894 Y39.3959 
G01 X-8.1501 Y39.4891 
G01 X-7.9952 Y39.5532 
G01 X-7.8308 Y39.5859 
G01 X-6.1392 Y39.5859 
G01 X-5.9748 Y39.5532 
G01 X-5.8199 Y39.4891 
G01 X-5.6806 Y39.3959 
G01 X-5.5621 Y39.2774 
G01 X-5.5306 Y39.2303 
G01 X-5.4369 Y39.2303 
G01 X-5.5158 Y39.3389 
G01 X-5.5545 Y39.3776 
G01 X-5.5892 Y39.4377 
G01 X-5.6197 Y39.4905 
G01 X-5.6380 Y39.5588 
G01 X-5.6534 Y39.6165 
G01 X-5.6534 Y39.6813 
G01 X-5.6534 Y39.7469 
G01 X-5.6382 Y39.8036 
G01 X-5.6197 Y39.8728 
G01 X-5.5848 Y39.9333 
G01 X-5.5545 Y39.9858 
G01 X-5.5010 Y40.0393 
G01 X-5.4623 Y40.0780 
G01 X-5.0494 Y40.4909 
G01 X-4.8387 Y40.9996 
G01 X-4.8387 Y41.5504 
G01 X-5.0494 Y42.0591 
G01 X-5.1390 Y42.1487 
G01 X-5.2289 Y42.2386 
G01 X-5.2964 Y42.3538 
G01 X-5.3207 Y42.4446 
G01 X-5.3301 Y42.4798 
G01 X-5.3301 Y42.6102 
G01 X-5.2964 Y42.7362 
G01 X-5.2312 Y42.8491 
G01 X-5.1404 Y42.9399 
G01 X-5.0494 Y43.0309 
G01 X-4.8387 Y43.5396 
G01 X-4.8387 Y44.0904 
G01 X-5.0494 Y44.5991 
G01 X-5.1390 Y44.6887 
G01 X-5.2289 Y44.7786 
G01 X-5.2964 Y44.8938 
G01 X-5.3207 Y44.9846 
G01 X-5.3301 Y45.0198 
G01 X-5.3301 Y45.1502 
G01 X-5.2964 Y45.2762 
G01 X-5.2312 Y45.3891 
G01 X-5.1404 Y45.4799 
G01 X-5.0494 Y45.5709 
G01 X-4.8387 Y46.0796 
G01 X-4.8387 Y46.6303 
G01 X-5.0494 Y47.1391 
G01 X-5.4389 Y47.5286 
G01 X-5.9476 Y47.7393 
G01 X-6.1612 Y47.7393 
G01 X-6.2872 Y47.7730 
G01 X-6.4001 Y47.8383 
G01 X-6.4923 Y47.9305 
G01 X-6.5575 Y48.0434 
G01 X-6.5913 Y48.1694 
G01 X-6.5913 Y58.6159 
G01 X-6.5575 Y58.7419 
G01 X-6.4923 Y58.8549 
G01 X-6.4001 Y58.9471 
G01 X-6.2872 Y59.0123 
G01 X-6.1612 Y59.0460 
G01 X-6.0308 Y59.0460 
G01 X-5.9048 Y59.0123 
G01 X-5.7919 Y58.9471 
G01 X-5.6997 Y58.8549 
G01 X-3.7354 Y56.8906 
G01 X-3.6702 Y56.7776 
G01 X-3.6364 Y56.6517 
G01 X-3.6364 Y29.7083 
G01 X-3.6702 Y29.5823 
G01 X-3.7354 Y29.4694 
G01 X-3.8276 Y29.3772 
G01 X-4.1498 Y29.0550 
G01 X-4.1697 Y29.0291 
G01 X-4.1957 Y29.0091 
G01 X-4.2188 Y28.9860 
G01 X-4.2472 Y28.9696 
G01 X-4.2732 Y28.9497 
G01 X-4.3034 Y28.9371 
G01 X-4.3318 Y28.9208 
G01 X-4.3634 Y28.9123 
G01 X-4.3936 Y28.8998 
G01 X-4.4261 Y28.8955 
G01 X-4.4577 Y28.8870 
G01 X-4.4905 Y28.8870 
G01 X-4.5229 Y28.8827 
G01 X-4.5554 Y28.8870 
G01 X-4.5881 Y28.8870 
G01 X-4.6198 Y28.8955 
G01 X-4.6522 Y28.8998 
G01 X-4.6825 Y28.9123 
G01 X-4.7141 Y28.9208 
G01 X-4.7425 Y28.9371 
G01 X-4.7727 Y28.9497 
G01 X-4.7987 Y28.9696 
G01 X-4.8271 Y28.9860 
G01 X-4.8502 Y29.0091 
G01 X-4.8762 Y29.0291 
G01 X-4.8961 Y29.0550 
G01 X-4.9193 Y29.0782 
G01 X-4.9357 Y29.1066 
G01 X-4.9556 Y29.1325 
G01 X-4.9681 Y29.1628 
G01 X-4.9845 Y29.1911 
G01 X-4.9930 Y29.2228 
G01 X-5.0494 Y29.3591 
G01 X-5.1390 Y29.4487 
G01 X-5.2289 Y29.5386 
G01 X-5.2964 Y29.6538 
G01 X-5.3207 Y29.7446 
G01 X-5.3301 Y29.7798 
G01 X-5.3301 Y29.9102 
G01 X-5.2964 Y30.0362 
G01 X-5.2312 Y30.1491 
G01 X-5.1404 Y30.2399 
G01 X-5.0494 Y30.3309 
G01 X-4.8387 Y30.8396 
G01 X-4.8387 Y31.3904 
G01 X-5.0494 Y31.8991 
G01 X-5.4623 Y32.3120 
G01 X-5.5005 Y32.3502 
G01 X-5.5545 Y32.4042 
G01 X-5.5843 Y32.4559 
G01 X-5.6197 Y32.5171 
G01 X-5.6380 Y32.5855 
G01 X-5.6534 Y32.6431 
G01 X-5.6534 Y32.7080 
G01 X-5.6534 Y32.7735 
G01 X-5.6382 Y32.8303 
G01 X-5.6197 Y32.8995 
G01 X-5.5896 Y32.9516 
G01 X-5.5545 Y33.0124 
G01 X-5.5173 Y33.0496 
G01 X-5.4369 Y33.1597 
G01 X-5.5306 Y33.1597 
G01 X-5.5621 Y33.1126 
G01 X-5.6806 Y32.9941 
G01 X-5.8199 Y32.9009 
G01 X-5.9748 Y32.8368 
G01 X-6.1392 Y32.8041 
G01 X-7.8308 Y32.8041 
G01 X-7.9952 Y32.8368 
G01 X-8.1501 Y32.9009 
G01 X-8.2894 Y32.9941 
G01 X-8.4079 Y33.1126 
G01 X-8.4394 Y33.1597 
G01 X-8.5331 Y33.1597 
G01 X-8.4542 Y33.0511 
G01 X-8.4155 Y33.0124 
G01 X-8.3808 Y32.9523 
G01 X-8.3503 Y32.8995 
G01 X-8.3320 Y32.8312 
G01 X-8.3166 Y32.7735 
G01 X-8.3166 Y32.7087 
G01 X-8.3166 Y32.6431 
G01 X-8.3318 Y32.5864 
G01 X-8.3503 Y32.5171 
G01 X-8.3852 Y32.4567 
G01 X-8.4155 Y32.4042 
G01 X-8.4689 Y32.3507 
G01 X-8.5077 Y32.3120 
G01 X-8.9206 Y31.8991 
G01 X-9.1313 Y31.3904 
G01 X-9.1313 Y30.8396 
G01 X-8.9206 Y30.3309 
G01 X-8.7388 Y30.1491 
G01 X-8.6736 Y30.0362 
G01 X-8.6398 Y29.9102 
G01 X-8.6398 Y29.7798 
G01 X-8.6485 Y29.7475 
G01 X-8.6736 Y29.6538 
G01 X-8.7388 Y29.5409 
G01 X-8.8310 Y29.4487 
G01 X-8.9206 Y29.3591 
G01 X-9.1313 Y28.8503 
G01 X-9.1313 Y28.2996 
G01 X-8.9154 Y27.7785 
G01 X-8.8991 Y27.7502 
G01 X-8.8906 Y27.7185 
G01 X-8.8781 Y27.6883 
G01 X-8.8738 Y27.6558 
G01 X-8.8653 Y27.6242 
G01 X-8.8653 Y27.5915 
G01 X-8.8610 Y27.5590 
G01 X-8.8653 Y27.5265 
G01 X-8.8653 Y27.4938 
G01 X-8.8738 Y27.4622 
G01 X-8.8781 Y27.4297 
G01 X-8.8906 Y27.3994 
G01 X-8.8991 Y27.3678 
G01 X-8.9154 Y27.3395 
G01 X-8.9280 Y27.3092 
G01 X-8.9479 Y27.2832 
G01 X-8.9643 Y27.2549 
G01 X-8.9874 Y27.2317 
G01 X-9.0074 Y27.2057 
G01 X-9.0333 Y27.1858 
G01 X-9.0565 Y27.1627 
G01 X-9.0849 Y27.1463 
G01 X-9.1108 Y27.1264 
G01 X-9.1411 Y27.1138 
G01 X-9.1694 Y27.0974 
G01 X-9.2011 Y27.0890 
G01 X-9.2313 Y27.0764 
G01 X-9.2638 Y27.0722 
G01 X-9.2954 Y27.0637 
G01 X-9.3281 Y27.0637 
G01 X-9.3606 Y27.0594 
G01 X-9.3931 Y27.0637 
G01 X-9.7296 Y27.0637 
G01 X-10.1077 Y26.9071 
G01 X-11.9892 Y25.0256 
G01 X-12.3021 Y24.7127 
G01 X-12.4587 Y24.3346 
G01 X-12.4587 Y14.5360 
G01 X-12.4924 Y14.4101 
G01 X-12.5577 Y14.2971 
G01 X-12.6499 Y14.2049 
G01 X-14.2971 Y12.5577 
G01 X-14.4101 Y12.4924 
G01 X-14.5360 Y12.4587 
G01 X-42.6139 Y12.4587 
G01 X-42.7399 Y12.4924 
G01 X-42.8529 Y12.5577 
G01 X-44.5923 Y14.2971 
G01 X-44.6575 Y14.4101 
G01 X-44.6913 Y14.5360 
G01 X-44.6913 Y17.5912 
G01 X-44.6575 Y17.7172 
G01 X-44.5923 Y17.8301 
G01 X-44.5001 Y17.9223 
G01 X-44.3872 Y17.9875 
G01 X-44.2612 Y18.0213 
G01 X-40.4354 Y18.0213 
G01 X-40.0573 Y18.1779 
G01 X-38.5377 Y19.6975 
G01 X-38.4455 Y19.7897 
G01 X-38.3340 Y19.8541 
G01 X-38.2066 Y19.8886 
G01 X-38.0762 Y19.8886 
G01 X-37.9502 Y19.8549 
G01 X-37.8373 Y19.7897 
G01 X-37.7451 Y19.6975 
G01 X-37.6807 Y19.5860 
G01 X-37.6461 Y19.4585 
G01 X-37.6461 Y18.2995 
G01 X-37.6799 Y18.1736 
G01 X-37.7451 Y18.0606 
G01 X-37.7495 Y18.0561 
G01 X-37.9603 Y17.5474 
G01 X-37.9603 Y15.4726 
G01 X-37.7495 Y14.9639 
G01 X-37.3601 Y14.5744 
G01 X-36.8513 Y14.3637 
G01 X-36.3006 Y14.3637 
G01 X-35.7919 Y14.5744 
G01 X-35.6101 Y14.7562 
G01 X-35.4972 Y14.8214 
G01 X-35.3712 Y14.8551 
G01 X-35.2408 Y14.8551 
G01 X-35.2085 Y14.8465 
G01 X-35.1148 Y14.8214 
G01 X-35.0019 Y14.7562 
G01 X-34.9097 Y14.6640 
G01 X-34.8201 Y14.5744 
G01 X-34.3113 Y14.3637 
G01 X-33.7606 Y14.3637 
G01 X-33.2519 Y14.5744 
G01 X-33.0701 Y14.7562 
G01 X-32.9572 Y14.8214 
G01 X-32.8312 Y14.8551 
G01 X-32.7008 Y14.8551 
G01 X-32.6685 Y14.8465 
G01 X-32.5748 Y14.8214 
G01 X-32.4619 Y14.7562 
G01 X-32.3697 Y14.6640 
G01 X-32.2801 Y14.5744 
G01 X-31.7714 Y14.3637 
G01 X-31.2206 Y14.3637 
G01 X-30.7119 Y14.5744 
G01 X-30.5301 Y14.7562 
G01 X-30.4172 Y14.8214 
G01 X-30.2912 Y14.8551 
G01 X-30.1608 Y14.8551 
G01 X-30.1285 Y14.8465 
G01 X-30.0348 Y14.8214 
G01 X-29.9219 Y14.7562 
G01 X-29.8297 Y14.6640 
G01 X-29.7401 Y14.5744 
G01 X-29.2313 Y14.3637 
G01 X-28.6806 Y14.3637 
G01 X-28.1719 Y14.5744 
G01 X-27.9901 Y14.7562 
G01 X-27.8772 Y14.8214 
G01 X-27.7512 Y14.8551 
G01 X-27.6208 Y14.8551 
G01 X-27.5885 Y14.8465 
G01 X-27.4948 Y14.8214 
G01 X-27.3819 Y14.7562 
G01 X-27.2897 Y14.6640 
G01 X-27.2001 Y14.5744 
G01 X-26.6913 Y14.3637 
G01 X-26.1406 Y14.3637 
G01 X-25.6319 Y14.5744 
G01 X-25.4501 Y14.7562 
G01 X-25.3372 Y14.8214 
G01 X-25.2112 Y14.8551 
G01 X-25.0808 Y14.8551 
G01 X-25.0485 Y14.8465 
G01 X-24.9548 Y14.8214 
G01 X-24.8419 Y14.7562 
G01 X-24.7497 Y14.6640 
G01 X-24.6601 Y14.5744 
G01 X-24.1514 Y14.3637 
G01 X-23.6006 Y14.3637 
G01 X-23.0919 Y14.5744 
G01 X-22.9101 Y14.7562 
G01 X-22.7972 Y14.8214 
G01 X-22.6712 Y14.8551 
G01 X-22.5408 Y14.8551 
G01 X-22.5085 Y14.8465 
G01 X-22.4148 Y14.8214 
G01 X-22.3019 Y14.7562 
G01 X-22.2097 Y14.6640 
G01 X-22.1201 Y14.5744 
G01 X-21.6114 Y14.3637 
G01 X-21.0606 Y14.3637 
G01 X-20.5519 Y14.5744 
G01 X-20.3701 Y14.7562 
G01 X-20.2572 Y14.8214 
G01 X-20.1312 Y14.8551 
G01 X-20.0008 Y14.8551 
G01 X-19.9685 Y14.8465 
G01 X-19.8748 Y14.8214 
G01 X-19.7619 Y14.7562 
G01 X-19.6697 Y14.6640 
G01 X-19.5801 Y14.5744 
G01 X-19.0713 Y14.3637 
G01 X-18.5206 Y14.3637 
G01 X-18.0119 Y14.5744 
G01 X-17.6224 Y14.9639 
G01 X-17.4117 Y15.4726 
G01 X-17.4117 Y17.5474 
G01 X-17.6224 Y18.0561 
G01 X-17.7097 Y18.1434 
G01 X-17.7749 Y18.2564 
G01 X-17.8087 Y18.3823 
G01 X-17.8087 Y24.1138 
G01 X-17.8130 Y24.1463 
G01 X-17.8087 Y24.1787 
G01 X-17.8087 Y24.2115 
G01 X-17.8002 Y24.2431 
G01 X-17.7959 Y24.2756 
G01 X-17.7834 Y24.3058 
G01 X-17.7749 Y24.3374 
G01 X-17.7586 Y24.3658 
G01 X-17.6055 Y24.7354 
G01 X-17.6055 Y26.4446 
G01 X-17.7930 Y26.8974 
G01 X-18.1396 Y27.2440 
G01 X-18.5924 Y27.4315 
G01 X-19.0824 Y27.4315 
G01 X-19.5352 Y27.2440 
G01 X-19.7111 Y27.0681 
G01 X-19.7973 Y26.9819 
G01 X-19.8033 Y26.9759 
G01 X-19.9162 Y26.9107 
G01 X-20.0070 Y26.8864 
G01 X-20.0422 Y26.8769 
G01 X-20.1726 Y26.8769 
G01 X-20.2986 Y26.9107 
G01 X-20.4090 Y26.9745 
G01 X-20.5037 Y27.0681 
G01 X-20.6796 Y27.2440 
G01 X-21.1324 Y27.4315 
G01 X-21.6224 Y27.4315 
G01 X-22.0752 Y27.2440 
G01 X-22.2511 Y27.0681 
G01 X-22.3373 Y26.9819 
G01 X-22.3433 Y26.9759 
G01 X-22.4562 Y26.9107 
G01 X-22.5470 Y26.8864 
G01 X-22.5822 Y26.8769 
G01 X-22.7126 Y26.8769 
G01 X-22.8386 Y26.9107 
G01 X-22.9490 Y26.9745 
G01 X-23.0437 Y27.0681 
G01 X-23.2196 Y27.2440 
G01 X-23.6724 Y27.4315 
G01 X-24.1624 Y27.4315 
G01 X-24.6152 Y27.2440 
G01 X-24.7911 Y27.0681 
G01 X-24.8773 Y26.9819 
G01 X-24.8833 Y26.9759 
G01 X-24.9962 Y26.9107 
G01 X-25.0870 Y26.8864 
G01 X-25.1222 Y26.8769 
G01 X-25.2526 Y26.8769 
G01 X-25.3786 Y26.9107 
G01 X-25.4890 Y26.9744 
G01 X-25.5837 Y27.0681 
G01 X-25.7596 Y27.2440 
G01 X-26.2124 Y27.4315 
G01 X-26.7024 Y27.4315 
G01 X-27.1552 Y27.2440 
G01 X-27.3311 Y27.0681 
G01 X-27.4173 Y26.9819 
G01 X-27.4233 Y26.9759 
G01 X-27.5362 Y26.9107 
G01 X-27.6270 Y26.8864 
G01 X-27.6622 Y26.8769 
G01 X-27.7926 Y26.8769 
G01 X-27.9186 Y26.9107 
G01 X-28.0290 Y26.9745 
G01 X-28.1237 Y27.0681 
G01 X-28.2996 Y27.2440 
G01 X-28.7524 Y27.4315 
G01 X-29.2424 Y27.4315 
G01 X-29.6952 Y27.2440 
G01 X-29.8711 Y27.0681 
G01 X-29.9573 Y26.9819 
G01 X-29.9633 Y26.9759 
G01 X-30.0762 Y26.9107 
G01 X-30.1670 Y26.8864 
G01 X-30.2022 Y26.8769 
G01 X-30.3326 Y26.8769 
G01 X-30.4586 Y26.9107 
G01 X-30.5690 Y26.9745 
G01 X-30.6637 Y27.0681 
G01 X-30.8396 Y27.2440 
G01 X-31.2924 Y27.4315 
G01 X-31.7824 Y27.4315 
G01 X-32.2352 Y27.2440 
G01 X-32.4111 Y27.0681 
G01 X-32.4973 Y26.9819 
G01 X-32.5033 Y26.9759 
G01 X-32.6162 Y26.9107 
G01 X-32.7070 Y26.8864 
G01 X-32.7422 Y26.8769 
G01 X-32.8726 Y26.8769 
G01 X-32.9986 Y26.9107 
G01 X-33.1090 Y26.9745 
G01 X-33.2037 Y27.0681 
G01 X-33.3796 Y27.2440 
G01 X-33.8324 Y27.4315 
G01 X-34.3224 Y27.4315 
G01 X-34.7752 Y27.2440 
G01 X-34.9511 Y27.0681 
G01 X-35.0373 Y26.9819 
G01 X-35.0433 Y26.9759 
G01 X-35.1562 Y26.9107 
G01 X-35.2470 Y26.8864 
G01 X-35.2822 Y26.8769 
G01 X-35.4126 Y26.8769 
G01 X-35.5386 Y26.9107 
G01 X-35.6490 Y26.9745 
G01 X-35.7437 Y27.0681 
G01 X-35.9196 Y27.2440 
G01 X-36.3724 Y27.4315 
G01 X-36.8624 Y27.4315 
G01 X-37.3152 Y27.2440 
G01 X-37.4911 Y27.0681 
G01 X-37.5773 Y26.9819 
G01 X-37.5833 Y26.9759 
G01 X-37.6962 Y26.9107 
G01 X-37.7870 Y26.8864 
G01 X-37.8222 Y26.8769 
G01 X-37.9526 Y26.8769 
G01 X-38.0786 Y26.9107 
G01 X-38.1890 Y26.9745 
G01 X-38.2837 Y27.0681 
G01 X-38.4596 Y27.2440 
G01 X-38.9124 Y27.4315 
G01 X-39.4024 Y27.4315 
G01 X-39.8552 Y27.2440 
G01 X-40.2017 Y26.8974 
G01 X-40.2203 Y26.8526 
G01 X-40.2214 Y26.8461 
G01 X-40.2452 Y26.7924 
G01 X-40.2677 Y26.7382 
G01 X-40.2717 Y26.7329 
G01 X-40.2744 Y26.7269 
G01 X-40.3113 Y26.6813 
G01 X-40.3471 Y26.6347 
G01 X-40.3523 Y26.6307 
G01 X-40.3565 Y26.6256 
G01 X-40.4040 Y26.5911 
G01 X-40.4506 Y26.5553 
G01 X-40.4567 Y26.5528 
G01 X-40.4620 Y26.5489 
G01 X-40.5168 Y26.5279 
G01 X-40.5711 Y26.5054 
G01 X-40.5776 Y26.5045 
G01 X-40.5837 Y26.5022 
G01 X-40.6421 Y26.4960 
G01 X-40.7004 Y26.4884 
G01 X-40.7069 Y26.4892 
G01 X-40.7134 Y26.4885 
G01 X-40.7714 Y26.4977 
G01 X-40.8297 Y26.5054 
G01 X-40.8357 Y26.5079 
G01 X-40.8422 Y26.5089 
G01 X-40.8959 Y26.5328 
G01 X-40.9501 Y26.5553 
G01 X-40.9554 Y26.5593 
G01 X-40.9614 Y26.5620 
G01 X-41.0070 Y26.5989 
G01 X-41.0536 Y26.6347 
G01 X-41.0576 Y26.6399 
G01 X-41.0627 Y26.6441 
G01 X-41.0972 Y26.6915 
G01 X-41.1087 Y26.7065 
G01 X-41.1927 Y26.7905 
G01 X-41.2021 Y26.7973 
G01 X-41.2021 Y26.6921 
G01 X-41.1548 Y26.6449 
G01 X-41.0784 Y26.5305 
G01 X-41.0257 Y26.4033 
G01 X-40.9989 Y26.2684 
G01 X-40.9989 Y24.9116 
G01 X-41.0257 Y24.7767 
G01 X-41.0784 Y24.6495 
G01 X-41.1548 Y24.5351 
G01 X-41.2021 Y24.4879 
G01 X-41.2021 Y24.3867 
G01 X-41.1981 Y24.3906 
G01 X-41.1641 Y24.4103 
G01 X-41.1324 Y24.4333 
G01 X-41.1079 Y24.4427 
G01 X-41.0852 Y24.4558 
G01 X-41.0473 Y24.4660 
G01 X-41.0106 Y24.4801 
G01 X-40.9845 Y24.4828 
G01 X-40.9592 Y24.4896 
G01 X-40.9200 Y24.4896 
G01 X-40.8809 Y24.4937 
G01 X-40.8550 Y24.4896 
G01 X-40.8288 Y24.4896 
G01 X-40.7909 Y24.4794 
G01 X-40.7521 Y24.4733 
G01 X-40.7282 Y24.4626 
G01 X-40.7028 Y24.4558 
G01 X-40.6688 Y24.4362 
G01 X-40.6330 Y24.4203 
G01 X-40.6126 Y24.4037 
G01 X-40.5899 Y24.3906 
G01 X-40.5621 Y24.3629 
G01 X-40.5316 Y24.3382 
G01 X-40.5162 Y24.3170 
G01 X-40.4977 Y24.2984 
G01 X-40.4780 Y24.2644 
G01 X-40.4550 Y24.2327 
G01 X-40.4456 Y24.2082 
G01 X-40.4325 Y24.1855 
G01 X-40.4223 Y24.1476 
G01 X-40.4082 Y24.1109 
G01 X-40.4055 Y24.0848 
G01 X-40.3987 Y24.0595 
G01 X-40.3987 Y24.0203 
G01 X-40.3946 Y23.9812 
G01 X-40.3987 Y23.9553 
G01 X-40.3987 Y23.9254 
G01 X-40.2421 Y23.5473 
G01 X-39.9549 Y23.2601 
G01 X-39.8627 Y23.1679 
G01 X-39.7974 Y23.0549 
G01 X-39.7637 Y22.9289 
G01 X-39.7637 Y21.5210 
G01 X-39.7974 Y21.3951 
G01 X-39.8627 Y21.2821 
G01 X-39.9549 Y21.1899 
G01 X-40.9671 Y20.1777 
G01 X-41.0801 Y20.1124 
G01 X-41.2060 Y20.0787 
G01 X-44.3726 Y20.0787 
G01 X-44.4986 Y20.1124 
G01 X-44.6115 Y20.1777 
G01 X-44.7037 Y20.2699 
G01 X-44.7689 Y20.3828 
G01 X-44.8027 Y20.5088 
G01 X-44.8027 Y20.6038 
G01 X-44.8974 Y20.8325 
G01 X-45.0725 Y21.0076 
G01 X-45.3012 Y21.1023 
G01 X-47.1488 Y21.1023 
G01 X-47.3775 Y21.0076 
G01 X-47.5696 Y20.8154 
G01 X-47.5806 Y20.8012 
G01 X-47.6273 Y20.7403 
G01 X-47.6703 Y20.7073 
G01 X-47.7307 Y20.6609 
G01 X-47.7913 Y20.6358 
G01 X-47.8512 Y20.6110 
G01 X-47.9287 Y20.6008 
G01 X-47.9805 Y20.5940 
G01 X-48.0812 Y20.6072 
G01 X-48.1098 Y20.6110 
G01 X-48.1768 Y20.6388 
G01 X-48.2087 Y20.6451 
G01 X-48.5297 Y20.6451 
G01 X-48.5297 Y20.5689 
G01 X-48.2073 Y20.5689 
G01 X-48.1746 Y20.5554 
G01 X-48.1496 Y20.5304 
G01 X-48.1361 Y20.4977 
G01 X-48.1361 Y17.7623 
G01 X-48.1496 Y17.7296 
G01 X-48.1746 Y17.7046 
G01 X-48.2073 Y17.6911 
G01 X-48.5297 Y17.6911 
G01 X-48.5297 Y17.6149 
G01 X-48.2087 Y17.6149 
G01 X-48.1768 Y17.6212 
G01 X-48.1098 Y17.6490 
G01 X-48.0841 Y17.6524 
G01 X-47.9805 Y17.6660 
G01 X-47.9302 Y17.6594 
G01 X-47.8512 Y17.6490 
G01 X-47.7942 Y17.6254 
G01 X-47.7308 Y17.5991 
G01 X-47.6713 Y17.5535 
G01 X-47.6273 Y17.5197 
G01 X-47.5817 Y17.4602 
G01 X-47.5696 Y17.4446 
G01 X-47.3775 Y17.2524 
G01 X-47.0938 Y17.1349 
G01 X-47.0528 Y17.1239 
G01 X-47.0161 Y17.1027 
G01 X-46.9975 Y17.0950 
G01 X-46.9816 Y17.0828 
G01 X-46.9399 Y17.0587 
G01 X-46.9058 Y17.0247 
G01 X-46.8941 Y17.0157 
G01 X-46.8850 Y17.0039 
G01 X-46.8477 Y16.9665 
G01 X-46.8212 Y16.9208 
G01 X-46.8147 Y16.9122 
G01 X-46.8105 Y16.9022 
G01 X-46.7824 Y16.8536 
G01 X-46.7679 Y16.7993 
G01 X-46.7648 Y16.7917 
G01 X-46.7637 Y16.7835 
G01 X-46.7487 Y16.7276 
G01 X-46.7487 Y16.6698 
G01 X-46.7477 Y16.6624 
G01 X-46.7487 Y16.6550 
G01 X-46.7487 Y13.7654 
G01 X-46.5921 Y13.3873 
G01 X-46.1869 Y12.9821 
G01 X-43.7627 Y10.5579 
G01 X-43.3846 Y10.4013 
G01 X-13.7654 Y10.4013 
G01 X-13.3873 Y10.5579 
G01 X-12.9821 Y10.9631 
G01 X-10.5579 Y13.3873 
G01 X-10.4013 Y13.7654 
G01 X-10.4013 Y23.5639 
G01 X-10.3675 Y23.6899 
G01 X-10.3023 Y23.8029 
G01 X-10.2965 Y23.8086 
G01 X-10.0229 Y24.0823 
G01 X-9.9365 Y24.1687 
G01 X-9.9307 Y24.1745 
G01 X-9.8178 Y24.2397 
G01 X-9.7270 Y24.2640 
G01 X-9.6918 Y24.2734 
G01 X-9.5614 Y24.2734 
G01 X-9.4354 Y24.2397 
G01 X-9.3250 Y24.1759 
G01 X-9.2303 Y24.0823 
G01 X-9.1651 Y23.9693 
G01 X-9.1407 Y23.8785 
G01 X-9.1313 Y23.8434 
G01 X-9.1313 Y23.2196 
G01 X-8.9206 Y22.7109 
G01 X-8.5311 Y22.3214 
G01 X-8.0223 Y22.1107 
G01 X-5.9476 Y22.1107 
G01 X-5.4389 Y22.3214 
G01 X-5.0494 Y22.7109 
G01 X-4.8387 Y23.2196 
G01 X-4.8387 Y23.7704 
G01 X-5.0494 Y24.2791 
G01 X-5.2286 Y24.4583 
G01 X-5.2938 Y24.5713 
G01 X-5.3276 Y24.6972 
G01 X-5.3276 Y24.8277 
G01 X-5.2938 Y24.9536 
G01 X-5.2286 Y25.0666 
G01 X-5.1364 Y25.1588 
G01 X-2.1408 Y28.1544 
G01 X-1.7171 Y28.5781 
G01 X-1.6330 Y28.6622 
G01 X-1.6249 Y28.6703 
G01 X-1.5154 Y28.7335 
G01 X-1.5120 Y28.7355 
G01 X-1.3860 Y28.7692 
G01 X-1.2556 Y28.7692 
G01 X-1.2502 Y28.7678 
G01 X-1.1296 Y28.7355 
G01 X-1.0192 Y28.6717 
G01 X-0.9245 Y28.5781 
G01 X-0.8612 Y28.4685 
G01 X-0.8592 Y28.4651 
G01 X-0.8255 Y28.3392 
G01 X-0.8255 Y1.2556 
G01 X-0.8592 Y1.1296 
G01 X-0.9245 Y1.0167 
G00 Z2.5400 
G00 X-3.7945 Y3.2956 
G01 Z-0.1778 F100.00 
G01 X-3.2256 Y3.8645 F100.00 
G01 X-2.9177 Y4.6077 
G01 X-2.9177 Y5.4123 
G01 X-3.2256 Y6.1555 
G01 X-3.7945 Y6.7244 
G01 X-4.5377 Y7.0323 
G01 X-5.3423 Y7.0323 
G01 X-6.0855 Y6.7244 
G01 X-6.6544 Y6.1555 
G01 X-6.9623 Y5.4123 
G01 X-6.9623 Y4.6077 
G01 X-6.6544 Y3.8645 
G01 X-6.0855 Y3.2956 
G01 X-5.3423 Y2.9877 
G01 X-4.5377 Y2.9877 
G01 X-3.7945 Y3.2956 
G00 Z2.5400 
G00 X-11.0337 Y13.6659 
G01 Z-0.1778 F100.00 
G01 X-13.5737 Y11.1259 F100.00 
G01 X-13.6659 Y11.0337 
G01 X-13.7788 Y10.9685 
G01 X-13.9048 Y10.9347 
G01 X-43.2452 Y10.9347 
G01 X-43.3712 Y10.9685 
G01 X-43.4841 Y11.0337 
G01 X-46.0241 Y13.5737 
G01 X-46.1163 Y13.6659 
G01 X-46.1815 Y13.7788 
G01 X-46.2153 Y13.9048 
G01 X-46.2153 Y17.6911 
G01 X-47.0427 Y17.6911 
G01 X-47.0754 Y17.7046 
G01 X-47.1004 Y17.7296 
G01 X-47.1139 Y17.7623 
G01 X-47.1139 Y20.4977 
G01 X-47.1004 Y20.5304 
G01 X-47.0754 Y20.5554 
G01 X-47.0427 Y20.5689 
G01 X-45.4073 Y20.5689 
G01 X-45.3746 Y20.5554 
G01 X-45.3496 Y20.5304 
G01 X-45.3361 Y20.4977 
G01 X-45.3361 Y19.5453 
G01 X-40.8452 Y19.5453 
G01 X-39.2303 Y21.1602 
G01 X-39.2303 Y23.2898 
G01 X-39.7663 Y23.8259 
G01 X-39.8315 Y23.9388 
G01 X-39.8653 Y24.0648 
G01 X-39.8653 Y25.4426 
G01 X-39.8559 Y25.4777 
G01 X-39.8559 Y26.2684 
G01 X-39.8291 Y26.4033 
G01 X-39.7764 Y26.5305 
G01 X-39.7000 Y26.6449 
G01 X-39.6027 Y26.7422 
G01 X-39.4883 Y26.8186 
G01 X-39.3611 Y26.8713 
G01 X-39.2262 Y26.8981 
G01 X-39.0886 Y26.8981 
G01 X-38.9537 Y26.8713 
G01 X-38.8265 Y26.8186 
G01 X-38.7121 Y26.7422 
G01 X-38.6148 Y26.6449 
G01 X-38.5384 Y26.5305 
G01 X-38.4857 Y26.4033 
G01 X-38.4589 Y26.2684 
G01 X-38.4589 Y24.9116 
G01 X-38.4857 Y24.7767 
G01 X-38.5384 Y24.6495 
G01 X-38.6148 Y24.5351 
G01 X-38.7121 Y24.4378 
G01 X-38.8265 Y24.3614 
G01 X-38.8747 Y24.3414 
G01 X-38.8747 Y24.3352 
G01 X-38.3387 Y23.7991 
G01 X-38.2735 Y23.6862 
G01 X-38.2397 Y23.5602 
G01 X-38.2397 Y20.8898 
G01 X-38.2735 Y20.7638 
G01 X-38.3387 Y20.6509 
G01 X-38.4309 Y20.5587 
G01 X-40.3359 Y18.6537 
G01 X-40.4488 Y18.5885 
G01 X-40.5748 Y18.5547 
G01 X-45.2247 Y18.5547 
G01 X-45.2247 Y14.1752 
G01 X-42.9748 Y11.9253 
G01 X-14.1752 Y11.9253 
G01 X-11.9253 Y14.1752 
G01 X-11.9253 Y24.1952 
G01 X-11.8915 Y24.3212 
G01 X-11.8263 Y24.4341 
G01 X-11.7341 Y24.5263 
G01 X-9.8291 Y26.4313 
G01 X-9.7162 Y26.4965 
G01 X-9.5902 Y26.5303 
G01 X-8.4394 Y26.5303 
G01 X-8.4079 Y26.5774 
G01 X-8.2894 Y26.6959 
G01 X-8.1501 Y26.7891 
G01 X-7.9952 Y26.8532 
G01 X-7.8308 Y26.8859 
G01 X-7.4803 Y26.8859 
G01 X-7.4803 Y27.7241 
G01 X-7.8308 Y27.7241 
G01 X-7.9952 Y27.7568 
G01 X-8.1501 Y27.8209 
G01 X-8.2894 Y27.9141 
G01 X-8.4079 Y28.0326 
G01 X-8.5011 Y28.1719 
G01 X-8.5652 Y28.3268 
G01 X-8.5979 Y28.4912 
G01 X-8.5979 Y28.6588 
G01 X-8.5652 Y28.8232 
G01 X-8.5011 Y28.9780 
G01 X-8.4079 Y29.1174 
G01 X-8.2894 Y29.2359 
G01 X-8.1501 Y29.3291 
G01 X-7.9952 Y29.3932 
G01 X-7.8308 Y29.4259 
G01 X-7.4803 Y29.4259 
G01 X-7.4803 Y30.2641 
G01 X-7.8308 Y30.2641 
G01 X-7.9952 Y30.2968 
G01 X-8.1501 Y30.3609 
G01 X-8.2894 Y30.4541 
G01 X-8.4079 Y30.5726 
G01 X-8.5011 Y30.7119 
G01 X-8.5652 Y30.8668 
G01 X-8.5979 Y31.0312 
G01 X-8.5979 Y31.1988 
G01 X-8.5652 Y31.3632 
G01 X-8.5011 Y31.5180 
G01 X-8.4079 Y31.6574 
G01 X-8.2894 Y31.7759 
G01 X-8.1501 Y31.8691 
G01 X-7.9952 Y31.9332 
G01 X-7.8308 Y31.9659 
G01 X-6.1392 Y31.9659 
G01 X-5.9748 Y31.9332 
G01 X-5.8199 Y31.8691 
G01 X-5.6806 Y31.7759 
G01 X-5.5621 Y31.6574 
G01 X-5.4689 Y31.5180 
G01 X-5.4048 Y31.3632 
G01 X-5.3721 Y31.1988 
G01 X-5.3721 Y31.0312 
G01 X-5.4048 Y30.8668 
G01 X-5.4689 Y30.7119 
G01 X-5.5621 Y30.5726 
G01 X-5.6806 Y30.4541 
G01 X-5.8199 Y30.3609 
G01 X-5.9748 Y30.2968 
G01 X-6.1392 Y30.2641 
G01 X-6.4897 Y30.2641 
G01 X-6.4897 Y29.4259 
G01 X-6.1392 Y29.4259 
G01 X-5.9748 Y29.3932 
G01 X-5.8199 Y29.3291 
G01 X-5.6806 Y29.2359 
G01 X-5.5621 Y29.1174 
G01 X-5.4689 Y28.9780 
G01 X-5.4048 Y28.8232 
G01 X-5.3721 Y28.6588 
G01 X-5.3721 Y28.4912 
G01 X-5.4048 Y28.3268 
G01 X-5.4689 Y28.1719 
G01 X-5.5621 Y28.0326 
G01 X-5.6806 Y27.9141 
G01 X-5.8199 Y27.8209 
G01 X-5.9748 Y27.7568 
G01 X-6.1392 Y27.7241 
G01 X-6.4897 Y27.7241 
G01 X-6.4897 Y26.8859 
G01 X-6.1392 Y26.8859 
G01 X-5.9748 Y26.8532 
G01 X-5.8199 Y26.7891 
G01 X-5.7249 Y26.7255 
G01 X-3.1030 Y29.3474 
G01 X-3.1030 Y57.0126 
G01 X-9.0952 Y63.0047 
G01 X-45.5148 Y63.0047 
G01 X-47.1056 Y61.4139 
G01 X-46.3023 Y61.4139 
G01 X-46.2696 Y61.4004 
G01 X-46.2446 Y61.3754 
G01 X-46.2311 Y61.3427 
G01 X-46.2311 Y59.3073 
G01 X-46.2446 Y59.2746 
G01 X-46.2696 Y59.2496 
G01 X-46.3023 Y59.2361 
G01 X-47.9377 Y59.2361 
G01 X-47.9704 Y59.2496 
G01 X-47.9954 Y59.2746 
G01 X-48.0089 Y59.3073 
G01 X-48.0089 Y60.4647 
G01 X-59.7552 Y60.4647 
G01 X-59.8812 Y60.4985 
G01 X-59.9941 Y60.5637 
G01 X-60.0863 Y60.6559 
G01 X-62.6263 Y63.1959 
G01 X-62.6915 Y63.3088 
G01 X-62.7253 Y63.4348 
G01 X-62.7253 Y65.8348 
G01 X-63.7052 Y66.8147 
G01 X-84.8848 Y66.8147 
G01 X-94.7547 Y56.9448 
G01 X-94.7547 Y29.4152 
G01 X-91.3872 Y26.0477 
G01 X-91.3412 Y26.0477 
G01 X-91.1473 Y26.0091 
G01 X-90.9648 Y25.9335 
G01 X-90.8004 Y25.8237 
G01 X-90.6607 Y25.6840 
G01 X-90.5509 Y25.5196 
G01 X-90.4753 Y25.3371 
G01 X-90.4367 Y25.1432 
G01 X-90.4367 Y23.1168 
G01 X-90.4753 Y22.9229 
G01 X-90.5509 Y22.7404 
G01 X-90.6607 Y22.5760 
G01 X-90.8004 Y22.4363 
G01 X-90.9648 Y22.3265 
G01 X-91.1473 Y22.2509 
G01 X-91.3412 Y22.2123 
G01 X-91.5388 Y22.2123 
G01 X-91.7327 Y22.2509 
G01 X-91.9152 Y22.3265 
G01 X-92.0796 Y22.4363 
G01 X-92.2193 Y22.5760 
G01 X-92.3291 Y22.7404 
G01 X-92.4047 Y22.9229 
G01 X-92.4433 Y23.1168 
G01 X-92.4433 Y25.1432 
G01 X-92.4047 Y25.3371 
G01 X-92.3291 Y25.5196 
G01 X-92.3015 Y25.5610 
G01 X-95.6463 Y28.9059 
G01 X-95.7115 Y29.0188 
G01 X-95.7453 Y29.1448 
G01 X-95.7453 Y57.2152 
G01 X-95.7115 Y57.3412 
G01 X-95.6463 Y57.4541 
G01 X-95.5541 Y57.5463 
G01 X-85.4863 Y67.6141 
G01 X-85.3941 Y67.7063 
G01 X-85.2812 Y67.7715 
G01 X-85.1552 Y67.8053 
G01 X-63.4348 Y67.8053 
G01 X-63.3088 Y67.7715 
G01 X-63.1959 Y67.7063 
G01 X-61.9259 Y66.4363 
G01 X-61.8337 Y66.3441 
G01 X-61.7685 Y66.2312 
G01 X-61.7347 Y66.1052 
G01 X-61.7347 Y63.7052 
G01 X-59.4848 Y61.4553 
G01 X-48.4652 Y61.4553 
G01 X-46.0241 Y63.8963 
G01 X-45.9112 Y63.9615 
G01 X-45.7852 Y63.9953 
G01 X-8.8248 Y63.9953 
G01 X-8.6988 Y63.9615 
G01 X-8.5859 Y63.8963 
G01 X-8.4937 Y63.8041 
G01 X-2.1437 Y57.4541 
G01 X-2.0785 Y57.3412 
G01 X-2.0447 Y57.2152 
G01 X-2.0447 Y57.0848 
G01 X-2.0785 Y56.9588 
G01 X-2.1124 Y56.9000 
G01 X-2.1124 Y29.0771 
G01 X-2.1462 Y28.9511 
G01 X-2.2114 Y28.8381 
G01 X-2.3036 Y28.7459 
G01 X-5.4109 Y25.6387 
G01 X-5.4981 Y25.5883 
G01 X-5.5621 Y25.4926 
G01 X-5.6806 Y25.3741 
G01 X-5.8199 Y25.2809 
G01 X-5.9748 Y25.2168 
G01 X-6.1392 Y25.1841 
G01 X-6.4897 Y25.1841 
G01 X-6.4897 Y24.3459 
G01 X-6.1392 Y24.3459 
G01 X-5.9748 Y24.3132 
G01 X-5.8199 Y24.2491 
G01 X-5.6806 Y24.1559 
G01 X-5.5621 Y24.0374 
G01 X-5.4689 Y23.8981 
G01 X-5.4048 Y23.7432 
G01 X-5.3721 Y23.5788 
G01 X-5.3721 Y23.4112 
G01 X-5.4048 Y23.2468 
G01 X-5.4689 Y23.0919 
G01 X-5.5621 Y22.9526 
G01 X-5.6806 Y22.8341 
G01 X-5.8199 Y22.7409 
G01 X-5.9748 Y22.6768 
G01 X-6.1392 Y22.6441 
G01 X-7.8308 Y22.6441 
G01 X-7.9952 Y22.6768 
G01 X-8.1501 Y22.7409 
G01 X-8.2894 Y22.8341 
G01 X-8.4079 Y22.9526 
G01 X-8.5011 Y23.0919 
G01 X-8.5652 Y23.2468 
G01 X-8.5979 Y23.4112 
G01 X-8.5979 Y23.5788 
G01 X-8.5652 Y23.7432 
G01 X-8.5011 Y23.8981 
G01 X-8.4079 Y24.0374 
G01 X-8.2894 Y24.1559 
G01 X-8.1501 Y24.2491 
G01 X-7.9952 Y24.3132 
G01 X-7.8308 Y24.3459 
G01 X-7.4803 Y24.3459 
G01 X-7.4803 Y25.1841 
G01 X-7.8308 Y25.1841 
G01 X-7.9952 Y25.2168 
G01 X-8.1501 Y25.2809 
G01 X-8.2894 Y25.3741 
G01 X-8.4079 Y25.4926 
G01 X-8.4394 Y25.5397 
G01 X-9.3198 Y25.5397 
G01 X-10.9347 Y23.9248 
G01 X-10.9347 Y13.9048 
G01 X-10.9685 Y13.7788 
G01 X-11.0337 Y13.6659 
G00 Z2.5400 
G00 X-18.1351 Y15.2056 
G01 Z-0.1778 F100.00 
G01 X-18.2536 Y15.0871 F100.00 
G01 X-18.3929 Y14.9939 
G01 X-18.5478 Y14.9298 
G01 X-18.7122 Y14.8971 
G01 X-18.8798 Y14.8971 
G01 X-19.0442 Y14.9298 
G01 X-19.1990 Y14.9939 
G01 X-19.3384 Y15.0871 
G01 X-19.4569 Y15.2056 
G01 X-19.5501 Y15.3449 
G01 X-19.6142 Y15.4998 
G01 X-19.6469 Y15.6642 
G01 X-19.6469 Y17.3558 
G01 X-19.6142 Y17.5202 
G01 X-19.5501 Y17.6750 
G01 X-19.4569 Y17.8144 
G01 X-19.3384 Y17.9329 
G01 X-19.3327 Y17.9368 
G01 X-19.3327 Y24.4879 
G01 X-19.3800 Y24.5351 
G01 X-19.4564 Y24.6495 
G01 X-19.5091 Y24.7767 
G01 X-19.5359 Y24.9116 
G01 X-19.5359 Y26.2684 
G01 X-19.5091 Y26.4033 
G01 X-19.4564 Y26.5305 
G01 X-19.3800 Y26.6449 
G01 X-19.2827 Y26.7422 
G01 X-19.1683 Y26.8186 
G01 X-19.0411 Y26.8713 
G01 X-18.9062 Y26.8981 
G01 X-18.7686 Y26.8981 
G01 X-18.6337 Y26.8713 
G01 X-18.5065 Y26.8186 
G01 X-18.3921 Y26.7422 
G01 X-18.2948 Y26.6449 
G01 X-18.2184 Y26.5305 
G01 X-18.1657 Y26.4033 
G01 X-18.1389 Y26.2684 
G01 X-18.1389 Y24.9116 
G01 X-18.1657 Y24.7767 
G01 X-18.2184 Y24.6495 
G01 X-18.2948 Y24.5351 
G01 X-18.3421 Y24.4879 
G01 X-18.3421 Y17.9921 
G01 X-18.2536 Y17.9329 
G01 X-18.1351 Y17.8144 
G01 X-18.0419 Y17.6750 
G01 X-17.9778 Y17.5202 
G01 X-17.9451 Y17.3558 
G01 X-17.9451 Y15.6642 
G01 X-17.9778 Y15.4998 
G01 X-18.0419 Y15.3449 
G01 X-18.1351 Y15.2056 
G00 Z2.5400 
G00 X-20.6751 Y15.2056 
G01 Z-0.1778 F100.00 
G01 X-20.7936 Y15.0871 F100.00 
G01 X-20.9329 Y14.9939 
G01 X-21.0878 Y14.9298 
G01 X-21.2522 Y14.8971 
G01 X-21.4198 Y14.8971 
G01 X-21.5842 Y14.9298 
G01 X-21.7390 Y14.9939 
G01 X-21.8784 Y15.0871 
G01 X-21.9969 Y15.2056 
G01 X-22.0901 Y15.3449 
G01 X-22.1542 Y15.4998 
G01 X-22.1869 Y15.6642 
G01 X-22.1869 Y17.3558 
G01 X-22.1542 Y17.5202 
G01 X-22.0901 Y17.6750 
G01 X-21.9969 Y17.8144 
G01 X-21.8784 Y17.9329 
G01 X-21.8313 Y17.9644 
G01 X-21.8313 Y24.4465 
G01 X-21.9200 Y24.5351 
G01 X-21.9964 Y24.6495 
G01 X-22.0491 Y24.7767 
G01 X-22.0759 Y24.9116 
G01 X-22.0759 Y26.2684 
G01 X-22.0491 Y26.4033 
G01 X-21.9964 Y26.5305 
G01 X-21.9200 Y26.6449 
G01 X-21.8227 Y26.7422 
G01 X-21.7083 Y26.8186 
G01 X-21.5811 Y26.8713 
G01 X-21.4462 Y26.8981 
G01 X-21.3086 Y26.8981 
G01 X-21.1737 Y26.8713 
G01 X-21.0465 Y26.8186 
G01 X-20.9321 Y26.7422 
G01 X-20.8348 Y26.6449 
G01 X-20.7584 Y26.5305 
G01 X-20.7057 Y26.4033 
G01 X-20.6789 Y26.2684 
G01 X-20.6789 Y24.9116 
G01 X-20.7057 Y24.7767 
G01 X-20.7584 Y24.6495 
G01 X-20.8348 Y24.5351 
G01 X-20.8407 Y24.5293 
G01 X-20.8407 Y17.9644 
G01 X-20.7936 Y17.9329 
G01 X-20.6751 Y17.8144 
G01 X-20.5819 Y17.6750 
G01 X-20.5178 Y17.5202 
G01 X-20.4851 Y17.3558 
G01 X-20.4851 Y15.6642 
G01 X-20.5178 Y15.4998 
G01 X-20.5819 Y15.3449 
G01 X-20.6751 Y15.2056 
G00 Z2.5400 
G00 X-23.2151 Y15.2056 
G01 Z-0.1778 F100.00 
G01 X-23.3336 Y15.0871 F100.00 
G01 X-23.4729 Y14.9939 
G01 X-23.6278 Y14.9298 
G01 X-23.7922 Y14.8971 
G01 X-23.9598 Y14.8971 
G01 X-24.1242 Y14.9298 
G01 X-24.2791 Y14.9939 
G01 X-24.4184 Y15.0871 
G01 X-24.5369 Y15.2056 
G01 X-24.6301 Y15.3449 
G01 X-24.6942 Y15.4998 
G01 X-24.7269 Y15.6642 
G01 X-24.7269 Y17.3558 
G01 X-24.6942 Y17.5202 
G01 X-24.6301 Y17.6750 
G01 X-24.5369 Y17.8144 
G01 X-24.4184 Y17.9329 
G01 X-24.4127 Y17.9368 
G01 X-24.4127 Y24.4879 
G01 X-24.4600 Y24.5351 
G01 X-24.5364 Y24.6495 
G01 X-24.5891 Y24.7767 
G01 X-24.6159 Y24.9116 
G01 X-24.6159 Y26.2684 
G01 X-24.5891 Y26.4033 
G01 X-24.5364 Y26.5305 
G01 X-24.4600 Y26.6449 
G01 X-24.3627 Y26.7422 
G01 X-24.2483 Y26.8186 
G01 X-24.1211 Y26.8713 
G01 X-23.9862 Y26.8981 
G01 X-23.8486 Y26.8981 
G01 X-23.7137 Y26.8713 
G01 X-23.5865 Y26.8186 
G01 X-23.4721 Y26.7422 
G01 X-23.3748 Y26.6449 
G01 X-23.2984 Y26.5305 
G01 X-23.2457 Y26.4033 
G01 X-23.2189 Y26.2684 
G01 X-23.2189 Y24.9116 
G01 X-23.2457 Y24.7767 
G01 X-23.2984 Y24.6495 
G01 X-23.3748 Y24.5351 
G01 X-23.4221 Y24.4879 
G01 X-23.4221 Y17.9921 
G01 X-23.3336 Y17.9329 
G01 X-23.2151 Y17.8144 
G01 X-23.1219 Y17.6750 
G01 X-23.0578 Y17.5202 
G01 X-23.0251 Y17.3558 
G01 X-23.0251 Y15.6642 
G01 X-23.0578 Y15.4998 
G01 X-23.1219 Y15.3449 
G01 X-23.2151 Y15.2056 
G00 Z2.5400 
G00 X-25.7551 Y15.2056 
G01 Z-0.1778 F100.00 
G01 X-25.8736 Y15.0871 F100.00 
G01 X-26.0129 Y14.9939 
G01 X-26.1678 Y14.9298 
G01 X-26.3322 Y14.8971 
G01 X-26.4998 Y14.8971 
G01 X-26.6642 Y14.9298 
G01 X-26.8191 Y14.9939 
G01 X-26.9584 Y15.0871 
G01 X-27.0769 Y15.2056 
G01 X-27.1701 Y15.3449 
G01 X-27.2342 Y15.4998 
G01 X-27.2669 Y15.6642 
G01 X-27.2669 Y17.3558 
G01 X-27.2342 Y17.5202 
G01 X-27.1701 Y17.6750 
G01 X-27.0769 Y17.8144 
G01 X-26.9584 Y17.9329 
G01 X-26.9527 Y17.9368 
G01 X-26.9527 Y24.4879 
G01 X-27.0000 Y24.5351 
G01 X-27.0764 Y24.6495 
G01 X-27.1291 Y24.7767 
G01 X-27.1559 Y24.9116 
G01 X-27.1559 Y26.2684 
G01 X-27.1291 Y26.4033 
G01 X-27.0764 Y26.5305 
G01 X-27.0000 Y26.6449 
G01 X-26.9027 Y26.7422 
G01 X-26.7883 Y26.8186 
G01 X-26.6611 Y26.8713 
G01 X-26.5262 Y26.8981 
G01 X-26.3886 Y26.8981 
G01 X-26.2537 Y26.8713 
G01 X-26.1265 Y26.8186 
G01 X-26.0121 Y26.7422 
G01 X-25.9148 Y26.6449 
G01 X-25.8384 Y26.5305 
G01 X-25.7857 Y26.4033 
G01 X-25.7589 Y26.2684 
G01 X-25.7589 Y24.9116 
G01 X-25.7857 Y24.7767 
G01 X-25.8384 Y24.6495 
G01 X-25.9148 Y24.5351 
G01 X-25.9621 Y24.4879 
G01 X-25.9621 Y17.9921 
G01 X-25.8736 Y17.9329 
G01 X-25.7551 Y17.8144 
G01 X-25.6619 Y17.6750 
G01 X-25.5978 Y17.5202 
G01 X-25.5651 Y17.3558 
G01 X-25.5651 Y15.6642 
G01 X-25.5978 Y15.4998 
G01 X-25.6619 Y15.3449 
G01 X-25.7551 Y15.2056 
G00 Z2.5400 
G00 X-28.2951 Y15.2056 
G01 Z-0.1778 F100.00 
G01 X-28.4136 Y15.0871 F100.00 
G01 X-28.5529 Y14.9939 
G01 X-28.7078 Y14.9298 
G01 X-28.8722 Y14.8971 
G01 X-29.0398 Y14.8971 
G01 X-29.2042 Y14.9298 
G01 X-29.3590 Y14.9939 
G01 X-29.4984 Y15.0871 
G01 X-29.6169 Y15.2056 
G01 X-29.7101 Y15.3449 
G01 X-29.7742 Y15.4998 
G01 X-29.8069 Y15.6642 
G01 X-29.8069 Y17.3558 
G01 X-29.7742 Y17.5202 
G01 X-29.7101 Y17.6750 
G01 X-29.6169 Y17.8144 
G01 X-29.4984 Y17.9329 
G01 X-29.4513 Y17.9644 
G01 X-29.4513 Y24.4465 
G01 X-29.5400 Y24.5351 
G01 X-29.6164 Y24.6495 
G01 X-29.6691 Y24.7767 
G01 X-29.6959 Y24.9116 
G01 X-29.6959 Y26.2684 
G01 X-29.6691 Y26.4033 
G01 X-29.6164 Y26.5305 
G01 X-29.5400 Y26.6449 
G01 X-29.4427 Y26.7422 
G01 X-29.3283 Y26.8186 
G01 X-29.2011 Y26.8713 
G01 X-29.0662 Y26.8981 
G01 X-28.9286 Y26.8981 
G01 X-28.7937 Y26.8713 
G01 X-28.6665 Y26.8186 
G01 X-28.5521 Y26.7422 
G01 X-28.4548 Y26.6449 
G01 X-28.3784 Y26.5305 
G01 X-28.3257 Y26.4033 
G01 X-28.2989 Y26.2684 
G01 X-28.2989 Y24.9116 
G01 X-28.3257 Y24.7767 
G01 X-28.3784 Y24.6495 
G01 X-28.4548 Y24.5351 
G01 X-28.4607 Y24.5293 
G01 X-28.4607 Y17.9644 
G01 X-28.4136 Y17.9329 
G01 X-28.2951 Y17.8144 
G01 X-28.2019 Y17.6750 
G01 X-28.1378 Y17.5202 
G01 X-28.1051 Y17.3558 
G01 X-28.1051 Y15.6642 
G01 X-28.1378 Y15.4998 
G01 X-28.2019 Y15.3449 
G01 X-28.2951 Y15.2056 
G00 Z2.5400 
G00 X-30.8351 Y15.2056 
G01 Z-0.1778 F100.00 
G01 X-30.9536 Y15.0871 F100.00 
G01 X-31.0929 Y14.9939 
G01 X-31.2478 Y14.9298 
G01 X-31.4122 Y14.8971 
G01 X-31.5798 Y14.8971 
G01 X-31.7442 Y14.9298 
G01 X-31.8990 Y14.9939 
G01 X-32.0384 Y15.0871 
G01 X-32.1569 Y15.2056 
G01 X-32.2501 Y15.3449 
G01 X-32.3142 Y15.4998 
G01 X-32.3469 Y15.6642 
G01 X-32.3469 Y17.3558 
G01 X-32.3142 Y17.5202 
G01 X-32.2501 Y17.6750 
G01 X-32.1569 Y17.8144 
G01 X-32.0384 Y17.9329 
G01 X-32.0327 Y17.9368 
G01 X-32.0327 Y24.4879 
G01 X-32.0800 Y24.5351 
G01 X-32.1564 Y24.6495 
G01 X-32.2091 Y24.7767 
G01 X-32.2359 Y24.9116 
G01 X-32.2359 Y26.2684 
G01 X-32.2091 Y26.4033 
G01 X-32.1564 Y26.5305 
G01 X-32.0800 Y26.6449 
G01 X-31.9827 Y26.7422 
G01 X-31.8683 Y26.8186 
G01 X-31.7411 Y26.8713 
G01 X-31.6062 Y26.8981 
G01 X-31.4686 Y26.8981 
G01 X-31.3337 Y26.8713 
G01 X-31.2065 Y26.8186 
G01 X-31.0921 Y26.7422 
G01 X-30.9948 Y26.6449 
G01 X-30.9184 Y26.5305 
G01 X-30.8657 Y26.4033 
G01 X-30.8389 Y26.2684 
G01 X-30.8389 Y24.9116 
G01 X-30.8657 Y24.7767 
G01 X-30.9184 Y24.6495 
G01 X-30.9948 Y24.5351 
G01 X-31.0421 Y24.4879 
G01 X-31.0421 Y17.9921 
G01 X-30.9536 Y17.9329 
G01 X-30.8351 Y17.8144 
G01 X-30.7419 Y17.6750 
G01 X-30.6778 Y17.5202 
G01 X-30.6451 Y17.3558 
G01 X-30.6451 Y15.6642 
G01 X-30.6778 Y15.4998 
G01 X-30.7419 Y15.3449 
G01 X-30.8351 Y15.2056 
G00 Z2.5400 
G00 X-33.3751 Y15.2056 
G01 Z-0.1778 F100.00 
G01 X-33.4936 Y15.0871 F100.00 
G01 X-33.6329 Y14.9939 
G01 X-33.7878 Y14.9298 
G01 X-33.9522 Y14.8971 
G01 X-34.1198 Y14.8971 
G01 X-34.2842 Y14.9298 
G01 X-34.4391 Y14.9939 
G01 X-34.5784 Y15.0871 
G01 X-34.6969 Y15.2056 
G01 X-34.7901 Y15.3449 
G01 X-34.8542 Y15.4998 
G01 X-34.8869 Y15.6642 
G01 X-34.8869 Y17.3558 
G01 X-34.8542 Y17.5202 
G01 X-34.7901 Y17.6750 
G01 X-34.6969 Y17.8144 
G01 X-34.5784 Y17.9329 
G01 X-34.5313 Y17.9644 
G01 X-34.5313 Y24.4465 
G01 X-34.6200 Y24.5351 
G01 X-34.6964 Y24.6495 
G01 X-34.7491 Y24.7767 
G01 X-34.7759 Y24.9116 
G01 X-34.7759 Y26.2684 
G01 X-34.7491 Y26.4033 
G01 X-34.6964 Y26.5305 
G01 X-34.6200 Y26.6449 
G01 X-34.5227 Y26.7422 
G01 X-34.4083 Y26.8186 
G01 X-34.2811 Y26.8713 
G01 X-34.1462 Y26.8981 
G01 X-34.0086 Y26.8981 
G01 X-33.8737 Y26.8713 
G01 X-33.7465 Y26.8186 
G01 X-33.6321 Y26.7422 
G01 X-33.5348 Y26.6449 
G01 X-33.4584 Y26.5305 
G01 X-33.4057 Y26.4033 
G01 X-33.3789 Y26.2684 
G01 X-33.3789 Y24.9116 
G01 X-33.4057 Y24.7767 
G01 X-33.4584 Y24.6495 
G01 X-33.5348 Y24.5351 
G01 X-33.5407 Y24.5293 
G01 X-33.5407 Y17.9644 
G01 X-33.4936 Y17.9329 
G01 X-33.3751 Y17.8144 
G01 X-33.2819 Y17.6750 
G01 X-33.2178 Y17.5202 
G01 X-33.1851 Y17.3558 
G01 X-33.1851 Y15.6642 
G01 X-33.2178 Y15.4998 
G01 X-33.2819 Y15.3449 
G01 X-33.3751 Y15.2056 
G00 Z2.5400 
G00 X-35.9151 Y15.2056 
G01 Z-0.1778 F100.00 
G01 X-36.0336 Y15.0871 F100.00 
G01 X-36.1729 Y14.9939 
G01 X-36.3278 Y14.9298 
G01 X-36.4922 Y14.8971 
G01 X-36.6598 Y14.8971 
G01 X-36.8242 Y14.9298 
G01 X-36.9791 Y14.9939 
G01 X-37.1184 Y15.0871 
G01 X-37.2369 Y15.2056 
G01 X-37.3301 Y15.3449 
G01 X-37.3942 Y15.4998 
G01 X-37.4269 Y15.6642 
G01 X-37.4269 Y17.3558 
G01 X-37.3942 Y17.5202 
G01 X-37.3301 Y17.6750 
G01 X-37.2369 Y17.8144 
G01 X-37.1184 Y17.9329 
G01 X-37.1127 Y17.9368 
G01 X-37.1127 Y24.4879 
G01 X-37.1600 Y24.5351 
G01 X-37.2364 Y24.6495 
G01 X-37.2891 Y24.7767 
G01 X-37.3159 Y24.9116 
G01 X-37.3159 Y26.2684 
G01 X-37.2891 Y26.4033 
G01 X-37.2364 Y26.5305 
G01 X-37.1600 Y26.6449 
G01 X-37.0627 Y26.7422 
G01 X-36.9483 Y26.8186 
G01 X-36.8211 Y26.8713 
G01 X-36.6862 Y26.8981 
G01 X-36.5486 Y26.8981 
G01 X-36.4137 Y26.8713 
G01 X-36.2865 Y26.8186 
G01 X-36.1721 Y26.7422 
G01 X-36.0748 Y26.6449 
G01 X-35.9984 Y26.5305 
G01 X-35.9457 Y26.4033 
G01 X-35.9189 Y26.2684 
G01 X-35.9189 Y24.9116 
G01 X-35.9457 Y24.7767 
G01 X-35.9984 Y24.6495 
G01 X-36.0748 Y24.5351 
G01 X-36.1221 Y24.4879 
G01 X-36.1221 Y17.9921 
G01 X-36.0336 Y17.9329 
G01 X-35.9151 Y17.8144 
G01 X-35.8219 Y17.6750 
G01 X-35.7578 Y17.5202 
G01 X-35.7251 Y17.3558 
G01 X-35.7251 Y15.6642 
G01 X-35.7578 Y15.4998 
G01 X-35.8219 Y15.3449 
G01 X-35.9151 Y15.2056 
G00 Z2.5400 
G00 X-42.1927 Y24.3827 
G01 Z-0.1778 F100.00 
G01 X-42.1927 Y24.4879 F100.00 
G01 X-42.2400 Y24.5351 
G01 X-42.3164 Y24.6495 
G01 X-42.3691 Y24.7767 
G01 X-42.3959 Y24.9116 
G01 X-42.3959 Y26.2684 
G01 X-42.3691 Y26.4033 
G01 X-42.3164 Y26.5305 
G01 X-42.2400 Y26.6449 
G01 X-42.1927 Y26.6921 
G01 X-42.1927 Y26.7973 
G01 X-42.2021 Y26.7905 
G01 X-42.2861 Y26.7065 
G01 X-42.2976 Y26.6915 
G01 X-42.3321 Y26.6441 
G01 X-42.3372 Y26.6399 
G01 X-42.3412 Y26.6347 
G01 X-42.3878 Y26.5989 
G01 X-42.4334 Y26.5620 
G01 X-42.4394 Y26.5593 
G01 X-42.4447 Y26.5553 
G01 X-42.4989 Y26.5328 
G01 X-42.5525 Y26.5089 
G01 X-42.5591 Y26.5079 
G01 X-42.5651 Y26.5054 
G01 X-42.6233 Y26.4977 
G01 X-42.6814 Y26.4885 
G01 X-42.6879 Y26.4892 
G01 X-42.6944 Y26.4884 
G01 X-42.7527 Y26.4960 
G01 X-42.8111 Y26.5022 
G01 X-42.8172 Y26.5045 
G01 X-42.8237 Y26.5054 
G01 X-42.8780 Y26.5279 
G01 X-42.9328 Y26.5489 
G01 X-42.9381 Y26.5528 
G01 X-42.9442 Y26.5553 
G01 X-42.9908 Y26.5911 
G01 X-43.0383 Y26.6256 
G01 X-43.0425 Y26.6307 
G01 X-43.0477 Y26.6347 
G01 X-43.0835 Y26.6813 
G01 X-43.1204 Y26.7269 
G01 X-43.1231 Y26.7329 
G01 X-43.1271 Y26.7382 
G01 X-43.1496 Y26.7924 
G01 X-43.1734 Y26.8461 
G01 X-43.1745 Y26.8526 
G01 X-43.1930 Y26.8974 
G01 X-43.5396 Y27.2440 
G01 X-43.9924 Y27.4315 
G01 X-44.4824 Y27.4315 
G01 X-44.9352 Y27.2440 
G01 X-45.0697 Y27.1095 
G01 X-45.1592 Y27.0200 
G01 X-45.1619 Y27.0173 
G01 X-45.2748 Y26.9521 
G01 X-45.3656 Y26.9278 
G01 X-45.4008 Y26.9183 
G01 X-45.5312 Y26.9183 
G01 X-45.6572 Y26.9521 
G01 X-45.7701 Y27.0173 
G01 X-45.8609 Y27.1081 
G01 X-45.9275 Y27.2224 
G01 X-45.9519 Y27.3132 
G01 X-45.9613 Y27.3484 
G01 X-45.9613 Y28.1446 
G01 X-46.1179 Y28.5227 
G01 X-46.5231 Y28.9279 
G01 X-47.6773 Y30.0821 
G01 X-48.0554 Y30.2387 
G01 X-54.0439 Y30.2387 
G01 X-54.1699 Y30.2724 
G01 X-54.2829 Y30.3377 
G01 X-54.3751 Y30.4299 
G01 X-54.7523 Y30.8071 
G01 X-54.8175 Y30.9201 
G01 X-54.8513 Y31.0461 
G01 X-54.8513 Y39.5746 
G01 X-55.0079 Y39.9527 
G01 X-59.1073 Y44.0521 
G01 X-59.4854 Y44.2087 
G01 X-72.2231 Y44.2087 
G01 X-72.2554 Y44.2174 
G01 X-72.3491 Y44.2424 
G01 X-72.4620 Y44.3077 
G01 X-72.5543 Y44.3999 
G01 X-72.6195 Y44.5128 
G01 X-72.6532 Y44.6388 
G01 X-72.6532 Y44.7692 
G01 X-72.6446 Y44.8015 
G01 X-72.6195 Y44.8952 
G01 X-72.5543 Y45.0081 
G01 X-72.4620 Y45.1003 
G01 X-72.3572 Y45.2051 
G01 X-72.1233 Y45.7699 
G01 X-72.1233 Y48.2101 
G01 X-72.3572 Y48.7749 
G01 X-72.7895 Y49.2071 
G01 X-73.3543 Y49.4411 
G01 X-73.9657 Y49.4411 
G01 X-74.5305 Y49.2071 
G01 X-74.6259 Y49.1117 
G01 X-74.7061 Y49.0654 
G01 X-74.7388 Y49.0465 
G01 X-74.7959 Y49.0312 
G01 X-74.8648 Y49.0128 
G01 X-74.9952 Y49.0128 
G01 X-75.0613 Y49.0305 
G01 X-75.1212 Y49.0465 
G01 X-75.1372 Y49.0558 
G01 X-75.2341 Y49.1117 
G01 X-75.3263 Y49.2040 
G01 X-75.3295 Y49.2072 
G01 X-75.8943 Y49.4411 
G01 X-76.5057 Y49.4411 
G01 X-77.0705 Y49.2071 
G01 X-77.1659 Y49.1117 
G01 X-77.2461 Y49.0654 
G01 X-77.2788 Y49.0465 
G01 X-77.3359 Y49.0312 
G01 X-77.4048 Y49.0128 
G01 X-77.5352 Y49.0128 
G01 X-77.6013 Y49.0305 
G01 X-77.6612 Y49.0465 
G01 X-77.6772 Y49.0558 
G01 X-77.7741 Y49.1117 
G01 X-77.8663 Y49.2040 
G01 X-77.8695 Y49.2072 
G01 X-78.4343 Y49.4411 
G01 X-79.0457 Y49.4411 
G01 X-79.6105 Y49.2071 
G01 X-79.7059 Y49.1117 
G01 X-79.7861 Y49.0654 
G01 X-79.8188 Y49.0465 
G01 X-79.8759 Y49.0312 
G01 X-79.9448 Y49.0128 
G01 X-80.0752 Y49.0128 
G01 X-80.1413 Y49.0305 
G01 X-80.2012 Y49.0465 
G01 X-80.2172 Y49.0558 
G01 X-80.3141 Y49.1117 
G01 X-80.4063 Y49.2040 
G01 X-80.4095 Y49.2072 
G01 X-80.9743 Y49.4411 
G01 X-81.5857 Y49.4411 
G01 X-82.0765 Y49.2378 
G01 X-82.1048 Y49.2214 
G01 X-82.1365 Y49.2130 
G01 X-82.1667 Y49.2004 
G01 X-82.1992 Y49.1962 
G01 X-82.2308 Y49.1877 
G01 X-82.2635 Y49.1877 
G01 X-82.2960 Y49.1834 
G01 X-82.3285 Y49.1877 
G01 X-82.3612 Y49.1877 
G01 X-82.3928 Y49.1961 
G01 X-82.4253 Y49.2004 
G01 X-82.4556 Y49.2130 
G01 X-82.4872 Y49.2214 
G01 X-82.5155 Y49.2378 
G01 X-82.5458 Y49.2503 
G01 X-82.5718 Y49.2703 
G01 X-82.6001 Y49.2866 
G01 X-82.6233 Y49.3098 
G01 X-82.6492 Y49.3297 
G01 X-82.6692 Y49.3557 
G01 X-82.6923 Y49.3789 
G01 X-82.7087 Y49.4072 
G01 X-82.7286 Y49.4332 
G01 X-82.7412 Y49.4634 
G01 X-82.7575 Y49.4918 
G01 X-82.7660 Y49.5234 
G01 X-82.7785 Y49.5537 
G01 X-82.7828 Y49.5861 
G01 X-82.7913 Y49.6178 
G01 X-82.7913 Y49.6505 
G01 X-82.7956 Y49.6830 
G01 X-82.7913 Y49.7154 
G01 X-82.7913 Y50.2339 
G01 X-82.7575 Y50.3599 
G01 X-82.6923 Y50.4729 
G01 X-82.6221 Y50.5431 
G01 X-78.2731 Y54.8921 
G01 X-78.2511 Y54.9141 
G01 X-78.1808 Y54.9844 
G01 X-77.8679 Y55.2973 
G01 X-77.7113 Y55.6754 
G01 X-77.7113 Y58.2117 
G01 X-77.7113 Y58.2762 
G01 X-77.7113 Y58.3422 
G01 X-77.6954 Y58.4014 
G01 X-77.6775 Y58.4681 
G01 X-77.6490 Y58.5175 
G01 X-77.6123 Y58.5811 
G01 X-77.5669 Y58.6265 
G01 X-77.5201 Y58.6733 
G01 X-77.4846 Y58.6938 
G01 X-77.4072 Y58.7385 
G01 X-77.3416 Y58.7561 
G01 X-77.2812 Y58.7722 
G01 X-77.2167 Y58.7722 
G01 X-77.1508 Y58.7722 
G01 X-77.0915 Y58.7564 
G01 X-77.0248 Y58.7385 
G01 X-76.9754 Y58.7100 
G01 X-76.9119 Y58.6733 
G01 X-76.8924 Y58.6538 
G01 X-76.4431 Y58.4677 
G01 X-75.9569 Y58.4677 
G01 X-75.5076 Y58.6538 
G01 X-75.1638 Y58.9976 
G01 X-75.1394 Y59.0566 
G01 X-75.1383 Y59.0631 
G01 X-75.1145 Y59.1167 
G01 X-75.0920 Y59.1709 
G01 X-75.0880 Y59.1762 
G01 X-75.0853 Y59.1822 
G01 X-75.0484 Y59.2278 
G01 X-75.0126 Y59.2744 
G01 X-75.0074 Y59.2784 
G01 X-75.0032 Y59.2835 
G01 X-74.9558 Y59.3180 
G01 X-74.9091 Y59.3538 
G01 X-74.9030 Y59.3563 
G01 X-74.8977 Y59.3602 
G01 X-74.8429 Y59.3812 
G01 X-74.7887 Y59.4037 
G01 X-74.7821 Y59.4046 
G01 X-74.7760 Y59.4069 
G01 X-74.7176 Y59.4131 
G01 X-74.6594 Y59.4207 
G01 X-74.6528 Y59.4199 
G01 X-74.6463 Y59.4206 
G01 X-74.5883 Y59.4114 
G01 X-74.5301 Y59.4037 
G01 X-74.5240 Y59.4012 
G01 X-74.5174 Y59.4002 
G01 X-74.4638 Y59.3763 
G01 X-74.4096 Y59.3538 
G01 X-74.4043 Y59.3498 
G01 X-74.3983 Y59.3471 
G01 X-74.3527 Y59.3102 
G01 X-74.3061 Y59.2744 
G01 X-74.3021 Y59.2692 
G01 X-74.2970 Y59.2650 
G01 X-74.2625 Y59.2176 
G01 X-74.2390 Y59.1870 
G01 X-74.1584 Y59.1064 
G01 X-74.1553 Y59.1041 
G01 X-74.1553 Y59.2111 
G01 X-74.1951 Y59.2508 
G01 X-74.2705 Y59.3637 
G01 X-74.3224 Y59.4891 
G01 X-74.3489 Y59.6221 
G01 X-74.3489 Y59.7578 
G01 X-74.3224 Y59.8909 
G01 X-74.2705 Y60.0163 
G01 X-74.1951 Y60.1291 
G01 X-74.1553 Y60.1689 
G01 X-74.1553 Y60.2758 
G01 X-74.1584 Y60.2736 
G01 X-74.2390 Y60.1930 
G01 X-74.2625 Y60.1624 
G01 X-74.2970 Y60.1150 
G01 X-74.3021 Y60.1108 
G01 X-74.3061 Y60.1056 
G01 X-74.3527 Y60.0698 
G01 X-74.3983 Y60.0329 
G01 X-74.4043 Y60.0302 
G01 X-74.4096 Y60.0262 
G01 X-74.4638 Y60.0037 
G01 X-74.5174 Y59.9798 
G01 X-74.5240 Y59.9788 
G01 X-74.5301 Y59.9763 
G01 X-74.5883 Y59.9686 
G01 X-74.6463 Y59.9594 
G01 X-74.6528 Y59.9601 
G01 X-74.6594 Y59.9593 
G01 X-74.7176 Y59.9669 
G01 X-74.7760 Y59.9731 
G01 X-74.7821 Y59.9754 
G01 X-74.7887 Y59.9763 
G01 X-74.8429 Y59.9988 
G01 X-74.8977 Y60.0198 
G01 X-74.9030 Y60.0237 
G01 X-74.9091 Y60.0262 
G01 X-74.9558 Y60.0620 
G01 X-75.0032 Y60.0964 
G01 X-75.0074 Y60.1016 
G01 X-75.0126 Y60.1056 
G01 X-75.0484 Y60.1522 
G01 X-75.0853 Y60.1978 
G01 X-75.0880 Y60.2038 
G01 X-75.0920 Y60.2090 
G01 X-75.1145 Y60.2633 
G01 X-75.1383 Y60.3169 
G01 X-75.1394 Y60.3234 
G01 X-75.1638 Y60.3824 
G01 X-75.5076 Y60.7262 
G01 X-75.9569 Y60.9123 
G01 X-76.4431 Y60.9123 
G01 X-76.8924 Y60.7262 
G01 X-76.9119 Y60.7067 
G01 X-76.9740 Y60.6708 
G01 X-77.0248 Y60.6415 
G01 X-77.0893 Y60.6242 
G01 X-77.1508 Y60.6078 
G01 X-77.2153 Y60.6077 
G01 X-77.2812 Y60.6077 
G01 X-77.3377 Y60.6229 
G01 X-77.4072 Y60.6415 
G01 X-77.4832 Y60.6854 
G01 X-77.5201 Y60.7067 
G01 X-77.5655 Y60.7521 
G01 X-77.6123 Y60.7989 
G01 X-77.6482 Y60.8611 
G01 X-77.6775 Y60.9119 
G01 X-77.6948 Y60.9763 
G01 X-77.7113 Y61.0378 
G01 X-77.7113 Y61.1023 
G01 X-77.7113 Y61.1682 
G01 X-77.7113 Y61.5039 
G01 X-77.7156 Y61.5364 
G01 X-77.7113 Y61.5688 
G01 X-77.7113 Y61.6016 
G01 X-77.7028 Y61.6332 
G01 X-77.6985 Y61.6657 
G01 X-77.6860 Y61.6959 
G01 X-77.6775 Y61.7275 
G01 X-77.6612 Y61.7559 
G01 X-77.6486 Y61.7862 
G01 X-77.6287 Y61.8121 
G01 X-77.6123 Y61.8405 
G01 X-77.5892 Y61.8636 
G01 X-77.5692 Y61.8896 
G01 X-77.5433 Y61.9096 
G01 X-77.5201 Y61.9327 
G01 X-77.4917 Y61.9491 
G01 X-77.4658 Y61.9690 
G01 X-77.4575 Y61.9724 
G01 X-77.2824 Y62.1475 
G01 X-77.1877 Y62.3762 
G01 X-77.1877 Y64.6238 
G01 X-77.2824 Y64.8525 
G01 X-77.4575 Y65.0276 
G01 X-77.6862 Y65.1223 
G01 X-79.5338 Y65.1223 
G01 X-79.8807 Y64.9786 
G01 X-80.0100 Y64.9616 
G01 X-80.1393 Y64.9786 
G01 X-80.2598 Y65.0285 
G01 X-80.4862 Y65.1223 
G01 X-82.3338 Y65.1223 
G01 X-82.5625 Y65.0276 
G01 X-82.7376 Y64.8525 
G01 X-82.8323 Y64.6238 
G01 X-82.8323 Y62.3762 
G01 X-82.7376 Y62.1475 
G01 X-82.5625 Y61.9724 
G01 X-82.5542 Y61.9690 
G01 X-82.5282 Y61.9491 
G01 X-82.4999 Y61.9327 
G01 X-82.4767 Y61.9095 
G01 X-82.4507 Y61.8896 
G01 X-82.4308 Y61.8636 
G01 X-82.4077 Y61.8405 
G01 X-82.3913 Y61.8121 
G01 X-82.3714 Y61.7861 
G01 X-82.3588 Y61.7559 
G01 X-82.3424 Y61.7275 
G01 X-82.3340 Y61.6959 
G01 X-82.3214 Y61.6657 
G01 X-82.3172 Y61.6332 
G01 X-82.3087 Y61.6016 
G01 X-82.3087 Y61.5688 
G01 X-82.3044 Y61.5364 
G01 X-82.3087 Y61.5039 
G01 X-82.3087 Y60.8813 
G01 X-82.3424 Y60.7553 
G01 X-82.4074 Y60.6428 
G01 X-82.5023 Y60.4138 
G01 X-82.5023 Y58.9662 
G01 X-82.4075 Y58.7372 
G01 X-82.3750 Y58.6811 
G01 X-82.3425 Y58.6247 
G01 X-82.3289 Y58.5742 
G01 X-82.3087 Y58.4987 
G01 X-82.3087 Y58.4342 
G01 X-82.3087 Y58.3683 
G01 X-82.3087 Y57.7161 
G01 X-82.3424 Y57.5901 
G01 X-82.4077 Y57.4771 
G01 X-82.4999 Y57.3849 
G01 X-87.2321 Y52.6527 
G01 X-87.3887 Y52.2746 
G01 X-87.3887 Y51.8654 
G01 X-87.2321 Y51.4873 
G01 X-86.9427 Y51.1979 
G01 X-86.5646 Y51.0413 
G01 X-86.1554 Y51.0413 
G01 X-85.7773 Y51.1979 
G01 X-85.6481 Y51.3271 
G01 X-85.6154 Y51.3460 
G01 X-85.5352 Y51.3923 
G01 X-85.4636 Y51.4115 
G01 X-85.4092 Y51.4260 
G01 X-85.2788 Y51.4260 
G01 X-85.1528 Y51.3923 
G01 X-85.0711 Y51.3451 
G01 X-85.0399 Y51.3271 
G01 X-84.9477 Y51.2349 
G01 X-84.9288 Y51.2021 
G01 X-84.8825 Y51.1219 
G01 X-84.8633 Y51.0503 
G01 X-84.8487 Y50.9960 
G01 X-84.8487 Y49.7154 
G01 X-84.8444 Y49.6830 
G01 X-84.8487 Y49.6505 
G01 X-84.8487 Y49.6178 
G01 X-84.8572 Y49.5861 
G01 X-84.8614 Y49.5537 
G01 X-84.8740 Y49.5234 
G01 X-84.8825 Y49.4918 
G01 X-84.8988 Y49.4634 
G01 X-84.9114 Y49.4332 
G01 X-84.9313 Y49.4072 
G01 X-84.9477 Y49.3789 
G01 X-84.9708 Y49.3557 
G01 X-84.9907 Y49.3297 
G01 X-85.0167 Y49.3098 
G01 X-85.0399 Y49.2866 
G01 X-85.0682 Y49.2703 
G01 X-85.0942 Y49.2503 
G01 X-85.1245 Y49.2378 
G01 X-85.1528 Y49.2214 
G01 X-85.1844 Y49.2130 
G01 X-85.2147 Y49.2004 
G01 X-85.2472 Y49.1961 
G01 X-85.2788 Y49.1877 
G01 X-85.3115 Y49.1877 
G01 X-85.3440 Y49.1834 
G01 X-85.3765 Y49.1877 
G01 X-85.4092 Y49.1877 
G01 X-85.4408 Y49.1962 
G01 X-85.4733 Y49.2004 
G01 X-85.5035 Y49.2130 
G01 X-85.5352 Y49.2214 
G01 X-85.5635 Y49.2378 
G01 X-86.0543 Y49.4411 
G01 X-86.6657 Y49.4411 
G01 X-87.2305 Y49.2071 
G01 X-87.5880 Y48.8496 
G01 X-87.6035 Y48.8284 
G01 X-87.6340 Y48.8037 
G01 X-87.6617 Y48.7759 
G01 X-87.6844 Y48.7628 
G01 X-87.7048 Y48.7463 
G01 X-87.7407 Y48.7303 
G01 X-87.7746 Y48.7107 
G01 X-87.8000 Y48.7039 
G01 X-87.8239 Y48.6932 
G01 X-87.8627 Y48.6871 
G01 X-87.9006 Y48.6769 
G01 X-87.9269 Y48.6769 
G01 X-87.9528 Y48.6728 
G01 X-87.9918 Y48.6769 
G01 X-88.0310 Y48.6769 
G01 X-88.0564 Y48.6837 
G01 X-88.0825 Y48.6865 
G01 X-88.1191 Y48.7005 
G01 X-88.1570 Y48.7107 
G01 X-88.1797 Y48.7238 
G01 X-88.2042 Y48.7332 
G01 X-88.2360 Y48.7563 
G01 X-88.2699 Y48.7759 
G01 X-88.2885 Y48.7945 
G01 X-88.3342 Y48.8277 
G01 X-88.4047 Y48.8636 
G01 X-88.4047 Y48.7801 
G01 X-88.2604 Y48.6837 
G01 X-88.1207 Y48.5440 
G01 X-88.0109 Y48.3796 
G01 X-87.9353 Y48.1970 
G01 X-87.8967 Y48.0032 
G01 X-87.8967 Y45.9768 
G01 X-87.9353 Y45.7829 
G01 X-88.0109 Y45.6004 
G01 X-88.1207 Y45.4360 
G01 X-88.2604 Y45.2963 
G01 X-88.4047 Y45.1999 
G01 X-88.4047 Y45.1164 
G01 X-88.3342 Y45.1523 
G01 X-88.2885 Y45.1855 
G01 X-88.2699 Y45.2041 
G01 X-88.2360 Y45.2237 
G01 X-88.2042 Y45.2468 
G01 X-88.1797 Y45.2562 
G01 X-88.1570 Y45.2693 
G01 X-88.1191 Y45.2795 
G01 X-88.0825 Y45.2935 
G01 X-88.0564 Y45.2963 
G01 X-88.0310 Y45.3030 
G01 X-87.9918 Y45.3030 
G01 X-87.9528 Y45.3072 
G01 X-87.9269 Y45.3030 
G01 X-87.9006 Y45.3030 
G01 X-87.8627 Y45.2929 
G01 X-87.8239 Y45.2868 
G01 X-87.8000 Y45.2761 
G01 X-87.7746 Y45.2693 
G01 X-87.7407 Y45.2497 
G01 X-87.7048 Y45.2337 
G01 X-87.6844 Y45.2172 
G01 X-87.6617 Y45.2041 
G01 X-87.6340 Y45.1763 
G01 X-87.6035 Y45.1516 
G01 X-87.5880 Y45.1304 
G01 X-87.2305 Y44.7728 
G01 X-86.6657 Y44.5389 
G01 X-86.0543 Y44.5389 
G01 X-85.4895 Y44.7728 
G01 X-85.4863 Y44.7760 
G01 X-85.3974 Y44.8650 
G01 X-85.3941 Y44.8683 
G01 X-85.3001 Y44.9225 
G01 X-85.2812 Y44.9335 
G01 X-85.2242 Y44.9487 
G01 X-85.1552 Y44.9672 
G01 X-85.0248 Y44.9672 
G01 X-84.9587 Y44.9495 
G01 X-84.8988 Y44.9335 
G01 X-84.8710 Y44.9174 
G01 X-84.7859 Y44.8683 
G01 X-84.6937 Y44.7760 
G01 X-84.6905 Y44.7728 
G01 X-84.1257 Y44.5389 
G01 X-83.5143 Y44.5389 
G01 X-83.0235 Y44.7422 
G01 X-82.9952 Y44.7586 
G01 X-82.9635 Y44.7670 
G01 X-82.9333 Y44.7796 
G01 X-82.9008 Y44.7838 
G01 X-82.8692 Y44.7923 
G01 X-82.8365 Y44.7923 
G01 X-82.8040 Y44.7966 
G01 X-82.7715 Y44.7923 
G01 X-82.7388 Y44.7923 
G01 X-82.7072 Y44.7838 
G01 X-82.6747 Y44.7796 
G01 X-82.6444 Y44.7670 
G01 X-82.6128 Y44.7586 
G01 X-82.5845 Y44.7422 
G01 X-82.5542 Y44.7297 
G01 X-82.5282 Y44.7097 
G01 X-82.4999 Y44.6934 
G01 X-82.4767 Y44.6702 
G01 X-82.4507 Y44.6503 
G01 X-82.4308 Y44.6243 
G01 X-82.4077 Y44.6011 
G01 X-82.3913 Y44.5728 
G01 X-82.3714 Y44.5468 
G01 X-82.3588 Y44.5166 
G01 X-82.3424 Y44.4882 
G01 X-82.3340 Y44.4566 
G01 X-82.3214 Y44.4263 
G01 X-82.3172 Y44.3939 
G01 X-82.3087 Y44.3622 
G01 X-82.3087 Y44.3295 
G01 X-82.3044 Y44.2970 
G01 X-82.3087 Y44.2645 
G01 X-82.3087 Y42.9754 
G01 X-82.1521 Y42.5973 
G01 X-79.6356 Y40.0808 
G01 X-79.3227 Y39.7679 
G01 X-78.9446 Y39.6113 
G01 X-61.5260 Y39.6113 
G01 X-61.4001 Y39.5775 
G01 X-61.2871 Y39.5123 
G01 X-61.1949 Y39.4201 
G01 X-59.5477 Y37.7729 
G01 X-59.4825 Y37.6599 
G01 X-59.4487 Y37.5339 
G01 X-59.4487 Y22.6554 
G01 X-59.2921 Y22.2773 
G01 X-58.8869 Y21.8721 
G01 X-58.0456 Y21.0308 
G01 X-57.7327 Y20.7179 
G01 X-57.3546 Y20.5613 
G01 X-51.8654 Y20.5613 
G01 X-51.4873 Y20.7179 
G01 X-51.0821 Y21.1231 
G01 X-48.9708 Y23.2344 
G01 X-48.6579 Y23.5473 
G01 X-48.4937 Y23.9436 
G01 X-48.4853 Y23.9753 
G01 X-48.4689 Y24.0036 
G01 X-48.4564 Y24.0339 
G01 X-48.4364 Y24.0599 
G01 X-48.4201 Y24.0882 
G01 X-48.3969 Y24.1114 
G01 X-48.3770 Y24.1373 
G01 X-48.3510 Y24.1573 
G01 X-48.3278 Y24.1804 
G01 X-48.2995 Y24.1968 
G01 X-48.2735 Y24.2167 
G01 X-48.2432 Y24.2293 
G01 X-48.2149 Y24.2456 
G01 X-48.1833 Y24.2541 
G01 X-48.1530 Y24.2666 
G01 X-48.1205 Y24.2709 
G01 X-48.0889 Y24.2794 
G01 X-48.0562 Y24.2794 
G01 X-48.0237 Y24.2837 
G01 X-47.9912 Y24.2794 
G01 X-47.9585 Y24.2794 
G01 X-47.9269 Y24.2709 
G01 X-47.8944 Y24.2666 
G01 X-47.8642 Y24.2541 
G01 X-47.8325 Y24.2456 
G01 X-47.8042 Y24.2293 
G01 X-47.7739 Y24.2167 
G01 X-47.7480 Y24.1968 
G01 X-47.7196 Y24.1804 
G01 X-47.6964 Y24.1573 
G01 X-47.6705 Y24.1373 
G01 X-47.6505 Y24.1114 
G01 X-47.4752 Y23.9360 
G01 X-47.0224 Y23.7485 
G01 X-46.5324 Y23.7485 
G01 X-46.0796 Y23.9360 
G01 X-45.8115 Y24.2041 
G01 X-45.6986 Y24.2693 
G01 X-45.5726 Y24.3031 
G01 X-45.4422 Y24.3031 
G01 X-45.4099 Y24.2944 
G01 X-45.3162 Y24.2693 
G01 X-45.2033 Y24.2041 
G01 X-45.1111 Y24.1119 
G01 X-44.9352 Y23.9360 
G01 X-44.4824 Y23.7485 
G01 X-43.9924 Y23.7485 
G01 X-43.5396 Y23.9360 
G01 X-43.1930 Y24.2826 
G01 X-43.1745 Y24.3274 
G01 X-43.1734 Y24.3339 
G01 X-43.1496 Y24.3876 
G01 X-43.1271 Y24.4418 
G01 X-43.1231 Y24.4471 
G01 X-43.1204 Y24.4531 
G01 X-43.0835 Y24.4987 
G01 X-43.0477 Y24.5453 
G01 X-43.0425 Y24.5493 
G01 X-43.0383 Y24.5544 
G01 X-42.9908 Y24.5889 
G01 X-42.9442 Y24.6247 
G01 X-42.9381 Y24.6272 
G01 X-42.9328 Y24.6311 
G01 X-42.8780 Y24.6521 
G01 X-42.8237 Y24.6746 
G01 X-42.8172 Y24.6755 
G01 X-42.8111 Y24.6778 
G01 X-42.7527 Y24.6840 
G01 X-42.6944 Y24.6916 
G01 X-42.6879 Y24.6908 
G01 X-42.6814 Y24.6915 
G01 X-42.6234 Y24.6823 
G01 X-42.5651 Y24.6746 
G01 X-42.5591 Y24.6721 
G01 X-42.5525 Y24.6711 
G01 X-42.4989 Y24.6472 
G01 X-42.4447 Y24.6247 
G01 X-42.4394 Y24.6207 
G01 X-42.4334 Y24.6180 
G01 X-42.3878 Y24.5811 
G01 X-42.3412 Y24.5453 
G01 X-42.3372 Y24.5401 
G01 X-42.3321 Y24.5359 
G01 X-42.2976 Y24.4884 
G01 X-42.2861 Y24.4735 
G01 X-42.2021 Y24.3895 
G01 X-42.1927 Y24.3827 
G00 Z2.5400 
G00 X-43.6948 Y24.5351 
G01 Z-0.1778 F100.00 
G01 X-43.7921 Y24.4378 F100.00 
G01 X-43.9065 Y24.3614 
G01 X-44.0337 Y24.3087 
G01 X-44.1686 Y24.2819 
G01 X-44.3062 Y24.2819 
G01 X-44.4411 Y24.3087 
G01 X-44.5683 Y24.3614 
G01 X-44.6827 Y24.4378 
G01 X-44.7800 Y24.5351 
G01 X-44.8564 Y24.6495 
G01 X-44.9091 Y24.7767 
G01 X-44.9359 Y24.9116 
G01 X-44.9359 Y26.2684 
G01 X-44.9091 Y26.4033 
G01 X-44.8564 Y26.5305 
G01 X-44.7800 Y26.6449 
G01 X-44.6827 Y26.7422 
G01 X-44.5683 Y26.8186 
G01 X-44.4411 Y26.8713 
G01 X-44.3062 Y26.8981 
G01 X-44.1686 Y26.8981 
G01 X-44.0337 Y26.8713 
G01 X-43.9065 Y26.8186 
G01 X-43.7921 Y26.7422 
G01 X-43.6948 Y26.6449 
G01 X-43.6184 Y26.5305 
G01 X-43.5657 Y26.4033 
G01 X-43.5389 Y26.2684 
G01 X-43.5389 Y24.9116 
G01 X-43.5657 Y24.7767 
G01 X-43.6184 Y24.6495 
G01 X-43.6948 Y24.5351 
G00 Z2.5400 
G00 X-46.2348 Y24.5351 
G01 Z-0.1778 F100.00 
G01 X-46.3321 Y24.4378 F100.00 
G01 X-46.4465 Y24.3614 
G01 X-46.5737 Y24.3087 
G01 X-46.7086 Y24.2819 
G01 X-46.8462 Y24.2819 
G01 X-46.9811 Y24.3087 
G01 X-47.1083 Y24.3614 
G01 X-47.2227 Y24.4378 
G01 X-47.3200 Y24.5351 
G01 X-47.3964 Y24.6495 
G01 X-47.4491 Y24.7767 
G01 X-47.4759 Y24.9116 
G01 X-47.4759 Y25.7023 
G01 X-47.4853 Y25.7374 
G01 X-47.4853 Y27.7348 
G01 X-48.4652 Y28.7147 
G01 X-54.6752 Y28.7147 
G01 X-54.8012 Y28.7485 
G01 X-54.9141 Y28.8137 
G01 X-55.0063 Y28.9059 
G01 X-56.2763 Y30.1759 
G01 X-56.3415 Y30.2888 
G01 X-56.3753 Y30.4148 
G01 X-56.3753 Y39.1648 
G01 X-59.8952 Y42.6847 
G01 X-77.5352 Y42.6847 
G01 X-77.6612 Y42.7185 
G01 X-77.7741 Y42.7837 
G01 X-79.1363 Y44.1459 
G01 X-79.2015 Y44.2588 
G01 X-79.2353 Y44.3848 
G01 X-79.2353 Y45.1999 
G01 X-79.3796 Y45.2963 
G01 X-79.5193 Y45.4360 
G01 X-79.6291 Y45.6004 
G01 X-79.7047 Y45.7829 
G01 X-79.7433 Y45.9768 
G01 X-79.7433 Y48.0032 
G01 X-79.7047 Y48.1970 
G01 X-79.6291 Y48.3796 
G01 X-79.5193 Y48.5440 
G01 X-79.3796 Y48.6837 
G01 X-79.2152 Y48.7935 
G01 X-79.0327 Y48.8691 
G01 X-78.8388 Y48.9077 
G01 X-78.6412 Y48.9077 
G01 X-78.4473 Y48.8691 
G01 X-78.2648 Y48.7935 
G01 X-78.1004 Y48.6837 
G01 X-77.9607 Y48.5440 
G01 X-77.8509 Y48.3796 
G01 X-77.7753 Y48.1970 
G01 X-77.7367 Y48.0032 
G01 X-77.7367 Y45.9768 
G01 X-77.7753 Y45.7829 
G01 X-77.8509 Y45.6004 
G01 X-77.9607 Y45.4360 
G01 X-78.1004 Y45.2963 
G01 X-78.2447 Y45.1999 
G01 X-78.2447 Y44.6552 
G01 X-77.2648 Y43.6753 
G01 X-59.6248 Y43.6753 
G01 X-59.4988 Y43.6415 
G01 X-59.3859 Y43.5763 
G01 X-55.5759 Y39.7663 
G01 X-55.4837 Y39.6741 
G01 X-55.4185 Y39.5612 
G01 X-55.3847 Y39.4352 
G01 X-55.3847 Y30.6852 
G01 X-54.4048 Y29.7053 
G01 X-48.1948 Y29.7053 
G01 X-48.0688 Y29.6715 
G01 X-47.9559 Y29.6063 
G01 X-47.8637 Y29.5141 
G01 X-46.6859 Y28.3363 
G01 X-46.5937 Y28.2441 
G01 X-46.5285 Y28.1312 
G01 X-46.4947 Y28.0052 
G01 X-46.4947 Y26.8386 
G01 X-46.4465 Y26.8186 
G01 X-46.3321 Y26.7422 
G01 X-46.2348 Y26.6449 
G01 X-46.1584 Y26.5305 
G01 X-46.1057 Y26.4033 
G01 X-46.0789 Y26.2684 
G01 X-46.0789 Y24.9116 
G01 X-46.1057 Y24.7767 
G01 X-46.1584 Y24.6495 
G01 X-46.2348 Y24.5351 
G00 Z2.5400 
G00 X-48.7748 Y24.5351 
G01 Z-0.1778 F100.00 
G01 X-48.8721 Y24.4378 F100.00 
G01 X-48.9865 Y24.3614 
G01 X-49.0347 Y24.3414 
G01 X-49.0347 Y24.0648 
G01 X-49.0685 Y23.9388 
G01 X-49.1337 Y23.8259 
G01 X-49.2259 Y23.7337 
G01 X-51.6737 Y21.2859 
G01 X-51.7659 Y21.1937 
G01 X-51.8788 Y21.1285 
G01 X-52.0048 Y21.0947 
G01 X-57.2152 Y21.0947 
G01 X-57.3412 Y21.1285 
G01 X-57.4541 Y21.1937 
G01 X-57.5463 Y21.2859 
G01 X-58.7241 Y22.4637 
G01 X-58.8163 Y22.5559 
G01 X-58.8815 Y22.6688 
G01 X-58.9153 Y22.7948 
G01 X-58.9153 Y37.8948 
G01 X-61.1652 Y40.1447 
G01 X-78.8052 Y40.1447 
G01 X-78.9312 Y40.1785 
G01 X-79.0441 Y40.2437 
G01 X-79.1363 Y40.3359 
G01 X-81.6763 Y42.8759 
G01 X-81.7415 Y42.9888 
G01 X-81.7753 Y43.1148 
G01 X-81.7753 Y45.1999 
G01 X-81.9196 Y45.2963 
G01 X-82.0593 Y45.4360 
G01 X-82.1691 Y45.6004 
G01 X-82.2447 Y45.7829 
G01 X-82.2833 Y45.9768 
G01 X-82.2833 Y48.0032 
G01 X-82.2447 Y48.1970 
G01 X-82.1691 Y48.3796 
G01 X-82.0593 Y48.5440 
G01 X-81.9196 Y48.6837 
G01 X-81.7552 Y48.7935 
G01 X-81.5726 Y48.8691 
G01 X-81.3788 Y48.9077 
G01 X-81.1812 Y48.9077 
G01 X-80.9873 Y48.8691 
G01 X-80.8048 Y48.7935 
G01 X-80.6404 Y48.6837 
G01 X-80.5007 Y48.5440 
G01 X-80.3909 Y48.3796 
G01 X-80.3153 Y48.1970 
G01 X-80.2767 Y48.0032 
G01 X-80.2767 Y45.9768 
G01 X-80.3153 Y45.7829 
G01 X-80.3909 Y45.6004 
G01 X-80.5007 Y45.4360 
G01 X-80.6404 Y45.2963 
G01 X-80.7847 Y45.1999 
G01 X-80.7847 Y43.3852 
G01 X-78.5348 Y41.1353 
G01 X-60.8948 Y41.1353 
G01 X-60.7688 Y41.1015 
G01 X-60.6559 Y41.0363 
G01 X-58.0237 Y38.4041 
G01 X-57.9585 Y38.2912 
G01 X-57.9247 Y38.1652 
G01 X-57.9247 Y23.0652 
G01 X-56.9448 Y22.0853 
G01 X-52.2752 Y22.0853 
G01 X-50.0253 Y24.3352 
G01 X-50.0253 Y25.4426 
G01 X-50.0159 Y25.4777 
G01 X-50.0159 Y26.2684 
G01 X-49.9891 Y26.4033 
G01 X-49.9364 Y26.5305 
G01 X-49.8600 Y26.6449 
G01 X-49.7627 Y26.7422 
G01 X-49.6483 Y26.8186 
G01 X-49.5211 Y26.8713 
G01 X-49.3862 Y26.8981 
G01 X-49.2486 Y26.8981 
G01 X-49.1137 Y26.8713 
G01 X-48.9865 Y26.8186 
G01 X-48.8721 Y26.7422 
G01 X-48.7748 Y26.6449 
G01 X-48.6984 Y26.5305 
G01 X-48.6457 Y26.4033 
G01 X-48.6189 Y26.2684 
G01 X-48.6189 Y24.9116 
G01 X-48.6457 Y24.7767 
G01 X-48.6984 Y24.6495 
G01 X-48.7748 Y24.5351 
G00 Z2.5400 
G00 X-51.3148 Y24.5351 
G01 Z-0.1778 F100.00 
