(.../pcb-gcode-3.6.2.4/pcb-gcode.ulp)
(Copyright 2005 - 2012 by John Johnson)
(See readme.txt for licensing terms.)
(This file generated from the board:)
(.../WEMOS/WEMOS_GPIO/wemos_gpio_7x.brd)
(Current profile is .../pcb-gcode-3.6.2.4/profiles/generic.pp  )
(This file generated 03.06.2018 20:01)
(Settings from pcb-machine.h)
(spindle on time = 3.0000)
(  Tool Size)
(0.1778 )
(spindle speed = 30000.0000)
(tool change at 0.0000 0.0000 25.4000 )
(feed rate xy = F100.00 )
(feed rate z  = F100.00 )
(Z Axis Settings)
(  High     Up        Down     Drill)
(12.7000 	2.5400 	-0.1778 	-3.0000 )
(Settings from pcb-defaults.h)
(isolate min = 0.0000)
(isolate max = 0.3810)
(isolate step = 0.1016)
(Generated bottom outlines, bottom drill, )
(Unit of measure: mm)
(Metric Mode)
G21
(Absolute Coordinates)
G90
S30000
G00 Z12.7000 
G00 X0.0000 Y0.0000 
M03
G04 P3.000000
G00 Z2.5400 
G00 X-0.7998 Y0.8184 
G01 Z-0.1778 F100.00 
G01 X-0.8101 Y0.8101 F100.00 
G01 X-0.8184 Y0.7998 
G01 X-0.8606 Y0.7691 
G01 X-0.8695 Y0.7620 
G01 X-0.8763 Y0.7543 
G01 X-0.8892 Y0.7460 
G01 X-0.9012 Y0.7363 
G01 X-0.9106 Y0.7321 
G01 X-0.9202 Y0.7259 
G01 X-0.9624 Y0.6952 
G01 X-0.9747 Y0.6905 
G01 X-0.9857 Y0.6833 
G01 X-1.0354 Y0.6672 
G01 X-1.0842 Y0.6484 
G01 X-1.0961 Y0.6472 
G01 X-1.1423 Y0.6308 
G01 X-1.1489 Y0.6303 
G01 X-1.1551 Y0.6283 
G01 X-1.1892 Y0.6265 
G01 X-1.2048 Y0.6223 
G01 X-1.2506 Y0.6223 
G01 X-1.2962 Y0.6187 
G01 X-1.3155 Y0.6223 
G01 X-91.4045 Y0.6223 
G01 X-91.4238 Y0.6187 
G01 X-91.4694 Y0.6223 
G01 X-91.5152 Y0.6223 
G01 X-91.5308 Y0.6265 
G01 X-91.5649 Y0.6283 
G01 X-91.5711 Y0.6303 
G01 X-91.5777 Y0.6308 
G01 X-91.6239 Y0.6472 
G01 X-91.6358 Y0.6484 
G01 X-91.6846 Y0.6672 
G01 X-91.7343 Y0.6833 
G01 X-91.7453 Y0.6905 
G01 X-91.7576 Y0.6952 
G01 X-91.7999 Y0.7259 
G01 X-91.8094 Y0.7321 
G01 X-91.8188 Y0.7363 
G01 X-91.8308 Y0.7460 
G01 X-91.8436 Y0.7543 
G01 X-91.8505 Y0.7620 
G01 X-91.8594 Y0.7691 
G01 X-91.9016 Y0.7998 
G01 X-91.9099 Y0.8101 
G01 X-91.9201 Y0.8184 
G01 X-91.9509 Y0.8606 
G01 X-91.9580 Y0.8695 
G01 X-91.9656 Y0.8763 
G01 X-91.9740 Y0.8892 
G01 X-91.9837 Y0.9012 
G01 X-91.9879 Y0.9106 
G01 X-91.9941 Y0.9201 
G01 X-92.0248 Y0.9624 
G01 X-92.0295 Y0.9747 
G01 X-92.0367 Y0.9857 
G01 X-92.0528 Y1.0354 
G01 X-92.0716 Y1.0842 
G01 X-92.0728 Y1.0961 
G01 X-92.0892 Y1.1423 
G01 X-92.0897 Y1.1488 
G01 X-92.0917 Y1.1551 
G01 X-92.0935 Y1.1892 
G01 X-92.0977 Y1.2048 
G01 X-92.0977 Y1.2506 
G01 X-92.1013 Y1.2962 
G01 X-92.0977 Y1.3155 
G01 X-92.0977 Y68.9145 
G01 X-92.1013 Y68.9338 
G01 X-92.0977 Y68.9794 
G01 X-92.0977 Y69.0252 
G01 X-92.0935 Y69.0408 
G01 X-92.0917 Y69.0749 
G01 X-92.0897 Y69.0811 
G01 X-92.0892 Y69.0877 
G01 X-92.0728 Y69.1339 
G01 X-92.0716 Y69.1458 
G01 X-92.0528 Y69.1946 
G01 X-92.0367 Y69.2443 
G01 X-92.0295 Y69.2553 
G01 X-92.0248 Y69.2675 
G01 X-91.9941 Y69.3098 
G01 X-91.9879 Y69.3194 
G01 X-91.9837 Y69.3288 
G01 X-91.9740 Y69.3408 
G01 X-91.9656 Y69.3537 
G01 X-91.9580 Y69.3605 
G01 X-91.9509 Y69.3694 
G01 X-91.9202 Y69.4116 
G01 X-91.9099 Y69.4199 
G01 X-91.9016 Y69.4302 
G01 X-91.8594 Y69.4608 
G01 X-91.8505 Y69.4680 
G01 X-91.8437 Y69.4757 
G01 X-91.8308 Y69.4840 
G01 X-91.8188 Y69.4937 
G01 X-91.8094 Y69.4979 
G01 X-91.7998 Y69.5041 
G01 X-91.7575 Y69.5348 
G01 X-91.7453 Y69.5395 
G01 X-91.7343 Y69.5467 
G01 X-91.6846 Y69.5628 
G01 X-91.6358 Y69.5816 
G01 X-91.6239 Y69.5828 
G01 X-91.5777 Y69.5992 
G01 X-91.5711 Y69.5997 
G01 X-91.5649 Y69.6017 
G01 X-91.5308 Y69.6035 
G01 X-91.5152 Y69.6077 
G01 X-91.4695 Y69.6077 
G01 X-91.4239 Y69.6113 
G01 X-91.4045 Y69.6077 
G01 X-1.3155 Y69.6077 
G01 X-1.2962 Y69.6113 
G01 X-1.2506 Y69.6077 
G01 X-1.2048 Y69.6077 
G01 X-1.1892 Y69.6035 
G01 X-1.1551 Y69.6017 
G01 X-1.1489 Y69.5997 
G01 X-1.1423 Y69.5992 
G01 X-1.0961 Y69.5828 
G01 X-1.0842 Y69.5816 
G01 X-1.0354 Y69.5628 
G01 X-0.9857 Y69.5467 
G01 X-0.9747 Y69.5395 
G01 X-0.9624 Y69.5348 
G01 X-0.9202 Y69.5041 
G01 X-0.9106 Y69.4979 
G01 X-0.9012 Y69.4937 
G01 X-0.8892 Y69.4840 
G01 X-0.8763 Y69.4757 
G01 X-0.8695 Y69.4680 
G01 X-0.8606 Y69.4609 
G01 X-0.8184 Y69.4301 
G01 X-0.8101 Y69.4199 
G01 X-0.7998 Y69.4116 
G01 X-0.7691 Y69.3694 
G01 X-0.7620 Y69.3605 
G01 X-0.7543 Y69.3537 
G01 X-0.7460 Y69.3408 
G01 X-0.7363 Y69.3288 
G01 X-0.7321 Y69.3194 
G01 X-0.7259 Y69.3098 
G01 X-0.6952 Y69.2676 
G01 X-0.6905 Y69.2553 
G01 X-0.6833 Y69.2443 
G01 X-0.6672 Y69.1946 
G01 X-0.6484 Y69.1458 
G01 X-0.6472 Y69.1339 
G01 X-0.6308 Y69.0877 
G01 X-0.6303 Y69.0811 
G01 X-0.6283 Y69.0749 
G01 X-0.6265 Y69.0408 
G01 X-0.6223 Y69.0252 
G01 X-0.6223 Y68.9794 
G01 X-0.6187 Y68.9338 
G01 X-0.6223 Y68.9145 
G01 X-0.6223 Y1.3155 
G01 X-0.6187 Y1.2962 
G01 X-0.6223 Y1.2506 
G01 X-0.6223 Y1.2048 
G01 X-0.6265 Y1.1892 
G01 X-0.6283 Y1.1551 
G01 X-0.6303 Y1.1489 
G01 X-0.6308 Y1.1423 
G01 X-0.6472 Y1.0961 
G01 X-0.6484 Y1.0842 
G01 X-0.6672 Y1.0354 
G01 X-0.6833 Y0.9857 
G01 X-0.6905 Y0.9747 
G01 X-0.6952 Y0.9624 
G01 X-0.7259 Y0.9202 
G01 X-0.7321 Y0.9106 
G01 X-0.7363 Y0.9012 
G01 X-0.7460 Y0.8892 
G01 X-0.7543 Y0.8763 
G01 X-0.7620 Y0.8695 
G01 X-0.7691 Y0.8606 
G01 X-0.7998 Y0.8184 
G00 Z2.5400 
G00 X-3.9096 Y3.4678 
G01 Z-0.1778 F100.00 
G01 X-3.3978 Y3.9796 F100.00 
G01 X-3.1209 Y4.6482 
G01 X-3.1209 Y5.3718 
G01 X-3.3978 Y6.0404 
G01 X-3.9096 Y6.5522 
G01 X-4.5782 Y6.8291 
G01 X-5.3018 Y6.8291 
G01 X-5.9704 Y6.5522 
G01 X-6.4822 Y6.0404 
G01 X-6.7591 Y5.3718 
G01 X-6.7591 Y4.6482 
G01 X-6.4822 Y3.9796 
G01 X-5.9704 Y3.4678 
G01 X-5.3018 Y3.1909 
G01 X-4.5782 Y3.1909 
G01 X-3.9096 Y3.4678 
G00 Z2.5400 
G00 X-17.8898 Y9.3740 
G01 Z-0.1778 F100.00 
G01 X-10.9284 Y16.3355 F100.00 
G01 X-10.6440 Y16.6198 
G01 X-10.5029 Y16.9606 
G01 X-10.5029 Y23.6060 
G01 X-10.4691 Y23.7320 
G01 X-10.4039 Y23.8449 
G01 X-10.3117 Y23.9372 
G01 X-9.5869 Y24.6620 
G01 X-9.5669 Y24.6880 
G01 X-9.5410 Y24.7079 
G01 X-9.5178 Y24.7311 
G01 X-9.4894 Y24.7474 
G01 X-9.4635 Y24.7674 
G01 X-9.4332 Y24.7799 
G01 X-9.4049 Y24.7963 
G01 X-9.3732 Y24.8047 
G01 X-9.3430 Y24.8173 
G01 X-9.3105 Y24.8216 
G01 X-9.2789 Y24.8300 
G01 X-9.2462 Y24.8300 
G01 X-9.2137 Y24.8343 
G01 X-9.1812 Y24.8300 
G01 X-9.1485 Y24.8300 
G01 X-9.1168 Y24.8216 
G01 X-9.0844 Y24.8173 
G01 X-9.0541 Y24.8048 
G01 X-9.0225 Y24.7963 
G01 X-8.9941 Y24.7799 
G01 X-8.9639 Y24.7674 
G01 X-8.9379 Y24.7474 
G01 X-8.9096 Y24.7311 
G01 X-8.8864 Y24.7079 
G01 X-8.8604 Y24.6880 
G01 X-8.8405 Y24.6620 
G01 X-8.8173 Y24.6389 
G01 X-8.8010 Y24.6105 
G01 X-8.7810 Y24.5845 
G01 X-8.7685 Y24.5543 
G01 X-8.7521 Y24.5259 
G01 X-8.7437 Y24.4943 
G01 X-8.7311 Y24.4640 
G01 X-8.7269 Y24.4316 
G01 X-8.7184 Y24.3999 
G01 X-8.7184 Y24.3672 
G01 X-8.7141 Y24.3347 
G01 X-8.7184 Y24.3023 
G01 X-8.7184 Y24.2695 
G01 X-8.7269 Y24.2379 
G01 X-8.7311 Y24.2054 
G01 X-8.7437 Y24.1752 
G01 X-8.7521 Y24.1436 
G01 X-8.7685 Y24.1152 
G01 X-8.9281 Y23.7299 
G01 X-8.9281 Y23.2601 
G01 X-8.7483 Y22.8260 
G01 X-8.4160 Y22.4937 
G01 X-7.9819 Y22.3139 
G01 X-5.9881 Y22.3139 
G01 X-5.5540 Y22.4937 
G01 X-5.2217 Y22.8260 
G01 X-5.0419 Y23.2601 
G01 X-5.0419 Y23.7299 
G01 X-5.2217 Y24.1640 
G01 X-5.2739 Y24.2163 
G01 X-5.3641 Y24.3065 
G01 X-5.4314 Y24.4214 
G01 X-5.4505 Y24.4930 
G01 X-5.4651 Y24.5474 
G01 X-5.4651 Y24.6778 
G01 X-5.4314 Y24.8038 
G01 X-5.3662 Y24.9167 
G01 X-5.2754 Y25.0075 
G01 X-5.1610 Y25.0741 
G01 X-5.0894 Y25.0933 
G01 X-5.0350 Y25.1079 
G01 X-4.8956 Y25.1079 
G01 X-4.5548 Y25.2490 
G01 X-2.7656 Y27.0383 
G01 X-2.3890 Y27.4148 
G01 X-2.2479 Y27.7556 
G01 X-2.2479 Y57.3344 
G01 X-2.3890 Y57.6752 
G01 X-8.9998 Y64.2860 
G01 X-9.3406 Y64.4271 
G01 X-45.9044 Y64.4271 
G01 X-46.2452 Y64.2860 
G01 X-47.3994 Y63.1317 
G01 X-47.4916 Y63.0395 
G01 X-47.7760 Y62.7552 
G01 X-47.9171 Y62.4144 
G01 X-47.9171 Y62.1432 
G01 X-47.9128 Y62.1108 
G01 X-47.9171 Y62.0783 
G01 X-47.9171 Y62.0456 
G01 X-47.9256 Y62.0139 
G01 X-47.9298 Y61.9815 
G01 X-47.9424 Y61.9512 
G01 X-47.9509 Y61.9196 
G01 X-47.9672 Y61.8912 
G01 X-47.9798 Y61.8610 
G01 X-47.9997 Y61.8350 
G01 X-48.0161 Y61.8067 
G01 X-48.0392 Y61.7835 
G01 X-48.0591 Y61.7575 
G01 X-48.0851 Y61.7376 
G01 X-48.1083 Y61.7144 
G01 X-48.1366 Y61.6981 
G01 X-48.1495 Y61.6882 
G01 X-48.2753 Y61.5624 
G01 X-48.3391 Y61.4084 
G01 X-48.3391 Y59.2416 
G01 X-48.2753 Y59.0876 
G01 X-48.1574 Y58.9697 
G01 X-48.0034 Y58.9059 
G01 X-46.2366 Y58.9059 
G01 X-46.0826 Y58.9697 
G01 X-46.0465 Y59.0058 
G01 X-45.9700 Y59.0500 
G01 X-45.9336 Y59.0710 
G01 X-45.8181 Y59.1019 
G01 X-45.8076 Y59.1047 
G01 X-45.7431 Y59.1047 
G01 X-45.6772 Y59.1047 
G01 X-45.5512 Y59.0710 
G01 X-45.4584 Y59.0174 
G01 X-45.4383 Y59.0058 
G01 X-45.3929 Y58.9604 
G01 X-45.3461 Y58.9136 
G01 X-45.3019 Y58.8370 
G01 X-45.2809 Y58.8006 
G01 X-45.2499 Y58.6851 
G01 X-45.2471 Y58.6747 
G01 X-45.2471 Y58.6102 
G01 X-45.2471 Y58.5442 
G01 X-45.2471 Y56.5427 
G01 X-45.2428 Y56.5102 
G01 X-45.2471 Y56.4778 
G01 X-45.2471 Y56.4451 
G01 X-45.2556 Y56.4134 
G01 X-45.2599 Y56.3809 
G01 X-45.2724 Y56.3507 
G01 X-45.2809 Y56.3191 
G01 X-45.2972 Y56.2907 
G01 X-45.3098 Y56.2604 
G01 X-45.3297 Y56.2345 
G01 X-45.3461 Y56.2061 
G01 X-45.3692 Y56.1830 
G01 X-45.3892 Y56.1570 
G01 X-45.4151 Y56.1371 
G01 X-45.4383 Y56.1139 
G01 X-45.4667 Y56.0975 
G01 X-45.4926 Y56.0776 
G01 X-45.5229 Y56.0651 
G01 X-45.5512 Y56.0487 
G01 X-45.5829 Y56.0402 
G01 X-45.6131 Y56.0277 
G01 X-45.6456 Y56.0234 
G01 X-45.6772 Y56.0150 
G01 X-45.7099 Y56.0150 
G01 X-45.7424 Y56.0107 
G01 X-45.7749 Y56.0150 
G01 X-45.8076 Y56.0150 
G01 X-45.8392 Y56.0234 
G01 X-45.8717 Y56.0277 
G01 X-45.8751 Y56.0291 
G01 X-47.6418 Y56.0291 
G01 X-47.7958 Y55.9653 
G01 X-47.9350 Y55.8261 
G01 X-47.9402 Y55.8171 
G01 X-47.9579 Y55.7995 
G01 X-47.9618 Y55.7936 
G01 X-47.9674 Y55.7887 
G01 X-47.9829 Y55.7685 
G01 X-48.0091 Y55.7484 
G01 X-48.0326 Y55.7250 
G01 X-48.0543 Y55.7125 
G01 X-48.0599 Y55.7076 
G01 X-48.0665 Y55.7043 
G01 X-48.0863 Y55.6891 
G01 X-48.1169 Y55.6764 
G01 X-48.1456 Y55.6599 
G01 X-48.1694 Y55.6536 
G01 X-48.1768 Y55.6499 
G01 X-48.1847 Y55.6483 
G01 X-48.2068 Y55.6392 
G01 X-48.2396 Y55.6349 
G01 X-48.2716 Y55.6263 
G01 X-48.2952 Y55.6264 
G01 X-48.3048 Y55.6245 
G01 X-48.3139 Y55.6251 
G01 X-48.3361 Y55.6221 
G01 X-48.3689 Y55.6265 
G01 X-48.4020 Y55.6265 
G01 X-48.4233 Y55.6322 
G01 X-48.4349 Y55.6330 
G01 X-48.4452 Y55.6365 
G01 X-48.4654 Y55.6391 
G01 X-48.4960 Y55.6518 
G01 X-48.5279 Y55.6604 
G01 X-48.5453 Y55.6705 
G01 X-48.5584 Y55.6749 
G01 X-48.5691 Y55.6821 
G01 X-48.5859 Y55.6890 
G01 X-48.6122 Y55.7092 
G01 X-48.6408 Y55.7258 
G01 X-48.6534 Y55.7384 
G01 X-48.6802 Y55.7563 
G01 X-48.7102 Y55.7688 
G01 X-48.7421 Y55.7751 
G01 X-49.0631 Y55.7751 
G01 X-49.0631 Y55.6989 
G01 X-48.7407 Y55.6989 
G01 X-48.7080 Y55.6854 
G01 X-48.6830 Y55.6604 
G01 X-48.6695 Y55.6277 
G01 X-48.6695 Y53.5923 
G01 X-48.6830 Y53.5596 
G01 X-48.7080 Y53.5346 
G01 X-48.7407 Y53.5211 
G01 X-49.0631 Y53.5211 
G01 X-49.0631 Y53.4449 
G01 X-48.7421 Y53.4449 
G01 X-48.7102 Y53.4512 
G01 X-48.6802 Y53.4637 
G01 X-48.6534 Y53.4816 
G01 X-48.6408 Y53.4942 
G01 X-48.6122 Y53.5108 
G01 X-48.5859 Y53.5310 
G01 X-48.5691 Y53.5379 
G01 X-48.5584 Y53.5451 
G01 X-48.5453 Y53.5495 
G01 X-48.5279 Y53.5596 
G01 X-48.4960 Y53.5682 
G01 X-48.4654 Y53.5809 
G01 X-48.4452 Y53.5835 
G01 X-48.4349 Y53.5870 
G01 X-48.4233 Y53.5878 
G01 X-48.4020 Y53.5935 
G01 X-48.3689 Y53.5935 
G01 X-48.3361 Y53.5979 
G01 X-48.3139 Y53.5949 
G01 X-48.3048 Y53.5955 
G01 X-48.2952 Y53.5936 
G01 X-48.2716 Y53.5937 
G01 X-48.2396 Y53.5851 
G01 X-48.2068 Y53.5808 
G01 X-48.1847 Y53.5717 
G01 X-48.1768 Y53.5701 
G01 X-48.1694 Y53.5664 
G01 X-48.1456 Y53.5601 
G01 X-48.1169 Y53.5436 
G01 X-48.0863 Y53.5309 
G01 X-48.0665 Y53.5157 
G01 X-48.0599 Y53.5124 
G01 X-48.0543 Y53.5075 
G01 X-48.0326 Y53.4950 
G01 X-48.0091 Y53.4716 
G01 X-47.9829 Y53.4515 
G01 X-47.9674 Y53.4313 
G01 X-47.9618 Y53.4264 
G01 X-47.9579 Y53.4205 
G01 X-47.9402 Y53.4029 
G01 X-47.9350 Y53.3939 
G01 X-47.8957 Y53.3546 
G01 X-47.8070 Y53.2659 
G01 X-47.8035 Y53.2624 
G01 X-47.7492 Y53.1683 
G01 X-47.7383 Y53.1494 
G01 X-47.7230 Y53.0924 
G01 X-47.7045 Y53.0235 
G01 X-47.7045 Y50.8040 
G01 X-47.7002 Y50.7716 
G01 X-47.7045 Y50.7391 
G01 X-47.7045 Y50.7064 
G01 X-47.7130 Y50.6747 
G01 X-47.7172 Y50.6423 
G01 X-47.7298 Y50.6120 
G01 X-47.7383 Y50.5804 
G01 X-47.7546 Y50.5520 
G01 X-47.7672 Y50.5218 
G01 X-47.7871 Y50.4958 
G01 X-47.8035 Y50.4674 
G01 X-47.8266 Y50.4443 
G01 X-47.8465 Y50.4183 
G01 X-47.8725 Y50.3984 
G01 X-47.8957 Y50.3752 
G01 X-47.9240 Y50.3589 
G01 X-47.9500 Y50.3389 
G01 X-47.9803 Y50.3264 
G01 X-48.0086 Y50.3100 
G01 X-48.0403 Y50.3015 
G01 X-48.0705 Y50.2890 
G01 X-48.1030 Y50.2847 
G01 X-48.1346 Y50.2763 
G01 X-48.1673 Y50.2763 
G01 X-48.1998 Y50.2720 
G01 X-48.2323 Y50.2763 
G01 X-48.2650 Y50.2763 
G01 X-48.2966 Y50.2848 
G01 X-48.3291 Y50.2890 
G01 X-48.3593 Y50.3015 
G01 X-48.3910 Y50.3100 
G01 X-48.3980 Y50.3141 
G01 X-50.1564 Y50.3141 
G01 X-50.3104 Y50.2503 
G01 X-50.4496 Y50.1111 
G01 X-50.4548 Y50.1021 
G01 X-50.4725 Y50.0845 
G01 X-50.4764 Y50.0786 
G01 X-50.4820 Y50.0737 
G01 X-50.4975 Y50.0535 
G01 X-50.5237 Y50.0334 
G01 X-50.5472 Y50.0100 
G01 X-50.5689 Y49.9975 
G01 X-50.5745 Y49.9926 
G01 X-50.5811 Y49.9893 
G01 X-50.6009 Y49.9741 
G01 X-50.6315 Y49.9614 
G01 X-50.6602 Y49.9449 
G01 X-50.6840 Y49.9386 
G01 X-50.6914 Y49.9349 
G01 X-50.6993 Y49.9333 
G01 X-50.7214 Y49.9242 
G01 X-50.7542 Y49.9199 
G01 X-50.7862 Y49.9113 
G01 X-50.8098 Y49.9114 
G01 X-50.8194 Y49.9095 
G01 X-50.8285 Y49.9101 
G01 X-50.8507 Y49.9071 
G01 X-50.8835 Y49.9115 
G01 X-50.9166 Y49.9115 
G01 X-50.9379 Y49.9172 
G01 X-50.9495 Y49.9180 
G01 X-50.9598 Y49.9215 
G01 X-50.9800 Y49.9241 
G01 X-51.0106 Y49.9368 
G01 X-51.0425 Y49.9454 
G01 X-51.0599 Y49.9555 
G01 X-51.0730 Y49.9599 
G01 X-51.0837 Y49.9671 
G01 X-51.1005 Y49.9740 
G01 X-51.1268 Y49.9942 
G01 X-51.1554 Y50.0108 
G01 X-51.1680 Y50.0234 
G01 X-51.1948 Y50.0413 
G01 X-51.2248 Y50.0538 
G01 X-51.2567 Y50.0601 
G01 X-51.5777 Y50.0601 
G01 X-51.5777 Y49.9839 
G01 X-51.2553 Y49.9839 
G01 X-51.2226 Y49.9704 
G01 X-51.1976 Y49.9454 
G01 X-51.1841 Y49.9127 
G01 X-51.1841 Y47.8773 
G01 X-51.1976 Y47.8446 
G01 X-51.2226 Y47.8196 
G01 X-51.2553 Y47.8061 
G01 X-51.5777 Y47.8061 
G01 X-51.5777 Y47.7299 
G01 X-51.2567 Y47.7299 
G01 X-51.2249 Y47.7362 
G01 X-51.1948 Y47.7487 
G01 X-51.1680 Y47.7666 
G01 X-51.1554 Y47.7792 
G01 X-51.1268 Y47.7958 
G01 X-51.1005 Y47.8160 
G01 X-51.0837 Y47.8229 
G01 X-51.0730 Y47.8301 
G01 X-51.0599 Y47.8345 
G01 X-51.0425 Y47.8446 
G01 X-51.0106 Y47.8532 
G01 X-50.9800 Y47.8659 
G01 X-50.9598 Y47.8685 
G01 X-50.9495 Y47.8720 
G01 X-50.9379 Y47.8728 
G01 X-50.9166 Y47.8785 
G01 X-50.8835 Y47.8785 
G01 X-50.8507 Y47.8829 
G01 X-50.8285 Y47.8799 
G01 X-50.8194 Y47.8805 
G01 X-50.8098 Y47.8786 
G01 X-50.7862 Y47.8787 
G01 X-50.7542 Y47.8701 
G01 X-50.7214 Y47.8658 
G01 X-50.6993 Y47.8567 
G01 X-50.6914 Y47.8551 
G01 X-50.6840 Y47.8514 
G01 X-50.6602 Y47.8451 
G01 X-50.6315 Y47.8286 
G01 X-50.6009 Y47.8159 
G01 X-50.5811 Y47.8007 
G01 X-50.5745 Y47.7974 
G01 X-50.5689 Y47.7925 
G01 X-50.5472 Y47.7800 
G01 X-50.5237 Y47.7566 
G01 X-50.4975 Y47.7365 
G01 X-50.4820 Y47.7163 
G01 X-50.4764 Y47.7114 
G01 X-50.4725 Y47.7055 
G01 X-50.4548 Y47.6879 
G01 X-50.4496 Y47.6789 
G01 X-50.2991 Y47.5284 
G01 X-50.2338 Y47.4154 
G01 X-50.2001 Y47.2894 
G01 X-50.2001 Y45.0391 
G01 X-50.1958 Y45.0066 
G01 X-50.2001 Y44.9741 
G01 X-50.2001 Y44.9414 
G01 X-50.2086 Y44.9098 
G01 X-50.2128 Y44.8773 
G01 X-50.2254 Y44.8471 
G01 X-50.2338 Y44.8154 
G01 X-50.2502 Y44.7871 
G01 X-50.2628 Y44.7568 
G01 X-50.2827 Y44.7309 
G01 X-50.2991 Y44.7025 
G01 X-50.3222 Y44.6793 
G01 X-50.3421 Y44.6534 
G01 X-50.3681 Y44.6334 
G01 X-50.3913 Y44.6103 
G01 X-50.4196 Y44.5939 
G01 X-50.4456 Y44.5740 
G01 X-50.4759 Y44.5614 
G01 X-50.5042 Y44.5451 
G01 X-50.5358 Y44.5366 
G01 X-50.5661 Y44.5241 
G01 X-50.5986 Y44.5198 
G01 X-50.6302 Y44.5113 
G01 X-50.6629 Y44.5113 
G01 X-50.6954 Y44.5070 
G01 X-50.7279 Y44.5113 
G01 X-50.7606 Y44.5113 
G01 X-50.7922 Y44.5198 
G01 X-50.8247 Y44.5241 
G01 X-50.8549 Y44.5366 
G01 X-50.8866 Y44.5451 
G01 X-50.9149 Y44.5614 
G01 X-51.0058 Y44.5991 
G01 X-52.7726 Y44.5991 
G01 X-52.9266 Y44.5353 
G01 X-53.0658 Y44.3961 
G01 X-53.0710 Y44.3871 
G01 X-53.0887 Y44.3695 
G01 X-53.0926 Y44.3636 
G01 X-53.0982 Y44.3587 
G01 X-53.1137 Y44.3385 
G01 X-53.1399 Y44.3184 
G01 X-53.1634 Y44.2950 
G01 X-53.1851 Y44.2825 
G01 X-53.1907 Y44.2776 
G01 X-53.1973 Y44.2743 
G01 X-53.2171 Y44.2591 
G01 X-53.2477 Y44.2464 
G01 X-53.2764 Y44.2299 
G01 X-53.3002 Y44.2236 
G01 X-53.3076 Y44.2199 
G01 X-53.3155 Y44.2183 
G01 X-53.3376 Y44.2092 
G01 X-53.3704 Y44.2049 
G01 X-53.4024 Y44.1963 
G01 X-53.4260 Y44.1964 
G01 X-53.4356 Y44.1945 
G01 X-53.4447 Y44.1951 
G01 X-53.4669 Y44.1921 
G01 X-53.4997 Y44.1965 
G01 X-53.5328 Y44.1965 
G01 X-53.5541 Y44.2022 
G01 X-53.5657 Y44.2030 
G01 X-53.5760 Y44.2065 
G01 X-53.5962 Y44.2091 
G01 X-53.6268 Y44.2218 
G01 X-53.6587 Y44.2304 
G01 X-53.6761 Y44.2405 
G01 X-53.6892 Y44.2449 
G01 X-53.6999 Y44.2521 
G01 X-53.7167 Y44.2590 
G01 X-53.7430 Y44.2792 
G01 X-53.7716 Y44.2958 
G01 X-53.7842 Y44.3084 
G01 X-53.8110 Y44.3263 
G01 X-53.8410 Y44.3388 
G01 X-53.8729 Y44.3451 
G01 X-54.1939 Y44.3451 
G01 X-54.1939 Y44.2689 
G01 X-53.8715 Y44.2689 
G01 X-53.8388 Y44.2554 
G01 X-53.8138 Y44.2304 
G01 X-53.8003 Y44.1977 
G01 X-53.8003 Y42.1623 
G01 X-53.8138 Y42.1296 
G01 X-53.8388 Y42.1046 
G01 X-53.8715 Y42.0911 
G01 X-54.1939 Y42.0911 
G01 X-54.1939 Y42.0149 
G01 X-53.8729 Y42.0149 
G01 X-53.8410 Y42.0212 
G01 X-53.8110 Y42.0337 
G01 X-53.7842 Y42.0516 
G01 X-53.7716 Y42.0642 
G01 X-53.7430 Y42.0808 
G01 X-53.7167 Y42.1010 
G01 X-53.6999 Y42.1079 
G01 X-53.6892 Y42.1151 
G01 X-53.6761 Y42.1195 
G01 X-53.6587 Y42.1296 
G01 X-53.6268 Y42.1382 
G01 X-53.5962 Y42.1509 
G01 X-53.5760 Y42.1535 
G01 X-53.5657 Y42.1570 
G01 X-53.5541 Y42.1578 
G01 X-53.5328 Y42.1635 
G01 X-53.4997 Y42.1635 
G01 X-53.4669 Y42.1679 
G01 X-53.4447 Y42.1649 
G01 X-53.4356 Y42.1655 
G01 X-53.4260 Y42.1636 
G01 X-53.4024 Y42.1637 
G01 X-53.3704 Y42.1551 
G01 X-53.3376 Y42.1508 
G01 X-53.3155 Y42.1417 
G01 X-53.3076 Y42.1401 
G01 X-53.3002 Y42.1364 
G01 X-53.2764 Y42.1301 
G01 X-53.2477 Y42.1136 
G01 X-53.2171 Y42.1009 
G01 X-53.1973 Y42.0857 
G01 X-53.1907 Y42.0824 
G01 X-53.1851 Y42.0775 
G01 X-53.1634 Y42.0650 
G01 X-53.1399 Y42.0416 
G01 X-53.1137 Y42.0215 
G01 X-53.0982 Y42.0013 
G01 X-53.0926 Y41.9964 
G01 X-53.0887 Y41.9905 
G01 X-53.0710 Y41.9729 
G01 X-53.0658 Y41.9639 
G01 X-52.8835 Y41.7816 
G01 X-52.8182 Y41.6686 
G01 X-52.7845 Y41.5426 
G01 X-52.7845 Y34.4005 
G01 X-52.7802 Y34.3680 
G01 X-52.7845 Y34.3355 
G01 X-52.7845 Y34.3028 
G01 X-52.7930 Y34.2712 
G01 X-52.7972 Y34.2387 
G01 X-52.8098 Y34.2085 
G01 X-52.8182 Y34.1768 
G01 X-52.8346 Y34.1485 
G01 X-52.8861 Y34.0242 
G01 X-52.8861 Y32.3958 
G01 X-52.7295 Y32.0177 
G01 X-52.4445 Y31.7327 
G01 X-52.4305 Y31.7289 
G01 X-52.4021 Y31.7126 
G01 X-52.3719 Y31.7000 
G01 X-52.3459 Y31.6801 
G01 X-52.3175 Y31.6637 
G01 X-52.2944 Y31.6406 
G01 X-52.2684 Y31.6207 
G01 X-52.2485 Y31.5947 
G01 X-52.2253 Y31.5715 
G01 X-52.2089 Y31.5432 
G01 X-52.1890 Y31.5172 
G01 X-52.1765 Y31.4869 
G01 X-52.1601 Y31.4586 
G01 X-52.1516 Y31.4270 
G01 X-52.1391 Y31.3967 
G01 X-52.1348 Y31.3642 
G01 X-52.1263 Y31.3326 
G01 X-52.1263 Y31.2999 
G01 X-52.1221 Y31.2674 
G01 X-52.1263 Y31.2349 
G01 X-52.1263 Y31.2022 
G01 X-52.1348 Y31.1706 
G01 X-52.1391 Y31.1381 
G01 X-52.1516 Y31.1079 
G01 X-52.1601 Y31.0762 
G01 X-52.1765 Y31.0479 
G01 X-52.1890 Y31.0176 
G01 X-52.2089 Y30.9916 
G01 X-52.2253 Y30.9633 
G01 X-52.2485 Y30.9401 
G01 X-52.2684 Y30.9142 
G01 X-52.2944 Y30.8942 
G01 X-52.3175 Y30.8711 
G01 X-52.3459 Y30.8547 
G01 X-52.3718 Y30.8348 
G01 X-52.4021 Y30.8222 
G01 X-52.4305 Y30.8058 
G01 X-52.4621 Y30.7974 
G01 X-52.4923 Y30.7848 
G01 X-52.5248 Y30.7806 
G01 X-52.5564 Y30.7721 
G01 X-52.5892 Y30.7721 
G01 X-52.6216 Y30.7678 
G01 X-52.6541 Y30.7721 
G01 X-59.8010 Y30.7721 
G01 X-59.9270 Y30.8058 
G01 X-60.0399 Y30.8711 
G01 X-60.1322 Y30.9633 
G01 X-69.4589 Y40.2901 
G01 X-69.5241 Y40.4030 
G01 X-69.5579 Y40.5290 
G01 X-69.5579 Y44.4210 
G01 X-69.5622 Y44.4534 
G01 X-69.5579 Y44.4859 
G01 X-69.5579 Y44.5186 
G01 X-69.5494 Y44.5503 
G01 X-69.5451 Y44.5827 
G01 X-69.5326 Y44.6130 
G01 X-69.5241 Y44.6446 
G01 X-69.5078 Y44.6730 
G01 X-69.4952 Y44.7032 
G01 X-69.4753 Y44.7292 
G01 X-69.4589 Y44.7575 
G01 X-69.4358 Y44.7807 
G01 X-69.4158 Y44.8067 
G01 X-69.3899 Y44.8266 
G01 X-69.3667 Y44.8498 
G01 X-69.3384 Y44.8661 
G01 X-69.3124 Y44.8861 
G01 X-69.2821 Y44.8986 
G01 X-69.2538 Y44.9150 
G01 X-69.2222 Y44.9234 
G01 X-69.1919 Y44.9360 
G01 X-69.1594 Y44.9402 
G01 X-69.1278 Y44.9487 
G01 X-69.0951 Y44.9487 
G01 X-69.0626 Y44.9530 
G01 X-69.0301 Y44.9487 
G01 X-68.9974 Y44.9487 
G01 X-68.9658 Y44.9402 
G01 X-68.9333 Y44.9360 
G01 X-68.9031 Y44.9234 
G01 X-68.8714 Y44.9150 
G01 X-68.8431 Y44.8986 
G01 X-68.4652 Y44.7421 
G01 X-67.9347 Y44.7421 
G01 X-67.4446 Y44.9451 
G01 X-67.3263 Y45.0634 
G01 X-67.2367 Y45.1531 
G01 X-67.2341 Y45.1556 
G01 X-67.1212 Y45.2208 
G01 X-67.0304 Y45.2452 
G01 X-66.9952 Y45.2546 
G01 X-66.8648 Y45.2546 
G01 X-66.7388 Y45.2208 
G01 X-66.6259 Y45.1556 
G01 X-66.5351 Y45.0648 
G01 X-66.4154 Y44.9451 
G01 X-65.9252 Y44.7421 
G01 X-65.3947 Y44.7421 
G01 X-64.9046 Y44.9451 
G01 X-64.5295 Y45.3202 
G01 X-64.3265 Y45.8103 
G01 X-64.3265 Y48.1696 
G01 X-64.5295 Y48.6598 
G01 X-64.9046 Y49.0349 
G01 X-65.3947 Y49.2379 
G01 X-65.9252 Y49.2379 
G01 X-66.4154 Y49.0349 
G01 X-66.6259 Y48.8244 
G01 X-66.7388 Y48.7592 
G01 X-66.8648 Y48.7254 
G01 X-66.9952 Y48.7254 
G01 X-67.0275 Y48.7341 
G01 X-67.1212 Y48.7592 
G01 X-67.2341 Y48.8244 
G01 X-67.3263 Y48.9166 
G01 X-67.4446 Y49.0349 
G01 X-67.9347 Y49.2379 
G01 X-68.4652 Y49.2379 
G01 X-68.9554 Y49.0349 
G01 X-69.1659 Y48.8244 
G01 X-69.2788 Y48.7592 
G01 X-69.4048 Y48.7254 
G01 X-69.5352 Y48.7254 
G01 X-69.5675 Y48.7341 
G01 X-69.6612 Y48.7592 
G01 X-69.7741 Y48.8244 
G01 X-69.8663 Y48.9166 
G01 X-69.9846 Y49.0349 
G01 X-70.4747 Y49.2379 
G01 X-71.0052 Y49.2379 
G01 X-71.4954 Y49.0349 
G01 X-71.7059 Y48.8244 
G01 X-71.8188 Y48.7592 
G01 X-71.9448 Y48.7254 
G01 X-72.0752 Y48.7254 
G01 X-72.1075 Y48.7341 
G01 X-72.2012 Y48.7592 
G01 X-72.3141 Y48.8244 
G01 X-72.4063 Y48.9166 
G01 X-72.5246 Y49.0349 
G01 X-73.0147 Y49.2379 
G01 X-73.5452 Y49.2379 
G01 X-74.0354 Y49.0349 
G01 X-74.0935 Y48.9768 
G01 X-74.1223 Y48.9601 
G01 X-74.2064 Y48.9116 
G01 X-74.2297 Y48.9053 
G01 X-74.3324 Y48.8778 
G01 X-74.4628 Y48.8778 
G01 X-74.5626 Y48.9046 
G01 X-74.5888 Y48.9116 
G01 X-74.7017 Y48.9768 
G01 X-74.7471 Y49.0222 
G01 X-74.7939 Y49.0690 
G01 X-74.8106 Y49.0978 
G01 X-74.8591 Y49.1819 
G01 X-74.8654 Y49.2052 
G01 X-74.8929 Y49.3079 
G01 X-74.8929 Y50.0210 
G01 X-74.8591 Y50.1470 
G01 X-74.7939 Y50.2599 
G01 X-74.7017 Y50.3522 
G01 X-72.7399 Y52.3139 
G01 X-72.6270 Y52.3791 
G01 X-72.5010 Y52.4129 
G01 X-66.4906 Y52.4129 
G01 X-66.1498 Y52.5540 
G01 X-63.6334 Y55.0705 
G01 X-63.3490 Y55.3548 
G01 X-63.2079 Y55.6956 
G01 X-63.2079 Y61.7794 
G01 X-63.3490 Y62.1202 
G01 X-63.7256 Y62.4967 
G01 X-65.2305 Y64.0016 
G01 X-65.5148 Y64.2860 
G01 X-65.8556 Y64.4271 
G01 X-73.2328 Y64.4271 
G01 X-73.2652 Y64.4228 
G01 X-73.2977 Y64.4271 
G01 X-73.3304 Y64.4271 
G01 X-73.3621 Y64.4356 
G01 X-73.3945 Y64.4398 
G01 X-73.4248 Y64.4524 
G01 X-73.4564 Y64.4608 
G01 X-73.4848 Y64.4772 
G01 X-73.5150 Y64.4898 
G01 X-73.5410 Y64.5097 
G01 X-73.5693 Y64.5261 
G01 X-73.5925 Y64.5492 
G01 X-73.6185 Y64.5691 
G01 X-73.6384 Y64.5951 
G01 X-73.6616 Y64.6183 
G01 X-73.6779 Y64.6466 
G01 X-73.6979 Y64.6726 
G01 X-73.7104 Y64.7028 
G01 X-73.7268 Y64.7312 
G01 X-73.7298 Y64.7425 
G01 X-73.8426 Y64.8553 
G01 X-73.9966 Y64.9191 
G01 X-75.7634 Y64.9191 
G01 X-75.9174 Y64.8553 
G01 X-75.9291 Y64.8436 
G01 X-75.9759 Y64.7968 
G01 X-76.0888 Y64.7316 
G01 X-76.1121 Y64.7254 
G01 X-76.2148 Y64.6979 
G01 X-76.3452 Y64.6979 
G01 X-76.4450 Y64.7246 
G01 X-76.4712 Y64.7316 
G01 X-76.5524 Y64.7785 
G01 X-76.5841 Y64.7968 
G01 X-76.6413 Y64.8540 
G01 X-76.7966 Y64.9191 
G01 X-78.5634 Y64.9191 
G01 X-78.7174 Y64.8553 
G01 X-78.8353 Y64.7374 
G01 X-78.8991 Y64.5834 
G01 X-78.8991 Y62.4166 
G01 X-78.8353 Y62.2626 
G01 X-78.7095 Y62.1368 
G01 X-78.6967 Y62.1269 
G01 X-78.6683 Y62.1106 
G01 X-78.6451 Y62.0874 
G01 X-78.6192 Y62.0675 
G01 X-78.5992 Y62.0415 
G01 X-78.5761 Y62.0183 
G01 X-78.5597 Y61.9900 
G01 X-78.5398 Y61.9641 
G01 X-78.5272 Y61.9338 
G01 X-78.5109 Y61.9054 
G01 X-78.5024 Y61.8738 
G01 X-78.4899 Y61.8436 
G01 X-78.4856 Y61.8111 
G01 X-78.4771 Y61.7794 
G01 X-78.4771 Y61.7467 
G01 X-78.4728 Y61.7143 
G01 X-78.4771 Y61.6818 
G01 X-78.4771 Y61.0472 
G01 X-78.5109 Y60.9212 
G01 X-78.5761 Y60.8083 
G01 X-78.6683 Y60.7161 
G01 X-78.7812 Y60.6508 
G01 X-78.9072 Y60.6171 
G01 X-79.5594 Y60.6171 
G01 X-79.9002 Y60.4760 
G01 X-87.4966 Y52.8795 
G01 X-87.7810 Y52.5952 
G01 X-87.9221 Y52.2544 
G01 X-87.9221 Y39.8206 
G01 X-87.7810 Y39.4798 
G01 X-79.1311 Y30.8299 
G01 X-79.0658 Y30.7170 
G01 X-79.0321 Y30.5910 
G01 X-79.0321 Y30.4606 
G01 X-79.0321 Y26.3981 
G01 X-79.0658 Y26.2721 
G01 X-79.1311 Y26.1592 
G01 X-79.2233 Y26.0670 
G01 X-79.3259 Y25.9644 
G01 X-79.4388 Y25.8992 
G01 X-79.5648 Y25.8654 
G01 X-79.6952 Y25.8654 
G01 X-79.7275 Y25.8741 
G01 X-79.8212 Y25.8992 
G01 X-79.9341 Y25.9644 
G01 X-80.0263 Y26.0566 
G01 X-80.1446 Y26.1749 
G01 X-80.6347 Y26.3779 
G01 X-81.1653 Y26.3779 
G01 X-81.6554 Y26.1749 
G01 X-81.8659 Y25.9644 
G01 X-81.9788 Y25.8992 
G01 X-82.1048 Y25.8654 
G01 X-82.2352 Y25.8654 
G01 X-82.2675 Y25.8741 
G01 X-82.3612 Y25.8992 
G01 X-82.4741 Y25.9644 
G01 X-82.5663 Y26.0566 
G01 X-82.6846 Y26.1749 
G01 X-83.1747 Y26.3779 
G01 X-83.7052 Y26.3779 
G01 X-84.1954 Y26.1749 
G01 X-84.5705 Y25.7998 
G01 X-84.7735 Y25.3096 
G01 X-84.7735 Y24.6276 
G01 X-84.8072 Y24.5016 
G01 X-84.8725 Y24.3886 
G01 X-84.9647 Y24.2964 
G01 X-89.4016 Y19.8595 
G01 X-89.6860 Y19.5752 
G01 X-89.8271 Y19.2344 
G01 X-89.8271 Y11.8806 
G01 X-89.6860 Y11.5398 
G01 X-87.8967 Y9.7506 
G01 X-87.8045 Y9.6584 
G01 X-87.5202 Y9.3740 
G01 X-87.1794 Y9.2329 
G01 X-18.2306 Y9.2329 
G01 X-17.8898 Y9.3740 
G00 Z2.5400 
G00 X-17.9514 Y9.7795 
G01 Z-0.1778 F100.00 
G01 X-18.0345 Y9.6964 F100.00 
G01 X-18.1323 Y9.6310 
G01 X-18.2409 Y9.5860 
G01 X-18.3562 Y9.5631 
G01 X-87.0538 Y9.5631 
G01 X-87.1691 Y9.5860 
G01 X-87.2777 Y9.6310 
G01 X-87.3755 Y9.6964 
G01 X-87.4586 Y9.7795 
G01 X-89.3636 Y11.6845 
G01 X-89.4290 Y11.7823 
G01 X-89.4740 Y11.8909 
G01 X-89.4969 Y12.0062 
G01 X-89.4969 Y19.1088 
G01 X-89.4740 Y19.2241 
G01 X-89.4290 Y19.3327 
G01 X-89.3636 Y19.4305 
G01 X-89.2805 Y19.5136 
G01 X-84.4433 Y24.3508 
G01 X-84.4433 Y25.1432 
G01 X-84.4047 Y25.3371 
G01 X-84.3291 Y25.5196 
G01 X-84.2193 Y25.6840 
G01 X-84.0796 Y25.8237 
G01 X-83.9152 Y25.9335 
G01 X-83.7327 Y26.0091 
G01 X-83.5388 Y26.0477 
G01 X-83.3412 Y26.0477 
G01 X-83.1473 Y26.0091 
G01 X-82.9648 Y25.9335 
G01 X-82.8004 Y25.8237 
G01 X-82.6607 Y25.6840 
G01 X-82.5509 Y25.5196 
G01 X-82.4753 Y25.3371 
G01 X-82.4367 Y25.1432 
G01 X-82.4367 Y23.1168 
G01 X-82.4753 Y22.9229 
G01 X-82.5509 Y22.7404 
G01 X-82.6607 Y22.5760 
G01 X-82.8004 Y22.4363 
G01 X-82.9648 Y22.3265 
G01 X-83.1473 Y22.2509 
G01 X-83.3412 Y22.2123 
G01 X-83.5388 Y22.2123 
G01 X-83.7327 Y22.2509 
G01 X-83.9152 Y22.3265 
G01 X-84.0796 Y22.4363 
G01 X-84.2193 Y22.5760 
G01 X-84.3291 Y22.7404 
G01 X-84.3398 Y22.7661 
G01 X-88.3031 Y18.8028 
G01 X-88.3031 Y12.3122 
G01 X-86.7478 Y10.7569 
G01 X-50.4122 Y10.7569 
G01 X-46.9519 Y14.2172 
G01 X-46.9519 Y17.6911 
G01 X-47.0427 Y17.6911 
G01 X-47.0754 Y17.7046 
G01 X-47.1004 Y17.7296 
G01 X-47.1139 Y17.7623 
G01 X-47.1139 Y20.4977 
G01 X-47.1004 Y20.5304 
G01 X-47.0754 Y20.5554 
G01 X-47.0427 Y20.5689 
G01 X-45.4073 Y20.5689 
G01 X-45.3746 Y20.5554 
G01 X-45.3496 Y20.5304 
G01 X-45.3361 Y20.4977 
G01 X-45.3361 Y19.6469 
G01 X-42.7922 Y19.6469 
G01 X-39.9669 Y22.4722 
G01 X-39.9669 Y25.4362 
G01 X-39.9440 Y25.5515 
G01 X-39.8990 Y25.6601 
G01 X-39.8559 Y25.7246 
G01 X-39.8559 Y26.2684 
G01 X-39.8291 Y26.4033 
G01 X-39.7764 Y26.5305 
G01 X-39.7000 Y26.6449 
G01 X-39.6027 Y26.7422 
G01 X-39.4883 Y26.8186 
G01 X-39.3611 Y26.8713 
G01 X-39.2262 Y26.8981 
G01 X-39.0886 Y26.8981 
G01 X-38.9537 Y26.8713 
G01 X-38.8265 Y26.8186 
G01 X-38.7121 Y26.7422 
G01 X-38.6148 Y26.6449 
G01 X-38.5384 Y26.5305 
G01 X-38.4857 Y26.4033 
G01 X-38.4589 Y26.2684 
G01 X-38.4589 Y24.9116 
G01 X-38.4857 Y24.7767 
G01 X-38.5384 Y24.6495 
G01 X-38.6148 Y24.5351 
G01 X-38.7121 Y24.4378 
G01 X-38.7731 Y24.3971 
G01 X-38.7731 Y22.1662 
G01 X-38.7960 Y22.0509 
G01 X-38.8410 Y21.9423 
G01 X-38.9064 Y21.8445 
G01 X-38.9895 Y21.7614 
G01 X-42.1645 Y18.5864 
G01 X-42.2623 Y18.5210 
G01 X-42.3709 Y18.4760 
G01 X-42.4862 Y18.4531 
G01 X-45.3361 Y18.4531 
G01 X-45.3361 Y17.7623 
G01 X-45.3496 Y17.7296 
G01 X-45.3746 Y17.7046 
G01 X-45.4073 Y17.6911 
G01 X-45.7581 Y17.6911 
G01 X-45.7581 Y13.9112 
G01 X-45.7810 Y13.7959 
G01 X-45.8260 Y13.6873 
G01 X-45.8914 Y13.5895 
G01 X-45.9745 Y13.5064 
G01 X-48.7240 Y10.7569 
G01 X-18.6622 Y10.7569 
G01 X-12.0269 Y17.3922 
G01 X-12.0269 Y24.1888 
G01 X-12.0040 Y24.3041 
G01 X-11.9590 Y24.4127 
G01 X-11.8936 Y24.5105 
G01 X-9.9886 Y26.4155 
G01 X-9.9055 Y26.4986 
G01 X-9.8077 Y26.5640 
G01 X-9.6991 Y26.6090 
G01 X-9.5838 Y26.6319 
G01 X-8.3535 Y26.6319 
G01 X-8.2894 Y26.6959 
G01 X-8.1501 Y26.7891 
G01 X-7.9952 Y26.8532 
G01 X-7.8308 Y26.8859 
G01 X-7.5819 Y26.8859 
G01 X-7.5819 Y27.7241 
G01 X-7.8308 Y27.7241 
G01 X-7.9952 Y27.7568 
G01 X-8.1501 Y27.8209 
G01 X-8.2894 Y27.9141 
G01 X-8.4079 Y28.0326 
G01 X-8.5011 Y28.1719 
G01 X-8.5652 Y28.3268 
G01 X-8.5979 Y28.4912 
G01 X-8.5979 Y28.6588 
G01 X-8.5652 Y28.8232 
G01 X-8.5011 Y28.9780 
G01 X-8.4079 Y29.1174 
G01 X-8.2894 Y29.2359 
G01 X-8.1501 Y29.3291 
G01 X-7.9952 Y29.3932 
G01 X-7.8308 Y29.4259 
G01 X-7.5819 Y29.4259 
G01 X-7.5819 Y30.2641 
G01 X-7.8308 Y30.2641 
G01 X-7.9952 Y30.2968 
G01 X-8.1501 Y30.3609 
G01 X-8.2894 Y30.4541 
G01 X-8.4079 Y30.5726 
G01 X-8.5011 Y30.7119 
G01 X-8.5652 Y30.8668 
G01 X-8.5979 Y31.0312 
G01 X-8.5979 Y31.1988 
G01 X-8.5652 Y31.3632 
G01 X-8.5011 Y31.5180 
G01 X-8.4079 Y31.6574 
G01 X-8.2894 Y31.7759 
G01 X-8.1501 Y31.8691 
G01 X-7.9952 Y31.9332 
G01 X-7.8308 Y31.9659 
G01 X-6.1392 Y31.9659 
G01 X-5.9748 Y31.9332 
G01 X-5.8199 Y31.8691 
G01 X-5.6806 Y31.7759 
G01 X-5.5621 Y31.6574 
G01 X-5.4689 Y31.5180 
G01 X-5.4048 Y31.3632 
G01 X-5.3721 Y31.1988 
G01 X-5.3721 Y31.0312 
G01 X-5.4048 Y30.8668 
G01 X-5.4689 Y30.7119 
G01 X-5.5621 Y30.5726 
G01 X-5.6806 Y30.4541 
G01 X-5.8199 Y30.3609 
G01 X-5.9748 Y30.2968 
G01 X-6.1392 Y30.2641 
G01 X-6.3881 Y30.2641 
G01 X-6.3881 Y29.4259 
G01 X-6.1392 Y29.4259 
G01 X-5.9748 Y29.3932 
G01 X-5.8199 Y29.3291 
G01 X-5.6806 Y29.2359 
G01 X-5.5621 Y29.1174 
G01 X-5.4689 Y28.9780 
G01 X-5.4048 Y28.8232 
G01 X-5.3721 Y28.6588 
G01 X-5.3721 Y28.4912 
G01 X-5.4048 Y28.3268 
G01 X-5.4689 Y28.1719 
G01 X-5.5621 Y28.0326 
G01 X-5.6806 Y27.9141 
G01 X-5.8199 Y27.8209 
G01 X-5.9748 Y27.7568 
G01 X-6.1392 Y27.7241 
G01 X-6.3881 Y27.7241 
G01 X-6.3881 Y26.8859 
G01 X-6.1392 Y26.8859 
G01 X-5.9748 Y26.8532 
G01 X-5.8199 Y26.7891 
G01 X-5.6806 Y26.6959 
G01 X-5.6165 Y26.6319 
G01 X-5.3272 Y26.6319 
G01 X-3.7719 Y28.1872 
G01 X-3.7719 Y56.9028 
G01 X-9.7722 Y62.9031 
G01 X-45.4728 Y62.9031 
G01 X-46.3931 Y61.9828 
G01 X-46.3931 Y61.4139 
G01 X-46.3023 Y61.4139 
G01 X-46.2696 Y61.4004 
G01 X-46.2446 Y61.3754 
G01 X-46.2311 Y61.3427 
G01 X-46.2311 Y59.3073 
G01 X-46.2446 Y59.2746 
G01 X-46.2696 Y59.2496 
G01 X-46.3023 Y59.2361 
G01 X-47.9377 Y59.2361 
G01 X-47.9704 Y59.2496 
G01 X-47.9954 Y59.2746 
G01 X-48.0089 Y59.3073 
G01 X-48.0089 Y61.3427 
G01 X-47.9954 Y61.3754 
G01 X-47.9704 Y61.4004 
G01 X-47.9377 Y61.4139 
G01 X-47.5869 Y61.4139 
G01 X-47.5869 Y62.2888 
G01 X-47.5640 Y62.4041 
G01 X-47.5190 Y62.5127 
G01 X-47.4536 Y62.6105 
G01 X-47.3705 Y62.6936 
G01 X-46.1005 Y63.9636 
G01 X-46.0027 Y64.0290 
G01 X-45.8941 Y64.0740 
G01 X-45.7788 Y64.0969 
G01 X-9.4662 Y64.0969 
G01 X-9.3509 Y64.0740 
G01 X-9.2423 Y64.0290 
G01 X-9.1445 Y63.9636 
G01 X-9.0614 Y63.8805 
G01 X-2.7114 Y57.5305 
G01 X-2.6460 Y57.4327 
G01 X-2.6010 Y57.3241 
G01 X-2.5781 Y57.2088 
G01 X-2.5781 Y27.8812 
G01 X-2.6010 Y27.7659 
G01 X-2.6460 Y27.6573 
G01 X-2.7114 Y27.5595 
G01 X-2.7945 Y27.4764 
G01 X-4.6995 Y25.5714 
G01 X-4.7973 Y25.5060 
G01 X-4.9059 Y25.4610 
G01 X-5.0212 Y25.4381 
G01 X-5.6165 Y25.4381 
G01 X-5.6806 Y25.3741 
G01 X-5.8199 Y25.2809 
G01 X-5.9748 Y25.2168 
G01 X-6.1392 Y25.1841 
G01 X-6.3881 Y25.1841 
G01 X-6.3881 Y24.3459 
G01 X-6.1392 Y24.3459 
G01 X-5.9748 Y24.3132 
G01 X-5.8199 Y24.2491 
G01 X-5.6806 Y24.1559 
G01 X-5.5621 Y24.0374 
G01 X-5.4689 Y23.8981 
G01 X-5.4048 Y23.7432 
G01 X-5.3721 Y23.5788 
G01 X-5.3721 Y23.4112 
G01 X-5.4048 Y23.2468 
G01 X-5.4689 Y23.0919 
G01 X-5.5621 Y22.9526 
G01 X-5.6806 Y22.8341 
G01 X-5.8199 Y22.7409 
G01 X-5.9748 Y22.6768 
G01 X-6.1392 Y22.6441 
G01 X-7.8308 Y22.6441 
G01 X-7.9952 Y22.6768 
G01 X-8.1501 Y22.7409 
G01 X-8.2894 Y22.8341 
G01 X-8.4079 Y22.9526 
G01 X-8.5011 Y23.0919 
G01 X-8.5652 Y23.2468 
G01 X-8.5979 Y23.4112 
G01 X-8.5979 Y23.5788 
G01 X-8.5652 Y23.7432 
G01 X-8.5011 Y23.8981 
G01 X-8.4079 Y24.0374 
G01 X-8.2894 Y24.1559 
G01 X-8.1501 Y24.2491 
G01 X-7.9952 Y24.3132 
G01 X-7.8308 Y24.3459 
G01 X-7.5819 Y24.3459 
G01 X-7.5819 Y25.1841 
G01 X-7.8308 Y25.1841 
G01 X-7.9952 Y25.2168 
G01 X-8.1501 Y25.2809 
G01 X-8.2894 Y25.3741 
G01 X-8.3535 Y25.4381 
G01 X-9.2778 Y25.4381 
G01 X-10.8331 Y23.8828 
G01 X-10.8331 Y17.0862 
G01 X-10.8560 Y16.9709 
G01 X-10.9010 Y16.8623 
G01 X-10.9664 Y16.7645 
G01 X-11.0495 Y16.6814 
G01 X-17.9514 Y9.7795 
G00 Z2.5400 
G00 X-18.7001 Y11.1861 
G01 Z-0.1778 F100.00 
G01 X-18.8130 Y11.1209 F100.00 
G01 X-18.9390 Y11.0871 
G01 X-46.7962 Y11.0871 
G01 X-46.9222 Y11.1209 
G01 X-47.0351 Y11.1861 
G01 X-47.1274 Y11.2783 
G01 X-47.1926 Y11.3912 
G01 X-47.2263 Y11.5172 
G01 X-47.2263 Y11.6476 
G01 X-47.1926 Y11.7736 
G01 X-47.1274 Y11.8865 
G01 X-47.0351 Y11.9787 
G01 X-45.8534 Y13.1605 
G01 X-45.5690 Y13.4448 
G01 X-45.4279 Y13.7856 
G01 X-45.4279 Y16.9617 
G01 X-45.4322 Y16.9942 
G01 X-45.4279 Y17.0267 
G01 X-45.4279 Y17.0594 
G01 X-45.4194 Y17.0911 
G01 X-45.4151 Y17.1235 
G01 X-45.4026 Y17.1538 
G01 X-45.3941 Y17.1854 
G01 X-45.3778 Y17.2138 
G01 X-45.3652 Y17.2440 
G01 X-45.3453 Y17.2700 
G01 X-45.3289 Y17.2983 
G01 X-45.3058 Y17.3215 
G01 X-45.2858 Y17.3475 
G01 X-45.2599 Y17.3674 
G01 X-45.2367 Y17.3906 
G01 X-45.2084 Y17.4069 
G01 X-45.1955 Y17.4168 
G01 X-45.0697 Y17.5426 
G01 X-45.0030 Y17.7036 
G01 X-44.9721 Y17.8188 
G01 X-44.9069 Y17.9317 
G01 X-44.8147 Y18.0239 
G01 X-44.7018 Y18.0891 
G01 X-44.5758 Y18.1229 
G01 X-42.3606 Y18.1229 
G01 X-42.0198 Y18.2640 
G01 X-38.8684 Y21.4155 
G01 X-38.5840 Y21.6998 
G01 X-38.5098 Y21.8790 
G01 X-38.5013 Y21.9107 
G01 X-38.4850 Y21.9390 
G01 X-38.4724 Y21.9693 
G01 X-38.4525 Y21.9953 
G01 X-38.4361 Y22.0236 
G01 X-38.4130 Y22.0468 
G01 X-38.3931 Y22.0727 
G01 X-38.3671 Y22.0927 
G01 X-38.3439 Y22.1158 
G01 X-38.3156 Y22.1322 
G01 X-38.2896 Y22.1521 
G01 X-38.2593 Y22.1647 
G01 X-38.2310 Y22.1810 
G01 X-38.1993 Y22.1895 
G01 X-38.1691 Y22.2020 
G01 X-38.1366 Y22.2063 
G01 X-38.1050 Y22.2148 
G01 X-38.0723 Y22.2148 
G01 X-38.0398 Y22.2191 
G01 X-38.0073 Y22.2148 
G01 X-37.9746 Y22.2148 
G01 X-37.9430 Y22.2063 
G01 X-37.9105 Y22.2020 
G01 X-37.8802 Y22.1895 
G01 X-37.8486 Y22.1810 
G01 X-37.8203 Y22.1647 
G01 X-37.7900 Y22.1521 
G01 X-37.7640 Y22.1322 
G01 X-37.7357 Y22.1158 
G01 X-37.7125 Y22.0927 
G01 X-37.6865 Y22.0727 
G01 X-37.6666 Y22.0468 
G01 X-37.6435 Y22.0236 
G01 X-37.6271 Y21.9952 
G01 X-37.6072 Y21.9693 
G01 X-37.5946 Y21.9390 
G01 X-37.5782 Y21.9107 
G01 X-37.5698 Y21.8790 
G01 X-37.5572 Y21.8488 
G01 X-37.5530 Y21.8163 
G01 X-37.5445 Y21.7847 
G01 X-37.5445 Y21.7520 
G01 X-37.5402 Y21.7195 
G01 X-37.5445 Y21.6870 
G01 X-37.5445 Y18.1512 
G01 X-37.5402 Y18.1187 
G01 X-37.5445 Y18.0862 
G01 X-37.5445 Y18.0535 
G01 X-37.5530 Y18.0219 
G01 X-37.5572 Y17.9894 
G01 X-37.5698 Y17.9592 
G01 X-37.5782 Y17.9275 
G01 X-37.5946 Y17.8992 
G01 X-37.7571 Y17.5069 
G01 X-37.7571 Y15.5131 
G01 X-37.5773 Y15.0790 
G01 X-37.2450 Y14.7467 
G01 X-36.8109 Y14.5669 
G01 X-36.3411 Y14.5669 
G01 X-35.9070 Y14.7467 
G01 X-35.6101 Y15.0435 
G01 X-35.4972 Y15.1088 
G01 X-35.3712 Y15.1425 
G01 X-35.2408 Y15.1425 
G01 X-35.1148 Y15.1088 
G01 X-35.0510 Y15.0719 
G01 X-35.0019 Y15.0435 
G01 X-34.9097 Y14.9513 
G01 X-34.7050 Y14.7467 
G01 X-34.2709 Y14.5669 
G01 X-33.8011 Y14.5669 
G01 X-33.3670 Y14.7467 
G01 X-33.0701 Y15.0435 
G01 X-32.9572 Y15.1088 
G01 X-32.8312 Y15.1425 
G01 X-32.7008 Y15.1425 
G01 X-32.5748 Y15.1088 
G01 X-32.5110 Y15.0719 
G01 X-32.4619 Y15.0435 
G01 X-32.3697 Y14.9513 
G01 X-32.1650 Y14.7467 
G01 X-31.7309 Y14.5669 
G01 X-31.2611 Y14.5669 
G01 X-30.8270 Y14.7467 
G01 X-30.5301 Y15.0435 
G01 X-30.4172 Y15.1088 
G01 X-30.2912 Y15.1425 
G01 X-30.1608 Y15.1425 
G01 X-30.0348 Y15.1088 
G01 X-29.9710 Y15.0719 
G01 X-29.9219 Y15.0435 
G01 X-29.8297 Y14.9513 
G01 X-29.6250 Y14.7467 
G01 X-29.1909 Y14.5669 
G01 X-28.7211 Y14.5669 
G01 X-28.2870 Y14.7467 
G01 X-27.9901 Y15.0435 
G01 X-27.8772 Y15.1088 
G01 X-27.7512 Y15.1425 
G01 X-27.6208 Y15.1425 
G01 X-27.4948 Y15.1088 
G01 X-27.4310 Y15.0719 
G01 X-27.3819 Y15.0435 
G01 X-27.2897 Y14.9513 
G01 X-27.0850 Y14.7467 
G01 X-26.6509 Y14.5669 
G01 X-26.1811 Y14.5669 
G01 X-25.7470 Y14.7467 
G01 X-25.4501 Y15.0435 
G01 X-25.3372 Y15.1088 
G01 X-25.2112 Y15.1425 
G01 X-25.0808 Y15.1425 
G01 X-24.9548 Y15.1088 
G01 X-24.8910 Y15.0719 
G01 X-24.8419 Y15.0435 
G01 X-24.7497 Y14.9513 
G01 X-24.5450 Y14.7467 
G01 X-24.1109 Y14.5669 
G01 X-23.6411 Y14.5669 
G01 X-23.2070 Y14.7467 
G01 X-22.9101 Y15.0435 
G01 X-22.7972 Y15.1088 
G01 X-22.6712 Y15.1425 
G01 X-22.5408 Y15.1425 
G01 X-22.4148 Y15.1088 
G01 X-22.3510 Y15.0719 
G01 X-22.3019 Y15.0435 
G01 X-22.2097 Y14.9513 
G01 X-22.0050 Y14.7467 
G01 X-21.5709 Y14.5669 
G01 X-21.1011 Y14.5669 
G01 X-20.6670 Y14.7467 
G01 X-20.3701 Y15.0435 
G01 X-20.2572 Y15.1088 
G01 X-20.1312 Y15.1425 
G01 X-20.0008 Y15.1425 
G01 X-19.8748 Y15.1088 
G01 X-19.8110 Y15.0719 
G01 X-19.7619 Y15.0435 
G01 X-19.6697 Y14.9513 
G01 X-19.4650 Y14.7467 
G01 X-19.0309 Y14.5669 
G01 X-18.5611 Y14.5669 
G01 X-18.1270 Y14.7467 
G01 X-17.7947 Y15.0790 
G01 X-17.6149 Y15.5131 
G01 X-17.6149 Y17.5069 
G01 X-17.7947 Y17.9410 
G01 X-17.8113 Y17.9576 
G01 X-17.8568 Y18.0364 
G01 X-17.8765 Y18.0706 
G01 X-17.8998 Y18.1576 
G01 X-17.9103 Y18.1966 
G01 X-17.9103 Y18.2610 
G01 X-17.9103 Y18.3270 
G01 X-17.9103 Y24.3995 
G01 X-17.9146 Y24.4320 
G01 X-17.9103 Y24.4644 
G01 X-17.9103 Y24.4972 
G01 X-17.9018 Y24.5288 
G01 X-17.8975 Y24.5613 
G01 X-17.8850 Y24.5915 
G01 X-17.8765 Y24.6231 
G01 X-17.8602 Y24.6515 
G01 X-17.8087 Y24.7758 
G01 X-17.8087 Y26.4042 
G01 X-17.9653 Y26.7823 
G01 X-18.2547 Y27.0717 
G01 X-18.6328 Y27.2283 
G01 X-19.0420 Y27.2283 
G01 X-19.4201 Y27.0717 
G01 X-19.7111 Y26.7807 
G01 X-19.7955 Y26.6963 
G01 X-19.8033 Y26.6885 
G01 X-19.9128 Y26.6253 
G01 X-19.9162 Y26.6233 
G01 X-20.0422 Y26.5896 
G01 X-20.1726 Y26.5896 
G01 X-20.1780 Y26.5910 
G01 X-20.2986 Y26.6233 
G01 X-20.4090 Y26.6871 
G01 X-20.5037 Y26.7807 
G01 X-20.7947 Y27.0717 
G01 X-21.1728 Y27.2283 
G01 X-21.5820 Y27.2283 
G01 X-21.9601 Y27.0717 
G01 X-22.2511 Y26.7807 
G01 X-22.3355 Y26.6963 
G01 X-22.3433 Y26.6885 
G01 X-22.4528 Y26.6253 
G01 X-22.4562 Y26.6233 
G01 X-22.5822 Y26.5896 
G01 X-22.7126 Y26.5896 
G01 X-22.7180 Y26.5910 
G01 X-22.8386 Y26.6233 
G01 X-22.9490 Y26.6871 
G01 X-23.0437 Y26.7807 
G01 X-23.3347 Y27.0717 
G01 X-23.7128 Y27.2283 
G01 X-24.1220 Y27.2283 
G01 X-24.5001 Y27.0717 
G01 X-24.7911 Y26.7807 
G01 X-24.8755 Y26.6963 
G01 X-24.8833 Y26.6885 
G01 X-24.9928 Y26.6253 
G01 X-24.9962 Y26.6233 
G01 X-25.1222 Y26.5896 
G01 X-25.2526 Y26.5896 
G01 X-25.2580 Y26.5910 
G01 X-25.3786 Y26.6233 
G01 X-25.4890 Y26.6871 
G01 X-25.5837 Y26.7807 
G01 X-25.8747 Y27.0717 
G01 X-26.2528 Y27.2283 
G01 X-26.6620 Y27.2283 
G01 X-27.0401 Y27.0717 
G01 X-27.3311 Y26.7807 
G01 X-27.4155 Y26.6963 
G01 X-27.4233 Y26.6885 
G01 X-27.5328 Y26.6253 
G01 X-27.5362 Y26.6233 
G01 X-27.6622 Y26.5896 
G01 X-27.7926 Y26.5896 
G01 X-27.7980 Y26.5910 
G01 X-27.9186 Y26.6233 
G01 X-28.0290 Y26.6871 
G01 X-28.1237 Y26.7807 
G01 X-28.4147 Y27.0717 
G01 X-28.7928 Y27.2283 
G01 X-29.2020 Y27.2283 
G01 X-29.5801 Y27.0717 
G01 X-29.8711 Y26.7807 
G01 X-29.9555 Y26.6963 
G01 X-29.9633 Y26.6885 
G01 X-30.0728 Y26.6253 
G01 X-30.0762 Y26.6233 
G01 X-30.2022 Y26.5896 
G01 X-30.3326 Y26.5896 
G01 X-30.3380 Y26.5910 
G01 X-30.4586 Y26.6233 
G01 X-30.5690 Y26.6871 
G01 X-30.6637 Y26.7807 
G01 X-30.9547 Y27.0717 
G01 X-31.3328 Y27.2283 
G01 X-31.7420 Y27.2283 
G01 X-32.1201 Y27.0717 
G01 X-32.4111 Y26.7807 
G01 X-32.4955 Y26.6963 
G01 X-32.5033 Y26.6885 
G01 X-32.6128 Y26.6253 
G01 X-32.6162 Y26.6233 
G01 X-32.7422 Y26.5896 
G01 X-32.8726 Y26.5896 
G01 X-32.8780 Y26.5910 
G01 X-32.9986 Y26.6233 
G01 X-33.1090 Y26.6871 
G01 X-33.2037 Y26.7807 
G01 X-33.4947 Y27.0717 
G01 X-33.8728 Y27.2283 
G01 X-34.2820 Y27.2283 
G01 X-34.6601 Y27.0717 
G01 X-34.9511 Y26.7807 
G01 X-35.0355 Y26.6963 
G01 X-35.0433 Y26.6885 
G01 X-35.1528 Y26.6253 
G01 X-35.1562 Y26.6233 
G01 X-35.2822 Y26.5896 
G01 X-35.4126 Y26.5896 
G01 X-35.4180 Y26.5910 
G01 X-35.5386 Y26.6233 
G01 X-35.6490 Y26.6871 
G01 X-35.7437 Y26.7807 
G01 X-36.0347 Y27.0717 
G01 X-36.4128 Y27.2283 
G01 X-36.8220 Y27.2283 
G01 X-37.2001 Y27.0717 
G01 X-37.4911 Y26.7807 
G01 X-37.5755 Y26.6963 
G01 X-37.5833 Y26.6885 
G01 X-37.6928 Y26.6253 
G01 X-37.6962 Y26.6233 
G01 X-37.8222 Y26.5896 
G01 X-37.9526 Y26.5896 
G01 X-37.9580 Y26.5910 
G01 X-38.0786 Y26.6233 
G01 X-38.1890 Y26.6871 
G01 X-38.2837 Y26.7807 
G01 X-38.5747 Y27.0717 
G01 X-38.9528 Y27.2283 
G01 X-39.3620 Y27.2283 
G01 X-39.7401 Y27.0717 
G01 X-40.0295 Y26.7823 
G01 X-40.1021 Y26.6071 
G01 X-40.1162 Y26.5636 
G01 X-40.1269 Y26.5471 
G01 X-40.1345 Y26.5289 
G01 X-40.1623 Y26.4926 
G01 X-40.1872 Y26.4542 
G01 X-40.2019 Y26.4410 
G01 X-40.2138 Y26.4254 
G01 X-40.2502 Y26.3976 
G01 X-40.2841 Y26.3670 
G01 X-40.3017 Y26.3580 
G01 X-40.3173 Y26.3460 
G01 X-40.3596 Y26.3285 
G01 X-40.4003 Y26.3078 
G01 X-40.4196 Y26.3037 
G01 X-40.4378 Y26.2961 
G01 X-40.4832 Y26.2902 
G01 X-40.5279 Y26.2806 
G01 X-40.5476 Y26.2817 
G01 X-40.5671 Y26.2791 
G01 X-40.6125 Y26.2851 
G01 X-40.6581 Y26.2875 
G01 X-40.6769 Y26.2935 
G01 X-40.6964 Y26.2961 
G01 X-40.7387 Y26.3136 
G01 X-40.7822 Y26.3278 
G01 X-40.7987 Y26.3385 
G01 X-40.8169 Y26.3460 
G01 X-40.8532 Y26.3739 
G01 X-40.8916 Y26.3988 
G01 X-40.9047 Y26.4134 
G01 X-40.9203 Y26.4254 
G01 X-40.9482 Y26.4617 
G01 X-40.9788 Y26.4957 
G01 X-40.9877 Y26.5133 
G01 X-40.9997 Y26.5289 
G01 X-41.0173 Y26.5712 
G01 X-41.0348 Y26.6056 
G01 X-41.1065 Y26.7043 
G01 X-41.1927 Y26.7905 
G01 X-41.2021 Y26.7973 
G01 X-41.2021 Y26.6921 
G01 X-41.1548 Y26.6449 
G01 X-41.0784 Y26.5305 
G01 X-41.0257 Y26.4033 
G01 X-40.9989 Y26.2684 
G01 X-40.9989 Y24.9116 
G01 X-41.0257 Y24.7767 
G01 X-41.0784 Y24.6495 
G01 X-41.1548 Y24.5351 
G01 X-41.2021 Y24.4879 
G01 X-41.2021 Y24.3827 
G01 X-41.1927 Y24.3895 
G01 X-41.1887 Y24.3935 
G01 X-41.1828 Y24.3994 
G01 X-41.0965 Y24.4857 
G01 X-41.0677 Y24.5023 
G01 X-40.9836 Y24.5509 
G01 X-40.9603 Y24.5571 
G01 X-40.8576 Y24.5846 
G01 X-40.7272 Y24.5846 
G01 X-40.6274 Y24.5579 
G01 X-40.6012 Y24.5509 
G01 X-40.5497 Y24.5212 
G01 X-40.4883 Y24.4857 
G01 X-40.3961 Y24.3935 
G01 X-40.3794 Y24.3647 
G01 X-40.3309 Y24.2805 
G01 X-40.3246 Y24.2573 
G01 X-40.2971 Y24.1546 
G01 X-40.2971 Y22.7490 
G01 X-40.3308 Y22.6230 
G01 X-40.3961 Y22.5101 
G01 X-40.4883 Y22.4178 
G01 X-42.8301 Y20.0761 
G01 X-42.9430 Y20.0109 
G01 X-43.0690 Y19.9771 
G01 X-44.5758 Y19.9771 
G01 X-44.7018 Y20.0109 
G01 X-44.8147 Y20.0761 
G01 X-44.9069 Y20.1683 
G01 X-44.9721 Y20.2812 
G01 X-45.0059 Y20.4072 
G01 X-45.0059 Y20.5634 
G01 X-45.0697 Y20.7174 
G01 X-45.1876 Y20.8353 
G01 X-45.3416 Y20.8991 
G01 X-47.1084 Y20.8991 
G01 X-47.2624 Y20.8353 
G01 X-47.4016 Y20.6961 
G01 X-47.4068 Y20.6871 
G01 X-47.4245 Y20.6695 
G01 X-47.4284 Y20.6636 
G01 X-47.4340 Y20.6587 
G01 X-47.4495 Y20.6385 
G01 X-47.4757 Y20.6184 
G01 X-47.4992 Y20.5950 
G01 X-47.5209 Y20.5825 
G01 X-47.5265 Y20.5776 
G01 X-47.5331 Y20.5743 
G01 X-47.5529 Y20.5591 
G01 X-47.5835 Y20.5464 
G01 X-47.6122 Y20.5299 
G01 X-47.6360 Y20.5236 
G01 X-47.6434 Y20.5199 
G01 X-47.6513 Y20.5183 
G01 X-47.6734 Y20.5092 
G01 X-47.7062 Y20.5049 
G01 X-47.7382 Y20.4963 
G01 X-47.7618 Y20.4964 
G01 X-47.7714 Y20.4945 
G01 X-47.7805 Y20.4951 
G01 X-47.8027 Y20.4921 
G01 X-47.8355 Y20.4965 
G01 X-47.8686 Y20.4965 
G01 X-47.8899 Y20.5022 
G01 X-47.9015 Y20.5030 
G01 X-47.9118 Y20.5065 
G01 X-47.9320 Y20.5091 
G01 X-47.9626 Y20.5218 
G01 X-47.9945 Y20.5304 
G01 X-48.0119 Y20.5405 
G01 X-48.0250 Y20.5449 
G01 X-48.0357 Y20.5521 
G01 X-48.0525 Y20.5590 
G01 X-48.0788 Y20.5792 
G01 X-48.1074 Y20.5958 
G01 X-48.1200 Y20.6084 
G01 X-48.1468 Y20.6263 
G01 X-48.1768 Y20.6388 
G01 X-48.2087 Y20.6451 
G01 X-48.5297 Y20.6451 
G01 X-48.5297 Y20.5689 
G01 X-48.2073 Y20.5689 
G01 X-48.1746 Y20.5554 
G01 X-48.1496 Y20.5304 
G01 X-48.1361 Y20.4977 
G01 X-48.1361 Y17.7623 
G01 X-48.1496 Y17.7296 
G01 X-48.1746 Y17.7046 
G01 X-48.2073 Y17.6911 
G01 X-48.5297 Y17.6911 
G01 X-48.5297 Y17.6149 
G01 X-48.2087 Y17.6149 
G01 X-48.1768 Y17.6212 
G01 X-48.1468 Y17.6337 
G01 X-48.1200 Y17.6516 
G01 X-48.1074 Y17.6642 
G01 X-48.0788 Y17.6808 
G01 X-48.0525 Y17.7010 
G01 X-48.0357 Y17.7079 
G01 X-48.0250 Y17.7151 
G01 X-48.0119 Y17.7195 
G01 X-47.9945 Y17.7296 
G01 X-47.9626 Y17.7382 
G01 X-47.9320 Y17.7509 
G01 X-47.9118 Y17.7535 
G01 X-47.9015 Y17.7570 
G01 X-47.8899 Y17.7578 
G01 X-47.8686 Y17.7635 
G01 X-47.8355 Y17.7635 
G01 X-47.8027 Y17.7679 
G01 X-47.7805 Y17.7649 
G01 X-47.7714 Y17.7655 
G01 X-47.7618 Y17.7636 
G01 X-47.7382 Y17.7637 
G01 X-47.7062 Y17.7551 
G01 X-47.6734 Y17.7508 
G01 X-47.6513 Y17.7417 
G01 X-47.6434 Y17.7401 
G01 X-47.6360 Y17.7364 
G01 X-47.6122 Y17.7301 
G01 X-47.5835 Y17.7136 
G01 X-47.5529 Y17.7009 
G01 X-47.5331 Y17.6857 
G01 X-47.5265 Y17.6824 
G01 X-47.5209 Y17.6775 
G01 X-47.4992 Y17.6650 
G01 X-47.4757 Y17.6416 
G01 X-47.4495 Y17.6215 
G01 X-47.4340 Y17.6013 
G01 X-47.4284 Y17.5964 
G01 X-47.4245 Y17.5905 
G01 X-47.4068 Y17.5729 
G01 X-47.4016 Y17.5639 
G01 X-47.3811 Y17.5434 
G01 X-47.3158 Y17.4304 
G01 X-47.2821 Y17.3044 
G01 X-47.2821 Y14.4940 
G01 X-47.3158 Y14.3680 
G01 X-47.3811 Y14.2551 
G01 X-47.4733 Y14.1628 
G01 X-50.4501 Y11.1861 
G01 X-50.5630 Y11.1209 
G01 X-50.6890 Y11.0871 
G01 X-86.4710 Y11.0871 
G01 X-86.5970 Y11.1209 
G01 X-86.7099 Y11.1861 
G01 X-86.8022 Y11.2783 
G01 X-87.8739 Y12.3501 
G01 X-87.9391 Y12.4630 
G01 X-87.9729 Y12.5890 
G01 X-87.9729 Y18.5260 
G01 X-87.9391 Y18.6520 
G01 X-87.8739 Y18.7649 
G01 X-87.8235 Y18.8154 
G01 X-84.7058 Y21.9331 
G01 X-84.6858 Y21.9591 
G01 X-84.6599 Y21.9790 
G01 X-84.6367 Y22.0022 
G01 X-84.6083 Y22.0186 
G01 X-84.5824 Y22.0385 
G01 X-84.5521 Y22.0510 
G01 X-84.5238 Y22.0674 
G01 X-84.4921 Y22.0759 
G01 X-84.4619 Y22.0884 
G01 X-84.4294 Y22.0927 
G01 X-84.3978 Y22.1011 
G01 X-84.3650 Y22.1011 
G01 X-84.3326 Y22.1054 
G01 X-84.3001 Y22.1011 
G01 X-84.2674 Y22.1011 
G01 X-84.2357 Y22.0927 
G01 X-84.2033 Y22.0884 
G01 X-84.1730 Y22.0759 
G01 X-84.1414 Y22.0674 
G01 X-84.1130 Y22.0510 
G01 X-83.7052 Y21.8821 
G01 X-83.1747 Y21.8821 
G01 X-82.9262 Y21.9850 
G01 X-82.8979 Y22.0014 
G01 X-82.8663 Y22.0099 
G01 X-82.8360 Y22.0224 
G01 X-82.8035 Y22.0267 
G01 X-82.7719 Y22.0352 
G01 X-82.7392 Y22.0352 
G01 X-82.7067 Y22.0394 
G01 X-82.6742 Y22.0352 
G01 X-82.6415 Y22.0352 
G01 X-82.6099 Y22.0267 
G01 X-82.5774 Y22.0224 
G01 X-82.5472 Y22.0099 
G01 X-82.5155 Y22.0014 
G01 X-82.4872 Y21.9850 
G01 X-82.4569 Y21.9725 
G01 X-82.4309 Y21.9526 
G01 X-82.4026 Y21.9362 
G01 X-82.3794 Y21.9130 
G01 X-82.3535 Y21.8931 
G01 X-82.3335 Y21.8671 
G01 X-82.3104 Y21.8440 
G01 X-82.2940 Y21.8156 
G01 X-82.2741 Y21.7897 
G01 X-82.2615 Y21.7594 
G01 X-82.2452 Y21.7310 
G01 X-82.2367 Y21.6994 
G01 X-82.2242 Y21.6692 
G01 X-82.2199 Y21.6367 
G01 X-82.2114 Y21.6051 
G01 X-82.2114 Y21.5723 
G01 X-82.2071 Y21.5399 
G01 X-82.2114 Y21.5074 
G01 X-82.2114 Y21.4747 
G01 X-82.2199 Y21.4430 
G01 X-82.2242 Y21.4106 
G01 X-82.2367 Y21.3803 
G01 X-82.2452 Y21.3487 
G01 X-82.2615 Y21.3203 
G01 X-82.2741 Y21.2901 
G01 X-82.2940 Y21.2641 
G01 X-82.3104 Y21.2357 
G01 X-82.3335 Y21.2126 
G01 X-82.3535 Y21.1866 
G01 X-82.3794 Y21.1667 
G01 X-83.3360 Y20.2102 
G01 X-83.4771 Y19.8694 
G01 X-83.4771 Y16.9811 
G01 X-83.4728 Y16.9487 
G01 X-83.4771 Y16.9162 
G01 X-83.4771 Y16.8835 
G01 X-83.4856 Y16.8518 
G01 X-83.4898 Y16.8194 
G01 X-83.5024 Y16.7891 
G01 X-83.5109 Y16.7575 
G01 X-83.5249 Y16.7332 
G01 X-83.5344 Y16.7117 
G01 X-83.5569 Y16.6575 
G01 X-83.5609 Y16.6523 
G01 X-83.5636 Y16.6462 
G01 X-83.6006 Y16.6006 
G01 X-83.6363 Y16.5540 
G01 X-83.6415 Y16.5500 
G01 X-83.6457 Y16.5449 
G01 X-83.6931 Y16.5104 
G01 X-83.7397 Y16.4746 
G01 X-83.7459 Y16.4721 
G01 X-83.7512 Y16.4682 
G01 X-83.8059 Y16.4472 
G01 X-83.8602 Y16.4247 
G01 X-83.8668 Y16.4239 
G01 X-83.8729 Y16.4215 
G01 X-83.9313 Y16.4154 
G01 X-83.9895 Y16.4077 
G01 X-83.9961 Y16.4086 
G01 X-84.0026 Y16.4079 
G01 X-84.0606 Y16.4171 
G01 X-84.1188 Y16.4247 
G01 X-84.1249 Y16.4273 
G01 X-84.1314 Y16.4283 
G01 X-84.1851 Y16.4522 
G01 X-84.2393 Y16.4746 
G01 X-84.2445 Y16.4786 
G01 X-84.2506 Y16.4813 
G01 X-84.2962 Y16.5183 
G01 X-84.3428 Y16.5540 
G01 X-84.3468 Y16.5593 
G01 X-84.3519 Y16.5634 
G01 X-84.3828 Y16.6060 
G01 X-84.4860 Y16.7092 
G01 X-84.5947 Y16.7881 
G01 X-84.5947 Y16.6944 
G01 X-84.5476 Y16.6629 
G01 X-84.4291 Y16.5444 
G01 X-84.3359 Y16.4050 
G01 X-84.2718 Y16.2502 
G01 X-84.2391 Y16.0858 
G01 X-84.2391 Y14.3942 
G01 X-84.2718 Y14.2298 
G01 X-84.3359 Y14.0749 
G01 X-84.4291 Y13.9356 
G01 X-84.5476 Y13.8171 
G01 X-84.5947 Y13.7856 
G01 X-84.5947 Y13.6919 
G01 X-84.4860 Y13.7708 
G01 X-84.3828 Y13.8740 
G01 X-84.3519 Y13.9166 
G01 X-84.3468 Y13.9207 
G01 X-84.3428 Y13.9260 
G01 X-84.2962 Y13.9617 
G01 X-84.2506 Y13.9987 
G01 X-84.2445 Y14.0014 
G01 X-84.2393 Y14.0054 
G01 X-84.1851 Y14.0278 
G01 X-84.1314 Y14.0517 
G01 X-84.1249 Y14.0527 
G01 X-84.1188 Y14.0553 
G01 X-84.0606 Y14.0629 
G01 X-84.0026 Y14.0721 
G01 X-83.9961 Y14.0714 
G01 X-83.9895 Y14.0723 
G01 X-83.9313 Y14.0646 
G01 X-83.8729 Y14.0585 
G01 X-83.8668 Y14.0561 
G01 X-83.8602 Y14.0553 
G01 X-83.8060 Y14.0328 
G01 X-83.7512 Y14.0118 
G01 X-83.7458 Y14.0079 
G01 X-83.7397 Y14.0054 
G01 X-83.6932 Y13.9696 
G01 X-83.6457 Y13.9351 
G01 X-83.6415 Y13.9300 
G01 X-83.6363 Y13.9260 
G01 X-83.6006 Y13.8794 
G01 X-83.5636 Y13.8338 
G01 X-83.5609 Y13.8277 
G01 X-83.5569 Y13.8225 
G01 X-83.5513 Y13.8089 
G01 X-83.2190 Y13.4767 
G01 X-82.7849 Y13.2969 
G01 X-82.3151 Y13.2969 
G01 X-81.8810 Y13.4767 
G01 X-81.6763 Y13.6813 
G01 X-81.5841 Y13.7736 
G01 X-81.4970 Y13.8238 
G01 X-81.4712 Y13.8388 
G01 X-81.3452 Y13.8725 
G01 X-81.2148 Y13.8725 
G01 X-81.0888 Y13.8388 
G01 X-80.9759 Y13.7735 
G01 X-80.6790 Y13.4767 
G01 X-80.2449 Y13.2969 
G01 X-79.7751 Y13.2969 
G01 X-79.3410 Y13.4767 
G01 X-79.0087 Y13.8090 
G01 X-78.8289 Y14.2431 
G01 X-78.8289 Y15.6050 
G01 X-78.7951 Y15.7310 
G01 X-78.7299 Y15.8439 
G01 X-78.6728 Y15.9011 
G01 X-75.1556 Y19.4183 
G01 X-75.1205 Y19.4534 
G01 X-75.0634 Y19.5105 
G01 X-74.7790 Y19.7948 
G01 X-74.6379 Y20.1356 
G01 X-74.6379 Y21.5610 
G01 X-74.6422 Y21.5934 
G01 X-74.6379 Y21.6259 
G01 X-74.6379 Y21.6586 
G01 X-74.6294 Y21.6903 
G01 X-74.6251 Y21.7227 
G01 X-74.6126 Y21.7530 
G01 X-74.6041 Y21.7846 
G01 X-74.5878 Y21.8130 
G01 X-74.5752 Y21.8432 
G01 X-74.5553 Y21.8692 
G01 X-74.5389 Y21.8975 
G01 X-74.5158 Y21.9207 
G01 X-74.4958 Y21.9467 
G01 X-74.4699 Y21.9666 
G01 X-74.4467 Y21.9898 
G01 X-74.4184 Y22.0061 
G01 X-74.3924 Y22.0261 
G01 X-74.3621 Y22.0386 
G01 X-74.3338 Y22.0550 
G01 X-74.3022 Y22.0634 
G01 X-74.2719 Y22.0760 
G01 X-74.2394 Y22.0802 
G01 X-74.2078 Y22.0887 
G01 X-74.1751 Y22.0887 
G01 X-74.1426 Y22.0930 
G01 X-74.1101 Y22.0887 
G01 X-74.0774 Y22.0887 
G01 X-74.0458 Y22.0802 
G01 X-74.0133 Y22.0760 
G01 X-73.9831 Y22.0634 
G01 X-73.9514 Y22.0550 
G01 X-73.9231 Y22.0386 
G01 X-73.5452 Y21.8821 
G01 X-73.0147 Y21.8821 
G01 X-72.5246 Y22.0851 
G01 X-72.4063 Y22.2034 
G01 X-72.3167 Y22.2931 
G01 X-72.3141 Y22.2956 
G01 X-72.2012 Y22.3608 
G01 X-72.1104 Y22.3852 
G01 X-72.0752 Y22.3946 
G01 X-71.9448 Y22.3946 
G01 X-71.8188 Y22.3608 
G01 X-71.7059 Y22.2956 
G01 X-71.6151 Y22.2048 
G01 X-71.4954 Y22.0851 
G01 X-71.0052 Y21.8821 
G01 X-70.4747 Y21.8821 
G01 X-69.9846 Y22.0851 
G01 X-69.8663 Y22.2034 
G01 X-69.7767 Y22.2931 
G01 X-69.7741 Y22.2956 
G01 X-69.6612 Y22.3608 
G01 X-69.5704 Y22.3852 
G01 X-69.5352 Y22.3946 
G01 X-69.4048 Y22.3946 
G01 X-69.2788 Y22.3608 
G01 X-69.1659 Y22.2956 
G01 X-69.0751 Y22.2048 
G01 X-68.9554 Y22.0851 
G01 X-68.4652 Y21.8821 
G01 X-67.9347 Y21.8821 
G01 X-67.4446 Y22.0851 
G01 X-67.3263 Y22.2034 
G01 X-67.2367 Y22.2931 
G01 X-67.2341 Y22.2956 
G01 X-67.1212 Y22.3608 
G01 X-67.0304 Y22.3852 
G01 X-66.9952 Y22.3946 
G01 X-66.8648 Y22.3946 
G01 X-66.7388 Y22.3608 
G01 X-66.6259 Y22.2956 
G01 X-66.5351 Y22.2048 
G01 X-66.4154 Y22.0851 
G01 X-65.9252 Y21.8821 
G01 X-65.3947 Y21.8821 
G01 X-64.9046 Y22.0851 
G01 X-64.5295 Y22.4602 
G01 X-64.3265 Y22.9503 
G01 X-64.3265 Y24.4198 
G01 X-64.2927 Y24.5458 
G01 X-64.2275 Y24.6587 
G01 X-64.1353 Y24.7510 
G01 X-64.0224 Y24.8162 
G01 X-63.8964 Y24.8499 
G01 X-63.7660 Y24.8499 
G01 X-63.6400 Y24.8162 
G01 X-63.5271 Y24.7510 
G01 X-63.4349 Y24.6587 
G01 X-60.2152 Y21.4390 
G01 X-59.8744 Y21.2979 
G01 X-50.6156 Y21.2979 
G01 X-50.5648 Y21.3189 
G01 X-50.5209 Y21.3406 
G01 X-50.5048 Y21.3438 
G01 X-50.4896 Y21.3501 
G01 X-50.4410 Y21.3565 
G01 X-50.3930 Y21.3660 
G01 X-50.3766 Y21.3650 
G01 X-50.3603 Y21.3671 
G01 X-50.3173 Y21.3614 
G01 X-50.2694 Y21.4445 
G01 X-50.1771 Y21.5367 
G01 X-49.0284 Y22.6855 
G01 X-48.7440 Y22.9698 
G01 X-48.6029 Y23.3106 
G01 X-48.6029 Y24.1001 
G01 X-48.5691 Y24.2261 
G01 X-48.5039 Y24.3391 
G01 X-48.4117 Y24.4313 
G01 X-48.3515 Y24.4915 
G01 X-48.2386 Y24.5567 
G01 X-48.1126 Y24.5904 
G01 X-47.9822 Y24.5904 
G01 X-47.8616 Y24.5581 
G01 X-47.8562 Y24.5567 
G01 X-47.7433 Y24.4915 
G01 X-47.6511 Y24.3993 
G01 X-47.3601 Y24.1083 
G01 X-46.9820 Y23.9517 
G01 X-46.5728 Y23.9517 
G01 X-46.1947 Y24.1083 
G01 X-45.9037 Y24.3993 
G01 X-45.8115 Y24.4915 
G01 X-45.7244 Y24.5418 
G01 X-45.6986 Y24.5567 
G01 X-45.5726 Y24.5904 
G01 X-45.4422 Y24.5904 
G01 X-45.3162 Y24.5567 
G01 X-45.2033 Y24.4915 
G01 X-44.8201 Y24.1083 
G01 X-44.4420 Y23.9517 
G01 X-44.0328 Y23.9517 
G01 X-43.6547 Y24.1083 
G01 X-43.3653 Y24.3977 
G01 X-43.2927 Y24.5729 
G01 X-43.2786 Y24.6164 
G01 X-43.2679 Y24.6329 
G01 X-43.2603 Y24.6511 
G01 X-43.2325 Y24.6874 
G01 X-43.2076 Y24.7258 
G01 X-43.1929 Y24.7390 
G01 X-43.1810 Y24.7546 
G01 X-43.1446 Y24.7824 
G01 X-43.1106 Y24.8130 
G01 X-43.0931 Y24.8220 
G01 X-43.0775 Y24.8340 
G01 X-43.0352 Y24.8515 
G01 X-42.9944 Y24.8722 
G01 X-42.9752 Y24.8763 
G01 X-42.9570 Y24.8839 
G01 X-42.9116 Y24.8898 
G01 X-42.8669 Y24.8994 
G01 X-42.8472 Y24.8983 
G01 X-42.8277 Y24.9009 
G01 X-42.7823 Y24.8949 
G01 X-42.7366 Y24.8925 
G01 X-42.7179 Y24.8864 
G01 X-42.6984 Y24.8839 
G01 X-42.6561 Y24.8664 
G01 X-42.6126 Y24.8522 
G01 X-42.5961 Y24.8415 
G01 X-42.5779 Y24.8340 
G01 X-42.5416 Y24.8061 
G01 X-42.5032 Y24.7812 
G01 X-42.4901 Y24.7666 
G01 X-42.4744 Y24.7546 
G01 X-42.4466 Y24.7183 
G01 X-42.4160 Y24.6843 
G01 X-42.4070 Y24.6667 
G01 X-42.3951 Y24.6511 
G01 X-42.3775 Y24.6088 
G01 X-42.3600 Y24.5744 
G01 X-42.2883 Y24.4757 
G01 X-42.2021 Y24.3895 
G01 X-42.1927 Y24.3827 
G01 X-42.1927 Y24.4879 
G01 X-42.2400 Y24.5351 
G01 X-42.3164 Y24.6495 
G01 X-42.3691 Y24.7767 
G01 X-42.3959 Y24.9116 
G01 X-42.3959 Y26.2684 
G01 X-42.3691 Y26.4033 
G01 X-42.3164 Y26.5305 
G01 X-42.2400 Y26.6449 
G01 X-42.1927 Y26.6921 
G01 X-42.1927 Y26.7973 
G01 X-42.2021 Y26.7905 
G01 X-42.2883 Y26.7043 
G01 X-42.3600 Y26.6056 
G01 X-42.3775 Y26.5712 
G01 X-42.3951 Y26.5289 
G01 X-42.4070 Y26.5133 
G01 X-42.4160 Y26.4957 
G01 X-42.4466 Y26.4617 
G01 X-42.4744 Y26.4254 
G01 X-42.4901 Y26.4134 
G01 X-42.5032 Y26.3988 
G01 X-42.5416 Y26.3739 
G01 X-42.5779 Y26.3460 
G01 X-42.5961 Y26.3385 
G01 X-42.6126 Y26.3278 
G01 X-42.6561 Y26.3136 
G01 X-42.6984 Y26.2961 
G01 X-42.7179 Y26.2936 
G01 X-42.7366 Y26.2875 
G01 X-42.7823 Y26.2851 
G01 X-42.8277 Y26.2791 
G01 X-42.8472 Y26.2817 
G01 X-42.8669 Y26.2806 
G01 X-42.9116 Y26.2902 
G01 X-42.9570 Y26.2961 
G01 X-42.9752 Y26.3037 
G01 X-42.9944 Y26.3078 
G01 X-43.0352 Y26.3285 
G01 X-43.0775 Y26.3460 
G01 X-43.0931 Y26.3580 
G01 X-43.1106 Y26.3670 
G01 X-43.1446 Y26.3976 
G01 X-43.1809 Y26.4254 
G01 X-43.1929 Y26.4410 
G01 X-43.2076 Y26.4542 
G01 X-43.2325 Y26.4926 
G01 X-43.2603 Y26.5289 
G01 X-43.2679 Y26.5471 
G01 X-43.2786 Y26.5636 
G01 X-43.2927 Y26.6071 
G01 X-43.3653 Y26.7823 
G01 X-43.6547 Y27.0717 
G01 X-44.0328 Y27.2283 
G01 X-44.4420 Y27.2283 
G01 X-44.8201 Y27.0717 
G01 X-45.1533 Y26.7385 
G01 X-45.2033 Y26.6885 
G01 X-45.2582 Y26.6568 
G01 X-45.3162 Y26.6233 
G01 X-45.4422 Y26.5896 
G01 X-45.5081 Y26.5896 
G01 X-45.5726 Y26.5896 
G01 X-45.6117 Y26.6000 
G01 X-45.6986 Y26.6233 
G01 X-45.7827 Y26.6719 
G01 X-45.8115 Y26.6885 
G01 X-45.8631 Y26.7401 
G01 X-45.8717 Y26.7487 
G01 X-45.9123 Y26.7893 
G01 X-45.9639 Y26.8409 
G01 X-46.0081 Y26.9175 
G01 X-46.0291 Y26.9539 
G01 X-46.0601 Y27.0694 
G01 X-46.0629 Y27.0798 
G01 X-46.0629 Y27.1443 
G01 X-46.0629 Y27.2102 
G01 X-46.0629 Y27.4894 
G01 X-46.2040 Y27.8302 
G01 X-46.5806 Y28.2067 
G01 X-49.0048 Y30.6310 
G01 X-49.0294 Y30.6411 
G01 X-49.1499 Y30.6910 
G01 X-49.2253 Y30.7489 
G01 X-49.2534 Y30.7704 
G01 X-49.2892 Y30.8171 
G01 X-49.3327 Y30.8739 
G01 X-49.3520 Y30.9203 
G01 X-49.3827 Y30.9944 
G01 X-49.3943 Y31.0828 
G01 X-49.3997 Y31.1237 
G01 X-49.3947 Y31.1612 
G01 X-49.3827 Y31.2530 
G01 X-49.3328 Y31.3735 
G01 X-49.2749 Y31.4489 
G01 X-49.2534 Y31.4769 
G01 X-49.2067 Y31.5128 
G01 X-49.1499 Y31.5563 
G01 X-49.1294 Y31.5648 
G01 X-49.0294 Y31.6062 
G01 X-48.7347 Y31.7283 
G01 X-48.4437 Y32.0193 
G01 X-48.3593 Y32.1037 
G01 X-48.3515 Y32.1115 
G01 X-48.2420 Y32.1747 
G01 X-48.2386 Y32.1767 
G01 X-48.1126 Y32.2104 
G01 X-47.9822 Y32.2104 
G01 X-47.9768 Y32.2090 
G01 X-47.8562 Y32.1767 
G01 X-47.7458 Y32.1129 
G01 X-47.6511 Y32.0193 
G01 X-47.3601 Y31.7283 
G01 X-46.9820 Y31.5717 
G01 X-46.5728 Y31.5717 
G01 X-46.1947 Y31.7283 
G01 X-45.9037 Y32.0193 
G01 X-45.8193 Y32.1037 
G01 X-45.8115 Y32.1115 
G01 X-45.7020 Y32.1747 
G01 X-45.6986 Y32.1767 
G01 X-45.5726 Y32.2104 
G01 X-45.4422 Y32.2104 
G01 X-45.4368 Y32.2090 
G01 X-45.3162 Y32.1767 
G01 X-45.2058 Y32.1129 
G01 X-45.1111 Y32.0193 
G01 X-44.8201 Y31.7283 
G01 X-44.4420 Y31.5717 
G01 X-44.0328 Y31.5717 
G01 X-43.6547 Y31.7283 
G01 X-43.3637 Y32.0193 
G01 X-43.2793 Y32.1037 
G01 X-43.2715 Y32.1115 
G01 X-43.1620 Y32.1747 
G01 X-43.1586 Y32.1767 
G01 X-43.0326 Y32.2104 
G01 X-42.9022 Y32.2104 
G01 X-42.8968 Y32.2090 
G01 X-42.7762 Y32.1767 
G01 X-42.6658 Y32.1129 
G01 X-42.5711 Y32.0193 
G01 X-42.2801 Y31.7283 
G01 X-41.9020 Y31.5717 
G01 X-41.4928 Y31.5717 
G01 X-41.1147 Y31.7283 
G01 X-40.8237 Y32.0193 
G01 X-40.7393 Y32.1037 
G01 X-40.7315 Y32.1115 
G01 X-40.6220 Y32.1747 
G01 X-40.6186 Y32.1767 
G01 X-40.4926 Y32.2104 
G01 X-40.3622 Y32.2104 
G01 X-40.3568 Y32.2090 
G01 X-40.2362 Y32.1767 
G01 X-40.1258 Y32.1129 
G01 X-40.0311 Y32.0193 
G01 X-39.7401 Y31.7283 
G01 X-39.3620 Y31.5717 
G01 X-38.9528 Y31.5717 
G01 X-38.5747 Y31.7283 
G01 X-38.2837 Y32.0193 
G01 X-38.1993 Y32.1037 
G01 X-38.1915 Y32.1115 
G01 X-38.0820 Y32.1747 
G01 X-38.0786 Y32.1767 
G01 X-37.9526 Y32.2104 
G01 X-37.8222 Y32.2104 
G01 X-37.8168 Y32.2090 
G01 X-37.6962 Y32.1767 
G01 X-37.5858 Y32.1129 
G01 X-37.4911 Y32.0193 
G01 X-37.2001 Y31.7283 
G01 X-36.8220 Y31.5717 
G01 X-36.4128 Y31.5717 
G01 X-36.0347 Y31.7283 
G01 X-35.7437 Y32.0193 
G01 X-35.6593 Y32.1037 
G01 X-35.6515 Y32.1115 
G01 X-35.5420 Y32.1747 
G01 X-35.5386 Y32.1767 
G01 X-35.4126 Y32.2104 
G01 X-35.2822 Y32.2104 
G01 X-35.2768 Y32.2090 
G01 X-35.1562 Y32.1767 
G01 X-35.0458 Y32.1129 
G01 X-34.9511 Y32.0193 
G01 X-34.6601 Y31.7283 
G01 X-34.2820 Y31.5717 
G01 X-33.8728 Y31.5717 
G01 X-33.4947 Y31.7283 
G01 X-33.2037 Y32.0193 
G01 X-33.1115 Y32.1115 
G01 X-32.9986 Y32.1767 
G01 X-32.8726 Y32.2104 
G01 X-32.7422 Y32.2104 
G01 X-32.6162 Y32.1767 
G01 X-32.5033 Y32.1115 
G01 X-32.1201 Y31.7283 
G01 X-31.7420 Y31.5717 
G01 X-31.3328 Y31.5717 
G01 X-30.9547 Y31.7283 
G01 X-30.6637 Y32.0193 
G01 X-30.5793 Y32.1037 
G01 X-30.5715 Y32.1115 
G01 X-30.4620 Y32.1747 
G01 X-30.4586 Y32.1767 
G01 X-30.3326 Y32.2104 
G01 X-30.2022 Y32.2104 
G01 X-30.1968 Y32.2090 
G01 X-30.0762 Y32.1767 
G01 X-29.9658 Y32.1129 
G01 X-29.8711 Y32.0193 
G01 X-29.5801 Y31.7283 
G01 X-29.2020 Y31.5717 
G01 X-28.7928 Y31.5717 
G01 X-28.4147 Y31.7283 
G01 X-28.1237 Y32.0193 
G01 X-28.0393 Y32.1037 
G01 X-28.0315 Y32.1115 
G01 X-27.9220 Y32.1747 
G01 X-27.9186 Y32.1767 
G01 X-27.7926 Y32.2104 
G01 X-27.6622 Y32.2104 
G01 X-27.6568 Y32.2090 
G01 X-27.5362 Y32.1767 
G01 X-27.4258 Y32.1129 
G01 X-27.3311 Y32.0193 
G01 X-27.0401 Y31.7283 
G01 X-26.6620 Y31.5717 
G01 X-26.2528 Y31.5717 
G01 X-25.8747 Y31.7283 
G01 X-25.5837 Y32.0193 
G01 X-25.4993 Y32.1037 
G01 X-25.4915 Y32.1115 
G01 X-25.3820 Y32.1747 
G01 X-25.3786 Y32.1767 
G01 X-25.2526 Y32.2104 
G01 X-25.1222 Y32.2104 
G01 X-25.1168 Y32.2090 
G01 X-24.9962 Y32.1767 
G01 X-24.8858 Y32.1129 
G01 X-24.7911 Y32.0193 
G01 X-24.5001 Y31.7283 
G01 X-24.1220 Y31.5717 
G01 X-23.7128 Y31.5717 
G01 X-23.3347 Y31.7283 
G01 X-23.0437 Y32.0193 
G01 X-22.9593 Y32.1037 
G01 X-22.9515 Y32.1115 
G01 X-22.8420 Y32.1747 
G01 X-22.8386 Y32.1767 
G01 X-22.7126 Y32.2104 
G01 X-22.5822 Y32.2104 
G01 X-22.5768 Y32.2090 
G01 X-22.4562 Y32.1767 
G01 X-22.3458 Y32.1129 
G01 X-22.2511 Y32.0193 
G01 X-21.9601 Y31.7283 
G01 X-21.5820 Y31.5717 
G01 X-21.1728 Y31.5717 
G01 X-20.7947 Y31.7283 
G01 X-20.5037 Y32.0193 
G01 X-20.4193 Y32.1037 
G01 X-20.4115 Y32.1115 
G01 X-20.3020 Y32.1747 
G01 X-20.2986 Y32.1767 
G01 X-20.1726 Y32.2104 
G01 X-20.0422 Y32.2104 
G01 X-20.0368 Y32.2090 
G01 X-19.9162 Y32.1767 
G01 X-19.8058 Y32.1129 
G01 X-19.7111 Y32.0193 
G01 X-19.4201 Y31.7283 
G01 X-19.0420 Y31.5717 
G01 X-18.6328 Y31.5717 
G01 X-18.2547 Y31.7283 
G01 X-17.9653 Y32.0177 
G01 X-17.8087 Y32.3958 
G01 X-17.8087 Y33.1290 
G01 X-17.8130 Y33.1638 
G01 X-17.8087 Y33.1939 
G01 X-17.8087 Y33.2243 
G01 X-17.7996 Y33.2582 
G01 X-17.7947 Y33.2929 
G01 X-17.7828 Y33.3209 
G01 X-17.7749 Y33.3503 
G01 X-17.7574 Y33.3807 
G01 X-16.0116 Y37.4866 
G01 X-15.9875 Y37.5448 
G01 X-15.9852 Y37.5488 
G01 X-15.9463 Y37.5984 
G01 X-15.9081 Y37.6482 
G01 X-15.9048 Y37.6515 
G01 X-15.8544 Y37.6894 
G01 X-15.8047 Y37.7276 
G01 X-15.8006 Y37.7299 
G01 X-15.7421 Y37.7535 
G01 X-15.6823 Y37.7783 
G01 X-15.3929 Y38.0677 
G01 X-15.2363 Y38.4458 
G01 X-15.2363 Y40.0742 
G01 X-15.3929 Y40.4523 
G01 X-15.6823 Y40.7417 
G01 X-16.0604 Y40.8983 
G01 X-16.4696 Y40.8983 
G01 X-16.8477 Y40.7417 
G01 X-17.1387 Y40.4507 
G01 X-17.2231 Y40.3663 
G01 X-17.2309 Y40.3585 
G01 X-17.3404 Y40.2953 
G01 X-17.3438 Y40.2933 
G01 X-17.4698 Y40.2596 
G01 X-17.6002 Y40.2596 
G01 X-17.6056 Y40.2610 
G01 X-17.7262 Y40.2933 
G01 X-17.8366 Y40.3571 
G01 X-17.9313 Y40.4507 
G01 X-18.2223 Y40.7417 
G01 X-18.6004 Y40.8983 
G01 X-19.0096 Y40.8983 
G01 X-19.3877 Y40.7417 
G01 X-19.6787 Y40.4507 
G01 X-19.7631 Y40.3663 
G01 X-19.7709 Y40.3585 
G01 X-19.8804 Y40.2953 
G01 X-19.8838 Y40.2933 
G01 X-20.0098 Y40.2596 
G01 X-20.1402 Y40.2596 
G01 X-20.1456 Y40.2610 
G01 X-20.2662 Y40.2933 
G01 X-20.3766 Y40.3571 
G01 X-20.4713 Y40.4507 
G01 X-20.7623 Y40.7417 
G01 X-21.1404 Y40.8983 
G01 X-21.5496 Y40.8983 
G01 X-21.9277 Y40.7417 
G01 X-22.2187 Y40.4507 
G01 X-22.3031 Y40.3663 
G01 X-22.3109 Y40.3585 
G01 X-22.4204 Y40.2953 
G01 X-22.4238 Y40.2933 
G01 X-22.5498 Y40.2596 
G01 X-22.6802 Y40.2596 
G01 X-22.6856 Y40.2610 
G01 X-22.8062 Y40.2933 
G01 X-22.9166 Y40.3571 
G01 X-23.0113 Y40.4507 
G01 X-23.3023 Y40.7417 
G01 X-23.6804 Y40.8983 
G01 X-24.0896 Y40.8983 
G01 X-24.4677 Y40.7417 
G01 X-24.7587 Y40.4507 
G01 X-24.8431 Y40.3663 
G01 X-24.8509 Y40.3585 
G01 X-24.9604 Y40.2953 
G01 X-24.9638 Y40.2933 
G01 X-25.0898 Y40.2596 
G01 X-25.2202 Y40.2596 
G01 X-25.2256 Y40.2610 
G01 X-25.3462 Y40.2933 
G01 X-25.4566 Y40.3571 
G01 X-25.5513 Y40.4507 
G01 X-25.8423 Y40.7417 
G01 X-26.2204 Y40.8983 
G01 X-26.6296 Y40.8983 
G01 X-27.0077 Y40.7417 
G01 X-27.3909 Y40.3585 
G01 X-27.5038 Y40.2933 
G01 X-27.6298 Y40.2596 
G01 X-27.7602 Y40.2596 
G01 X-27.8808 Y40.2919 
G01 X-27.8862 Y40.2933 
G01 X-27.9991 Y40.3585 
G01 X-28.0913 Y40.4507 
G01 X-28.3823 Y40.7417 
G01 X-28.7604 Y40.8983 
G01 X-29.1696 Y40.8983 
G01 X-29.5477 Y40.7417 
G01 X-29.9309 Y40.3585 
G01 X-30.0438 Y40.2933 
G01 X-30.1698 Y40.2596 
G01 X-30.3002 Y40.2596 
G01 X-30.4208 Y40.2919 
G01 X-30.4262 Y40.2933 
G01 X-30.5391 Y40.3585 
G01 X-30.6313 Y40.4507 
G01 X-30.9223 Y40.7417 
G01 X-31.3004 Y40.8983 
G01 X-31.7096 Y40.8983 
G01 X-32.0877 Y40.7417 
G01 X-32.3787 Y40.4507 
G01 X-32.4631 Y40.3663 
G01 X-32.4709 Y40.3585 
G01 X-32.5804 Y40.2953 
G01 X-32.5838 Y40.2933 
G01 X-32.7098 Y40.2596 
G01 X-32.8402 Y40.2596 
G01 X-32.8456 Y40.2610 
G01 X-32.9662 Y40.2933 
G01 X-33.0766 Y40.3571 
G01 X-33.1713 Y40.4507 
G01 X-33.4623 Y40.7417 
G01 X-33.8404 Y40.8983 
G01 X-34.2496 Y40.8983 
G01 X-34.6277 Y40.7417 
G01 X-34.9171 Y40.4523 
G01 X-34.9897 Y40.2771 
G01 X-35.0038 Y40.2336 
G01 X-35.0145 Y40.2171 
G01 X-35.0221 Y40.1989 
G01 X-35.0499 Y40.1626 
G01 X-35.0748 Y40.1242 
G01 X-35.0895 Y40.1110 
G01 X-35.1014 Y40.0954 
G01 X-35.1378 Y40.0676 
G01 X-35.1717 Y40.0370 
G01 X-35.1893 Y40.0280 
G01 X-35.2049 Y40.0160 
G01 X-35.2472 Y39.9985 
G01 X-35.2879 Y39.9778 
G01 X-35.3072 Y39.9737 
G01 X-35.3254 Y39.9661 
G01 X-35.3708 Y39.9602 
G01 X-35.4155 Y39.9506 
G01 X-35.4352 Y39.9517 
G01 X-35.4547 Y39.9491 
G01 X-35.5001 Y39.9551 
G01 X-35.5457 Y39.9575 
G01 X-35.5645 Y39.9635 
G01 X-35.5840 Y39.9661 
G01 X-35.6263 Y39.9836 
G01 X-35.6698 Y39.9978 
G01 X-35.6863 Y40.0085 
G01 X-35.7045 Y40.0160 
G01 X-35.7408 Y40.0439 
G01 X-35.7792 Y40.0688 
G01 X-35.7923 Y40.0834 
G01 X-35.8079 Y40.0954 
G01 X-35.8358 Y40.1317 
G01 X-35.8664 Y40.1657 
G01 X-35.8753 Y40.1833 
G01 X-35.8873 Y40.1989 
G01 X-35.9049 Y40.2412 
G01 X-35.9224 Y40.2756 
G01 X-35.9941 Y40.3743 
G01 X-36.0803 Y40.4605 
G01 X-36.0897 Y40.4673 
G01 X-36.0897 Y40.3621 
G01 X-36.0424 Y40.3149 
G01 X-35.9660 Y40.2005 
G01 X-35.9133 Y40.0733 
G01 X-35.8865 Y39.9384 
G01 X-35.8865 Y38.5816 
G01 X-35.9133 Y38.4467 
G01 X-35.9660 Y38.3195 
G01 X-36.0424 Y38.2051 
G01 X-36.0897 Y38.1579 
G01 X-36.0897 Y37.7960 
G01 X-36.0847 Y37.7921 
G01 X-36.0391 Y37.7589 
G01 X-36.0334 Y37.7520 
G01 X-36.0264 Y37.7465 
G01 X-35.9925 Y37.7014 
G01 X-35.9570 Y37.6576 
G01 X-35.9534 Y37.6494 
G01 X-35.9480 Y37.6423 
G01 X-35.9269 Y37.5900 
G01 X-35.9039 Y37.5385 
G01 X-35.9025 Y37.5296 
G01 X-35.8992 Y37.5214 
G01 X-35.8924 Y37.4653 
G01 X-35.8835 Y37.4096 
G01 X-35.8845 Y37.4008 
G01 X-35.8834 Y37.3919 
G01 X-35.8913 Y37.3360 
G01 X-35.8972 Y37.2799 
G01 X-35.9004 Y37.2716 
G01 X-35.9016 Y37.2628 
G01 X-35.9237 Y37.2108 
G01 X-35.9439 Y37.1582 
G01 X-35.9492 Y37.1510 
G01 X-36.8708 Y34.9834 
G01 X-36.8949 Y34.9252 
G01 X-36.8972 Y34.9212 
G01 X-36.9361 Y34.8716 
G01 X-36.9743 Y34.8218 
G01 X-36.9776 Y34.8185 
G01 X-37.0280 Y34.7805 
G01 X-37.0777 Y34.7424 
G01 X-37.0818 Y34.7401 
G01 X-37.1403 Y34.7165 
G01 X-37.2001 Y34.6917 
G01 X-37.5833 Y34.3085 
G01 X-37.6962 Y34.2433 
G01 X-37.8222 Y34.2096 
G01 X-37.9526 Y34.2096 
G01 X-38.0732 Y34.2419 
G01 X-38.0786 Y34.2433 
G01 X-38.1915 Y34.3085 
G01 X-38.2837 Y34.4007 
G01 X-38.5747 Y34.6917 
G01 X-38.9528 Y34.8483 
G01 X-39.3620 Y34.8483 
G01 X-39.7401 Y34.6917 
G01 X-40.1233 Y34.3085 
G01 X-40.2362 Y34.2433 
G01 X-40.3622 Y34.2096 
G01 X-40.4926 Y34.2096 
G01 X-40.6132 Y34.2419 
G01 X-40.6186 Y34.2433 
G01 X-40.7315 Y34.3085 
G01 X-40.8237 Y34.4007 
G01 X-41.1147 Y34.6917 
G01 X-41.4928 Y34.8483 
G01 X-41.9020 Y34.8483 
G01 X-42.2801 Y34.6917 
G01 X-42.5013 Y34.4705 
G01 X-42.5868 Y34.3850 
G01 X-42.5935 Y34.3783 
G01 X-42.7030 Y34.3151 
G01 X-42.7064 Y34.3131 
G01 X-42.8324 Y34.2794 
G01 X-42.9628 Y34.2794 
G01 X-42.9682 Y34.2808 
G01 X-43.0888 Y34.3131 
G01 X-43.1992 Y34.3769 
G01 X-43.2939 Y34.4705 
G01 X-43.3572 Y34.5801 
G01 X-43.3591 Y34.5835 
G01 X-43.3929 Y34.7094 
G01 X-43.3929 Y43.5492 
G01 X-43.3972 Y43.5817 
G01 X-43.3929 Y43.6142 
G01 X-43.3929 Y43.6469 
G01 X-43.3844 Y43.6785 
G01 X-43.3801 Y43.7110 
G01 X-43.3676 Y43.7413 
G01 X-43.3591 Y43.7729 
G01 X-43.3428 Y43.8012 
G01 X-43.3302 Y43.8315 
G01 X-43.3103 Y43.8575 
G01 X-43.2939 Y43.8858 
G01 X-43.2708 Y43.9090 
G01 X-43.2508 Y43.9350 
G01 X-43.2249 Y43.9549 
G01 X-43.2017 Y43.9780 
G01 X-43.1734 Y43.9944 
G01 X-43.1474 Y44.0144 
G01 X-43.1171 Y44.0269 
G01 X-43.0888 Y44.0433 
G01 X-43.0571 Y44.0517 
G01 X-43.0269 Y44.0643 
G01 X-42.9944 Y44.0685 
G01 X-42.9628 Y44.0770 
G01 X-42.9301 Y44.0770 
G01 X-42.8976 Y44.0813 
G01 X-42.8651 Y44.0770 
G01 X-42.8324 Y44.0770 
G01 X-42.8008 Y44.0685 
G01 X-42.7683 Y44.0643 
G01 X-42.7381 Y44.0517 
G01 X-42.7064 Y44.0433 
G01 X-42.6781 Y44.0269 
G01 X-42.6478 Y44.0144 
G01 X-42.6218 Y43.9944 
G01 X-42.5935 Y43.9780 
G01 X-42.5703 Y43.9549 
G01 X-42.5443 Y43.9350 
G01 X-42.5244 Y43.9090 
G01 X-42.5013 Y43.8858 
G01 X-42.4849 Y43.8575 
G01 X-42.4650 Y43.8315 
G01 X-42.4524 Y43.8012 
G01 X-42.4361 Y43.7729 
G01 X-42.4276 Y43.7413 
G01 X-42.3453 Y43.5426 
G01 X-42.2061 Y43.4034 
G01 X-42.1971 Y43.3982 
G01 X-42.1795 Y43.3805 
G01 X-42.1736 Y43.3766 
G01 X-42.1687 Y43.3710 
G01 X-42.1485 Y43.3555 
G01 X-42.1284 Y43.3293 
G01 X-42.1050 Y43.3058 
G01 X-42.0925 Y43.2841 
G01 X-42.0876 Y43.2785 
G01 X-42.0843 Y43.2719 
G01 X-42.0691 Y43.2521 
G01 X-42.0564 Y43.2215 
G01 X-42.0399 Y43.1928 
G01 X-42.0336 Y43.1690 
G01 X-42.0299 Y43.1615 
G01 X-42.0283 Y43.1537 
G01 X-42.0192 Y43.1316 
G01 X-42.0149 Y43.0988 
G01 X-42.0063 Y43.0668 
G01 X-42.0064 Y43.0432 
G01 X-42.0045 Y43.0336 
G01 X-42.0051 Y43.0244 
G01 X-42.0021 Y43.0023 
G01 X-42.0065 Y42.9695 
G01 X-42.0065 Y42.9364 
G01 X-42.0122 Y42.9151 
G01 X-42.0130 Y42.9035 
G01 X-42.0165 Y42.8932 
G01 X-42.0191 Y42.8730 
G01 X-42.0318 Y42.8424 
G01 X-42.0404 Y42.8105 
G01 X-42.0505 Y42.7931 
G01 X-42.0549 Y42.7800 
G01 X-42.0621 Y42.7693 
G01 X-42.0690 Y42.7525 
G01 X-42.0892 Y42.7262 
G01 X-42.1058 Y42.6976 
G01 X-42.1184 Y42.6850 
G01 X-42.1363 Y42.6582 
G01 X-42.1488 Y42.6281 
G01 X-42.1551 Y42.5963 
G01 X-42.1551 Y42.2753 
G01 X-42.0789 Y42.2753 
G01 X-42.0789 Y42.5977 
G01 X-42.0654 Y42.6304 
G01 X-42.0404 Y42.6554 
G01 X-42.0077 Y42.6689 
G01 X-39.2723 Y42.6689 
G01 X-39.2396 Y42.6554 
G01 X-39.2146 Y42.6304 
G01 X-39.2011 Y42.5977 
G01 X-39.2011 Y42.2753 
G01 X-39.1249 Y42.2753 
G01 X-39.1249 Y42.5963 
G01 X-39.1312 Y42.6281 
G01 X-39.1437 Y42.6582 
G01 X-39.1616 Y42.6850 
G01 X-39.1742 Y42.6976 
G01 X-39.1908 Y42.7262 
G01 X-39.2110 Y42.7525 
G01 X-39.2179 Y42.7693 
G01 X-39.2251 Y42.7800 
G01 X-39.2295 Y42.7931 
G01 X-39.2396 Y42.8105 
G01 X-39.2482 Y42.8424 
G01 X-39.2609 Y42.8730 
G01 X-39.2635 Y42.8932 
G01 X-39.2670 Y42.9035 
G01 X-39.2678 Y42.9151 
G01 X-39.2735 Y42.9364 
G01 X-39.2735 Y42.9695 
G01 X-39.2779 Y43.0023 
G01 X-39.2749 Y43.0244 
G01 X-39.2755 Y43.0336 
G01 X-39.2736 Y43.0432 
G01 X-39.2737 Y43.0668 
G01 X-39.2651 Y43.0988 
G01 X-39.2608 Y43.1316 
G01 X-39.2517 Y43.1537 
G01 X-39.2501 Y43.1615 
G01 X-39.2464 Y43.1690 
G01 X-39.2401 Y43.1928 
G01 X-39.2236 Y43.2215 
G01 X-39.2109 Y43.2521 
G01 X-39.1957 Y43.2719 
G01 X-39.1924 Y43.2785 
G01 X-39.1875 Y43.2841 
G01 X-39.1750 Y43.3058 
G01 X-39.1516 Y43.3293 
G01 X-39.1315 Y43.3555 
G01 X-39.1113 Y43.3710 
G01 X-39.1064 Y43.3766 
G01 X-39.1005 Y43.3805 
G01 X-39.0829 Y43.3982 
G01 X-39.0739 Y43.4034 
G01 X-38.9347 Y43.5426 
G01 X-38.8709 Y43.6966 
G01 X-38.8709 Y44.8980 
G01 X-38.8371 Y45.0240 
G01 X-38.7719 Y45.1369 
G01 X-38.6797 Y45.2292 
G01 X-38.1433 Y45.7656 
G01 X-38.0303 Y45.8308 
G01 X-37.9043 Y45.8646 
G01 X-37.7739 Y45.8646 
G01 X-37.6533 Y45.8323 
G01 X-37.6480 Y45.8308 
G01 X-37.5350 Y45.7656 
G01 X-37.4428 Y45.6734 
G01 X-37.1677 Y45.3983 
G01 X-36.7896 Y45.2417 
G01 X-36.3804 Y45.2417 
G01 X-36.0023 Y45.3983 
G01 X-35.7113 Y45.6893 
G01 X-35.6269 Y45.7737 
G01 X-35.6191 Y45.7815 
G01 X-35.5096 Y45.8447 
G01 X-35.5062 Y45.8467 
G01 X-35.3802 Y45.8804 
G01 X-35.2498 Y45.8804 
G01 X-35.2444 Y45.8790 
G01 X-35.1238 Y45.8467 
G01 X-35.0134 Y45.7829 
G01 X-34.9187 Y45.6893 
G01 X-34.6277 Y45.3983 
G01 X-34.2496 Y45.2417 
G01 X-33.8404 Y45.2417 
G01 X-33.4623 Y45.3983 
G01 X-33.1713 Y45.6893 
G01 X-33.0791 Y45.7815 
G01 X-32.9662 Y45.8467 
G01 X-32.8402 Y45.8804 
G01 X-32.7098 Y45.8804 
G01 X-32.5838 Y45.8467 
G01 X-32.4709 Y45.7815 
G01 X-32.0877 Y45.3983 
G01 X-31.7096 Y45.2417 
G01 X-31.3004 Y45.2417 
G01 X-30.9223 Y45.3983 
G01 X-30.6313 Y45.6893 
G01 X-30.5469 Y45.7737 
G01 X-30.5391 Y45.7815 
G01 X-30.4296 Y45.8447 
G01 X-30.4262 Y45.8467 
G01 X-30.3002 Y45.8804 
G01 X-30.1698 Y45.8804 
G01 X-30.1644 Y45.8790 
G01 X-30.0438 Y45.8467 
G01 X-29.9334 Y45.7829 
G01 X-29.8387 Y45.6893 
G01 X-29.5477 Y45.3983 
G01 X-29.1696 Y45.2417 
G01 X-28.7604 Y45.2417 
G01 X-28.3823 Y45.3983 
G01 X-28.0913 Y45.6893 
G01 X-28.0069 Y45.7737 
G01 X-27.9991 Y45.7815 
G01 X-27.8896 Y45.8447 
G01 X-27.8862 Y45.8467 
G01 X-27.7602 Y45.8804 
G01 X-27.6298 Y45.8804 
G01 X-27.6244 Y45.8790 
G01 X-27.5038 Y45.8467 
G01 X-27.3934 Y45.7829 
G01 X-27.2987 Y45.6893 
G01 X-27.0077 Y45.3983 
G01 X-26.6296 Y45.2417 
G01 X-26.2204 Y45.2417 
G01 X-25.8423 Y45.3983 
G01 X-25.5513 Y45.6893 
G01 X-25.4669 Y45.7737 
G01 X-25.4591 Y45.7815 
G01 X-25.3496 Y45.8447 
G01 X-25.3462 Y45.8467 
G01 X-25.2202 Y45.8804 
G01 X-25.0898 Y45.8804 
G01 X-25.0844 Y45.8790 
G01 X-24.9638 Y45.8467 
G01 X-24.8534 Y45.7829 
G01 X-24.7587 Y45.6893 
G01 X-24.4677 Y45.3983 
G01 X-24.0896 Y45.2417 
G01 X-23.6804 Y45.2417 
G01 X-23.3023 Y45.3983 
G01 X-23.0113 Y45.6893 
G01 X-22.9269 Y45.7737 
G01 X-22.9191 Y45.7815 
G01 X-22.8096 Y45.8447 
G01 X-22.8062 Y45.8467 
G01 X-22.6802 Y45.8804 
G01 X-22.5498 Y45.8804 
G01 X-22.5444 Y45.8790 
G01 X-22.4238 Y45.8467 
G01 X-22.3134 Y45.7829 
G01 X-22.2187 Y45.6893 
G01 X-21.9277 Y45.3983 
G01 X-21.5496 Y45.2417 
G01 X-21.1404 Y45.2417 
G01 X-20.7623 Y45.3983 
G01 X-20.4713 Y45.6893 
G01 X-20.3869 Y45.7737 
G01 X-20.3791 Y45.7815 
G01 X-20.2696 Y45.8447 
G01 X-20.2662 Y45.8467 
G01 X-20.1402 Y45.8804 
G01 X-20.0098 Y45.8804 
G01 X-20.0044 Y45.8790 
G01 X-19.8838 Y45.8467 
G01 X-19.7734 Y45.7829 
G01 X-19.6787 Y45.6893 
G01 X-19.3877 Y45.3983 
G01 X-19.0096 Y45.2417 
G01 X-18.6004 Y45.2417 
G01 X-18.2223 Y45.3983 
G01 X-17.8391 Y45.7815 
G01 X-17.7262 Y45.8467 
G01 X-17.6002 Y45.8804 
G01 X-17.4698 Y45.8804 
G01 X-17.3492 Y45.8481 
G01 X-17.3438 Y45.8467 
G01 X-17.2309 Y45.7815 
G01 X-17.1387 Y45.6893 
G01 X-16.8477 Y45.3983 
G01 X-16.4696 Y45.2417 
G01 X-16.0604 Y45.2417 
G01 X-15.6823 Y45.3983 
G01 X-15.3929 Y45.6877 
G01 X-15.2363 Y46.0658 
G01 X-15.2363 Y47.6942 
G01 X-15.2878 Y47.8185 
G01 X-15.3041 Y47.8468 
G01 X-15.3126 Y47.8785 
G01 X-15.3251 Y47.9087 
G01 X-15.3294 Y47.9412 
G01 X-15.3379 Y47.9728 
G01 X-15.3379 Y48.0055 
G01 X-15.3422 Y48.0380 
G01 X-15.3379 Y48.0705 
G01 X-15.3379 Y54.2398 
G01 X-15.3422 Y54.2722 
G01 X-15.3379 Y54.3047 
G01 X-15.3379 Y54.3375 
G01 X-15.3294 Y54.3691 
G01 X-15.3251 Y54.4015 
G01 X-15.3126 Y54.4318 
G01 X-15.3041 Y54.4634 
G01 X-15.2878 Y54.4918 
G01 X-15.1257 Y54.8831 
G01 X-15.1257 Y56.8769 
G01 X-15.3055 Y57.3110 
G01 X-15.6378 Y57.6433 
G01 X-16.0719 Y57.8231 
G01 X-16.5417 Y57.8231 
G01 X-16.9758 Y57.6433 
G01 X-17.1805 Y57.4387 
G01 X-17.2662 Y57.3529 
G01 X-17.2727 Y57.3464 
G01 X-17.3190 Y57.3197 
G01 X-17.3856 Y57.2812 
G01 X-17.5116 Y57.2475 
G01 X-17.6420 Y57.2475 
G01 X-17.7680 Y57.2812 
G01 X-17.8784 Y57.3450 
G01 X-17.9731 Y57.4387 
G01 X-18.1778 Y57.6433 
G01 X-18.6119 Y57.8231 
G01 X-19.0817 Y57.8231 
G01 X-19.5158 Y57.6433 
G01 X-19.7205 Y57.4387 
G01 X-19.8062 Y57.3529 
G01 X-19.8127 Y57.3464 
G01 X-19.8590 Y57.3197 
G01 X-19.9256 Y57.2812 
G01 X-20.0516 Y57.2475 
G01 X-20.1820 Y57.2475 
G01 X-20.3080 Y57.2812 
G01 X-20.4184 Y57.3450 
G01 X-20.5131 Y57.4387 
G01 X-20.7178 Y57.6433 
G01 X-21.1519 Y57.8231 
G01 X-21.6217 Y57.8231 
G01 X-22.0558 Y57.6433 
G01 X-22.2605 Y57.4387 
G01 X-22.3462 Y57.3529 
G01 X-22.3527 Y57.3464 
G01 X-22.3990 Y57.3197 
G01 X-22.4656 Y57.2812 
G01 X-22.5916 Y57.2475 
G01 X-22.7220 Y57.2475 
G01 X-22.8480 Y57.2812 
G01 X-22.9584 Y57.3450 
G01 X-23.0531 Y57.4387 
G01 X-23.2578 Y57.6433 
G01 X-23.6919 Y57.8231 
G01 X-24.1617 Y57.8231 
G01 X-24.5958 Y57.6433 
G01 X-24.8005 Y57.4387 
G01 X-24.8862 Y57.3529 
G01 X-24.8927 Y57.3464 
G01 X-24.9390 Y57.3197 
G01 X-25.0056 Y57.2812 
G01 X-25.1316 Y57.2475 
G01 X-25.2620 Y57.2475 
G01 X-25.3880 Y57.2812 
G01 X-25.4984 Y57.3450 
G01 X-25.5931 Y57.4387 
G01 X-25.7978 Y57.6433 
G01 X-26.2319 Y57.8231 
G01 X-26.7017 Y57.8231 
G01 X-27.1358 Y57.6433 
G01 X-27.3405 Y57.4387 
G01 X-27.4262 Y57.3529 
G01 X-27.4327 Y57.3464 
G01 X-27.4790 Y57.3197 
G01 X-27.5456 Y57.2812 
G01 X-27.6716 Y57.2475 
G01 X-27.8020 Y57.2475 
G01 X-27.9280 Y57.2812 
G01 X-28.0384 Y57.3450 
G01 X-28.1331 Y57.4387 
G01 X-28.3378 Y57.6433 
G01 X-28.7719 Y57.8231 
G01 X-29.2417 Y57.8231 
G01 X-29.6758 Y57.6433 
G01 X-29.8805 Y57.4387 
G01 X-29.9727 Y57.3464 
G01 X-30.0707 Y57.2899 
G01 X-30.0856 Y57.2812 
G01 X-30.2116 Y57.2475 
G01 X-30.3420 Y57.2475 
G01 X-30.4680 Y57.2812 
G01 X-30.5809 Y57.3464 
G01 X-30.8778 Y57.6433 
G01 X-31.3119 Y57.8231 
G01 X-31.7817 Y57.8231 
G01 X-32.2158 Y57.6433 
G01 X-32.4205 Y57.4387 
G01 X-32.5062 Y57.3529 
G01 X-32.5127 Y57.3464 
G01 X-32.5590 Y57.3197 
G01 X-32.6256 Y57.2812 
G01 X-32.7516 Y57.2475 
G01 X-32.8820 Y57.2475 
G01 X-33.0080 Y57.2812 
G01 X-33.1184 Y57.3450 
G01 X-33.2131 Y57.4387 
G01 X-33.4178 Y57.6433 
G01 X-33.8519 Y57.8231 
G01 X-34.3217 Y57.8231 
G01 X-34.7558 Y57.6433 
G01 X-35.0881 Y57.3110 
G01 X-35.2679 Y56.8769 
G01 X-35.2679 Y54.8831 
G01 X-35.0881 Y54.4490 
G01 X-35.0711 Y54.4319 
G01 X-35.0059 Y54.3190 
G01 X-34.9813 Y54.2274 
G01 X-34.9721 Y54.1930 
G01 X-34.9721 Y54.1285 
G01 X-34.9721 Y54.0626 
G01 X-34.9721 Y49.9898 
G01 X-34.9678 Y49.9573 
G01 X-34.9721 Y49.9248 
G01 X-34.9721 Y49.8921 
G01 X-34.9806 Y49.8604 
G01 X-34.9848 Y49.8280 
G01 X-34.9974 Y49.7977 
G01 X-35.0059 Y49.7661 
G01 X-35.0222 Y49.7377 
G01 X-35.0348 Y49.7075 
G01 X-35.0547 Y49.6815 
G01 X-35.0711 Y49.6532 
G01 X-35.0942 Y49.6300 
G01 X-35.1141 Y49.6040 
G01 X-35.1401 Y49.5841 
G01 X-35.1633 Y49.5609 
G01 X-35.1916 Y49.5446 
G01 X-35.2176 Y49.5246 
G01 X-35.2479 Y49.5121 
G01 X-35.2762 Y49.4957 
G01 X-35.3078 Y49.4873 
G01 X-35.3381 Y49.4747 
G01 X-35.3706 Y49.4705 
G01 X-35.4022 Y49.4620 
G01 X-35.4349 Y49.4620 
G01 X-35.4674 Y49.4577 
G01 X-35.4999 Y49.4620 
G01 X-35.5326 Y49.4620 
G01 X-35.5642 Y49.4705 
G01 X-35.5967 Y49.4747 
G01 X-35.6269 Y49.4873 
G01 X-35.6586 Y49.4957 
G01 X-35.6869 Y49.5121 
G01 X-35.7172 Y49.5246 
G01 X-35.7432 Y49.5446 
G01 X-35.7715 Y49.5609 
G01 X-35.7947 Y49.5841 
G01 X-35.8207 Y49.6040 
G01 X-35.8406 Y49.6300 
G01 X-35.8637 Y49.6532 
G01 X-35.8801 Y49.6815 
G01 X-35.9000 Y49.7075 
G01 X-35.9126 Y49.7377 
G01 X-35.9289 Y49.7661 
G01 X-35.9374 Y49.7977 
G01 X-36.0440 Y50.0552 
G01 X-36.4206 Y50.4317 
G01 X-36.4389 Y50.4501 
G01 X-36.5041 Y50.5630 
G01 X-36.5379 Y50.6890 
G01 X-36.5379 Y58.5310 
G01 X-36.5041 Y58.6570 
G01 X-36.4389 Y58.7699 
G01 X-36.3467 Y58.8622 
G01 X-35.2749 Y59.9339 
G01 X-35.1620 Y59.9991 
G01 X-35.0360 Y60.0329 
G01 X-11.9540 Y60.0329 
G01 X-11.8280 Y59.9991 
G01 X-11.7150 Y59.9339 
G01 X-11.6228 Y59.8417 
G01 X-8.0111 Y56.2299 
G01 X-7.9459 Y56.1170 
G01 X-7.9121 Y55.9910 
G01 X-7.9121 Y47.9284 
G01 X-7.9078 Y47.8960 
G01 X-7.9121 Y47.8635 
G01 X-7.9121 Y47.8308 
G01 X-7.9206 Y47.7991 
G01 X-7.9248 Y47.7667 
G01 X-7.9374 Y47.7364 
G01 X-7.9459 Y47.7048 
G01 X-7.9622 Y47.6764 
G01 X-7.9748 Y47.6462 
G01 X-7.9947 Y47.6202 
G01 X-8.0111 Y47.5919 
G01 X-8.0342 Y47.5687 
G01 X-8.0541 Y47.5427 
G01 X-8.0801 Y47.5228 
G01 X-8.1033 Y47.4996 
G01 X-8.1316 Y47.4833 
G01 X-8.1576 Y47.4633 
G01 X-8.1879 Y47.4508 
G01 X-8.2162 Y47.4344 
G01 X-8.2478 Y47.4260 
G01 X-8.4160 Y47.3563 
G01 X-8.7483 Y47.0240 
G01 X-8.9281 Y46.5899 
G01 X-8.9281 Y46.1201 
G01 X-8.7483 Y45.6860 
G01 X-8.4514 Y45.3891 
G01 X-8.3862 Y45.2762 
G01 X-8.3525 Y45.1502 
G01 X-8.3525 Y45.0198 
G01 X-8.3862 Y44.8938 
G01 X-8.4231 Y44.8300 
G01 X-8.4514 Y44.7809 
G01 X-8.5437 Y44.6887 
G01 X-8.7483 Y44.4840 
G01 X-8.9281 Y44.0499 
G01 X-8.9281 Y43.5801 
G01 X-8.7483 Y43.1460 
G01 X-8.4514 Y42.8491 
G01 X-8.3862 Y42.7362 
G01 X-8.3525 Y42.6102 
G01 X-8.3525 Y42.4798 
G01 X-8.3862 Y42.3538 
G01 X-8.4231 Y42.2900 
G01 X-8.4514 Y42.2409 
G01 X-8.5437 Y42.1487 
G01 X-8.7483 Y41.9440 
G01 X-8.9281 Y41.5099 
G01 X-8.9281 Y41.0401 
G01 X-8.7483 Y40.6060 
G01 X-8.4160 Y40.2737 
G01 X-8.4025 Y40.2681 
G01 X-8.3973 Y40.2641 
G01 X-8.3912 Y40.2614 
G01 X-8.3456 Y40.2244 
G01 X-8.2990 Y40.1887 
G01 X-8.2950 Y40.1835 
G01 X-8.2899 Y40.1793 
G01 X-8.2554 Y40.1318 
G01 X-8.2196 Y40.0853 
G01 X-8.2171 Y40.0792 
G01 X-8.2132 Y40.0738 
G01 X-8.1922 Y40.0190 
G01 X-8.1697 Y39.9648 
G01 X-8.1689 Y39.9582 
G01 X-8.1665 Y39.9521 
G01 X-8.1604 Y39.8937 
G01 X-8.1527 Y39.8355 
G01 X-8.1536 Y39.8289 
G01 X-8.1529 Y39.8224 
G01 X-8.1621 Y39.7644 
G01 X-8.1697 Y39.7062 
G01 X-8.1723 Y39.7001 
G01 X-8.1733 Y39.6935 
G01 X-8.1972 Y39.6399 
G01 X-8.2196 Y39.5857 
G01 X-8.2236 Y39.5804 
G01 X-8.2263 Y39.5744 
G01 X-8.2633 Y39.5288 
G01 X-8.2990 Y39.4822 
G01 X-8.3043 Y39.4782 
G01 X-8.3084 Y39.4731 
G01 X-8.3510 Y39.4421 
G01 X-8.4542 Y39.3390 
G01 X-8.5331 Y39.2303 
G01 X-8.4394 Y39.2303 
G01 X-8.4079 Y39.2774 
G01 X-8.2894 Y39.3959 
G01 X-8.1501 Y39.4891 
G01 X-7.9952 Y39.5532 
G01 X-7.8308 Y39.5859 
G01 X-6.1392 Y39.5859 
G01 X-5.9748 Y39.5532 
G01 X-5.8199 Y39.4891 
G01 X-5.6806 Y39.3959 
G01 X-5.5621 Y39.2774 
G01 X-5.5306 Y39.2303 
G01 X-5.4369 Y39.2303 
G01 X-5.5158 Y39.3390 
G01 X-5.6190 Y39.4421 
G01 X-5.6616 Y39.4731 
G01 X-5.6657 Y39.4782 
G01 X-5.6710 Y39.4822 
G01 X-5.7067 Y39.5288 
G01 X-5.7437 Y39.5744 
G01 X-5.7464 Y39.5804 
G01 X-5.7504 Y39.5857 
G01 X-5.7728 Y39.6399 
G01 X-5.7967 Y39.6935 
G01 X-5.7977 Y39.7001 
G01 X-5.8003 Y39.7062 
G01 X-5.8079 Y39.7644 
G01 X-5.8171 Y39.8224 
G01 X-5.8164 Y39.8289 
G01 X-5.8173 Y39.8355 
G01 X-5.8096 Y39.8937 
G01 X-5.8035 Y39.9521 
G01 X-5.8011 Y39.9582 
G01 X-5.8003 Y39.9648 
G01 X-5.7778 Y40.0190 
G01 X-5.7568 Y40.0738 
G01 X-5.7529 Y40.0792 
G01 X-5.7504 Y40.0853 
G01 X-5.7146 Y40.1318 
G01 X-5.6801 Y40.1793 
G01 X-5.6750 Y40.1835 
G01 X-5.6710 Y40.1887 
G01 X-5.6244 Y40.2244 
G01 X-5.5788 Y40.2614 
G01 X-5.5727 Y40.2641 
G01 X-5.5675 Y40.2681 
G01 X-5.5540 Y40.2737 
G01 X-5.2217 Y40.6060 
G01 X-5.0674 Y40.9785 
G01 X-5.0589 Y41.0101 
G01 X-5.0426 Y41.0385 
G01 X-5.0300 Y41.0687 
G01 X-5.0101 Y41.0947 
G01 X-4.9937 Y41.1230 
G01 X-4.9706 Y41.1462 
G01 X-4.9506 Y41.1722 
G01 X-4.9247 Y41.1921 
G01 X-4.9015 Y41.2152 
G01 X-4.8732 Y41.2316 
G01 X-4.8472 Y41.2516 
G01 X-4.8169 Y41.2641 
G01 X-4.7980 Y41.2750 
G01 X-4.8169 Y41.2859 
G01 X-4.8472 Y41.2984 
G01 X-4.8732 Y41.3184 
G01 X-4.9015 Y41.3347 
G01 X-4.9247 Y41.3579 
G01 X-4.9506 Y41.3778 
G01 X-4.9706 Y41.4038 
G01 X-4.9937 Y41.4270 
G01 X-5.0101 Y41.4553 
G01 X-5.0300 Y41.4813 
G01 X-5.0426 Y41.5115 
G01 X-5.0589 Y41.5399 
G01 X-5.0674 Y41.5715 
G01 X-5.2217 Y41.9440 
G01 X-5.4263 Y42.1487 
G01 X-5.5121 Y42.2344 
G01 X-5.5185 Y42.2409 
G01 X-5.5453 Y42.2872 
G01 X-5.5838 Y42.3538 
G01 X-5.6175 Y42.4798 
G01 X-5.6175 Y42.6102 
G01 X-5.5838 Y42.7362 
G01 X-5.5200 Y42.8466 
G01 X-5.4263 Y42.9413 
G01 X-5.2217 Y43.1460 
G01 X-5.0674 Y43.5185 
G01 X-5.0589 Y43.5501 
G01 X-5.0426 Y43.5785 
G01 X-5.0300 Y43.6087 
G01 X-5.0101 Y43.6347 
G01 X-4.9937 Y43.6630 
G01 X-4.9706 Y43.6862 
G01 X-4.9506 Y43.7122 
G01 X-4.9247 Y43.7321 
G01 X-4.9015 Y43.7552 
G01 X-4.8732 Y43.7716 
G01 X-4.8472 Y43.7916 
G01 X-4.8169 Y43.8041 
G01 X-4.7980 Y43.8150 
G01 X-4.8169 Y43.8259 
G01 X-4.8472 Y43.8384 
G01 X-4.8732 Y43.8584 
G01 X-4.9015 Y43.8747 
G01 X-4.9247 Y43.8979 
G01 X-4.9506 Y43.9178 
G01 X-4.9706 Y43.9438 
G01 X-4.9937 Y43.9670 
G01 X-5.0101 Y43.9953 
G01 X-5.0300 Y44.0213 
G01 X-5.0426 Y44.0515 
G01 X-5.0589 Y44.0799 
G01 X-5.0674 Y44.1115 
G01 X-5.2217 Y44.4840 
G01 X-5.4263 Y44.6887 
G01 X-5.5121 Y44.7744 
G01 X-5.5185 Y44.7809 
G01 X-5.5453 Y44.8272 
G01 X-5.5838 Y44.8938 
G01 X-5.6175 Y45.0198 
G01 X-5.6175 Y45.1502 
G01 X-5.5838 Y45.2762 
G01 X-5.5200 Y45.3866 
G01 X-5.4263 Y45.4813 
G01 X-5.2217 Y45.6860 
G01 X-5.0674 Y46.0585 
G01 X-5.0589 Y46.0901 
G01 X-5.0426 Y46.1185 
G01 X-5.0300 Y46.1487 
G01 X-5.0101 Y46.1747 
G01 X-4.9937 Y46.2030 
G01 X-4.9706 Y46.2262 
G01 X-4.9506 Y46.2522 
G01 X-4.9247 Y46.2721 
G01 X-4.9015 Y46.2952 
G01 X-4.8732 Y46.3116 
G01 X-4.8472 Y46.3316 
G01 X-4.8169 Y46.3441 
G01 X-4.7980 Y46.3550 
G01 X-4.8169 Y46.3659 
G01 X-4.8472 Y46.3784 
G01 X-4.8732 Y46.3984 
G01 X-4.9015 Y46.4147 
G01 X-4.9247 Y46.4379 
G01 X-4.9506 Y46.4578 
G01 X-4.9706 Y46.4838 
G01 X-4.9937 Y46.5070 
G01 X-5.0101 Y46.5353 
G01 X-5.0300 Y46.5613 
G01 X-5.0426 Y46.5915 
G01 X-5.0589 Y46.6199 
G01 X-5.0674 Y46.6515 
G01 X-5.2217 Y47.0240 
G01 X-5.5540 Y47.3563 
G01 X-5.7221 Y47.4260 
G01 X-5.7538 Y47.4344 
G01 X-5.7821 Y47.4508 
G01 X-5.8124 Y47.4633 
G01 X-5.8384 Y47.4833 
G01 X-5.8667 Y47.4996 
G01 X-5.8899 Y47.5228 
G01 X-5.9158 Y47.5427 
G01 X-5.9358 Y47.5687 
G01 X-5.9589 Y47.5919 
G01 X-5.9753 Y47.6202 
G01 X-5.9952 Y47.6462 
G01 X-6.0078 Y47.6764 
G01 X-6.0241 Y47.7048 
G01 X-6.0326 Y47.7364 
G01 X-6.0451 Y47.7667 
G01 X-6.0494 Y47.7991 
G01 X-6.0579 Y47.8308 
G01 X-6.0579 Y47.8635 
G01 X-6.0622 Y47.8960 
G01 X-6.0579 Y47.9284 
G01 X-6.0579 Y56.6994 
G01 X-6.1990 Y57.0402 
G01 X-10.5283 Y61.3694 
G01 X-10.5498 Y61.3909 
G01 X-10.6205 Y61.4616 
G01 X-10.8401 Y61.6813 
G01 X-10.9261 Y61.7672 
G01 X-10.9324 Y61.7735 
G01 X-10.9591 Y61.8198 
G01 X-10.9976 Y61.8864 
G01 X-11.0313 Y62.0124 
G01 X-11.0313 Y62.1428 
G01 X-10.9976 Y62.2688 
G01 X-10.9338 Y62.3792 
G01 X-10.8401 Y62.4739 
G01 X-10.7939 Y62.5007 
G01 X-10.7272 Y62.5391 
G01 X-10.6012 Y62.5729 
G01 X-10.0490 Y62.5729 
G01 X-9.9230 Y62.5391 
G01 X-9.8101 Y62.4739 
G01 X-9.7178 Y62.3817 
G01 X-4.2011 Y56.8649 
G01 X-4.1358 Y56.7520 
G01 X-4.1021 Y56.6260 
G01 X-4.1021 Y46.8436 
G01 X-4.0978 Y46.8111 
G01 X-4.1021 Y46.7786 
G01 X-4.1021 Y46.7459 
G01 X-4.1106 Y46.7142 
G01 X-4.1148 Y46.6818 
G01 X-4.1274 Y46.6515 
G01 X-4.1358 Y46.6199 
G01 X-4.1522 Y46.5915 
G01 X-4.1648 Y46.5613 
G01 X-4.1847 Y46.5353 
G01 X-4.2011 Y46.5070 
G01 X-4.2242 Y46.4838 
G01 X-4.2441 Y46.4578 
G01 X-4.2701 Y46.4379 
G01 X-4.2933 Y46.4147 
G01 X-4.3216 Y46.3984 
G01 X-4.3476 Y46.3784 
G01 X-4.3779 Y46.3659 
G01 X-4.3968 Y46.3550 
G01 X-4.3779 Y46.3441 
G01 X-4.3476 Y46.3316 
G01 X-4.3216 Y46.3116 
G01 X-4.2933 Y46.2952 
G01 X-4.2701 Y46.2721 
G01 X-4.2441 Y46.2522 
G01 X-4.2242 Y46.2262 
G01 X-4.2011 Y46.2030 
G01 X-4.1847 Y46.1747 
G01 X-4.1648 Y46.1487 
G01 X-4.1522 Y46.1184 
G01 X-4.1358 Y46.0901 
G01 X-4.1274 Y46.0585 
G01 X-4.1148 Y46.0282 
G01 X-4.1106 Y45.9957 
G01 X-4.1021 Y45.9641 
G01 X-4.1021 Y45.9314 
G01 X-4.0978 Y45.8989 
G01 X-4.1021 Y45.8664 
G01 X-4.1021 Y44.3036 
G01 X-4.0978 Y44.2711 
G01 X-4.1021 Y44.2386 
G01 X-4.1021 Y44.2059 
G01 X-4.1106 Y44.1742 
G01 X-4.1148 Y44.1418 
G01 X-4.1274 Y44.1115 
G01 X-4.1358 Y44.0799 
G01 X-4.1522 Y44.0515 
G01 X-4.1648 Y44.0213 
G01 X-4.1847 Y43.9953 
G01 X-4.2011 Y43.9670 
G01 X-4.2242 Y43.9438 
G01 X-4.2441 Y43.9178 
G01 X-4.2701 Y43.8979 
G01 X-4.2933 Y43.8747 
G01 X-4.3216 Y43.8584 
G01 X-4.3476 Y43.8384 
G01 X-4.3779 Y43.8259 
G01 X-4.3968 Y43.8150 
G01 X-4.3779 Y43.8041 
G01 X-4.3476 Y43.7916 
G01 X-4.3216 Y43.7716 
G01 X-4.2933 Y43.7552 
G01 X-4.2701 Y43.7321 
G01 X-4.2441 Y43.7122 
G01 X-4.2242 Y43.6862 
G01 X-4.2011 Y43.6630 
G01 X-4.1847 Y43.6347 
G01 X-4.1648 Y43.6087 
G01 X-4.1522 Y43.5784 
G01 X-4.1358 Y43.5501 
G01 X-4.1274 Y43.5185 
G01 X-4.1148 Y43.4882 
G01 X-4.1106 Y43.4557 
G01 X-4.1021 Y43.4241 
G01 X-4.1021 Y43.3914 
G01 X-4.0978 Y43.3589 
G01 X-4.1021 Y43.3264 
G01 X-4.1021 Y41.7636 
G01 X-4.0978 Y41.7311 
G01 X-4.1021 Y41.6986 
G01 X-4.1021 Y41.6659 
G01 X-4.1106 Y41.6343 
G01 X-4.1148 Y41.6018 
G01 X-4.1274 Y41.5715 
G01 X-4.1358 Y41.5399 
G01 X-4.1522 Y41.5116 
G01 X-4.1648 Y41.4813 
G01 X-4.1847 Y41.4553 
G01 X-4.2011 Y41.4270 
G01 X-4.2242 Y41.4038 
G01 X-4.2441 Y41.3778 
G01 X-4.2701 Y41.3579 
G01 X-4.2933 Y41.3347 
G01 X-4.3216 Y41.3184 
G01 X-4.3476 Y41.2984 
G01 X-4.3779 Y41.2859 
G01 X-4.3968 Y41.2750 
G01 X-4.3779 Y41.2641 
G01 X-4.3476 Y41.2516 
G01 X-4.3216 Y41.2316 
G01 X-4.2933 Y41.2152 
G01 X-4.2701 Y41.1921 
G01 X-4.2441 Y41.1722 
G01 X-4.2242 Y41.1462 
G01 X-4.2011 Y41.1230 
G01 X-4.1847 Y41.0947 
G01 X-4.1648 Y41.0687 
G01 X-4.1522 Y41.0384 
G01 X-4.1358 Y41.0101 
G01 X-4.1274 Y40.9785 
G01 X-4.1148 Y40.9482 
G01 X-4.1106 Y40.9157 
G01 X-4.1021 Y40.8841 
G01 X-4.1021 Y40.8514 
G01 X-4.0978 Y40.8189 
G01 X-4.1021 Y40.7864 
G01 X-4.1021 Y31.6036 
G01 X-4.0978 Y31.5711 
G01 X-4.1021 Y31.5386 
G01 X-4.1021 Y31.5059 
G01 X-4.1106 Y31.4742 
G01 X-4.1148 Y31.4418 
G01 X-4.1274 Y31.4115 
G01 X-4.1358 Y31.3799 
G01 X-4.1522 Y31.3515 
G01 X-4.1648 Y31.3213 
G01 X-4.1847 Y31.2953 
G01 X-4.2011 Y31.2670 
G01 X-4.2242 Y31.2438 
G01 X-4.2441 Y31.2178 
G01 X-4.2701 Y31.1979 
G01 X-4.2933 Y31.1747 
G01 X-4.3216 Y31.1584 
G01 X-4.3476 Y31.1384 
G01 X-4.3779 Y31.1259 
G01 X-4.3968 Y31.1150 
G01 X-4.3779 Y31.1041 
G01 X-4.3476 Y31.0916 
G01 X-4.3216 Y31.0716 
G01 X-4.2933 Y31.0552 
G01 X-4.2701 Y31.0321 
G01 X-4.2441 Y31.0122 
G01 X-4.2242 Y30.9862 
G01 X-4.2011 Y30.9630 
G01 X-4.1847 Y30.9347 
G01 X-4.1648 Y30.9087 
G01 X-4.1522 Y30.8784 
G01 X-4.1358 Y30.8501 
G01 X-4.1274 Y30.8184 
G01 X-4.1148 Y30.7882 
G01 X-4.1106 Y30.7557 
G01 X-4.1021 Y30.7241 
G01 X-4.1021 Y30.6914 
G01 X-4.0978 Y30.6589 
G01 X-4.1021 Y30.6264 
G01 X-4.1021 Y29.0636 
G01 X-4.0978 Y29.0311 
G01 X-4.1021 Y28.9986 
G01 X-4.1021 Y28.9659 
G01 X-4.1106 Y28.9342 
G01 X-4.1148 Y28.9018 
G01 X-4.1274 Y28.8715 
G01 X-4.1358 Y28.8399 
G01 X-4.1522 Y28.8115 
G01 X-4.1648 Y28.7813 
G01 X-4.1847 Y28.7553 
G01 X-4.2011 Y28.7270 
G01 X-4.2242 Y28.7038 
G01 X-4.2441 Y28.6778 
G01 X-4.2701 Y28.6579 
G01 X-4.2933 Y28.6347 
G01 X-4.3216 Y28.6184 
G01 X-4.3476 Y28.5984 
G01 X-4.3779 Y28.5859 
G01 X-4.4062 Y28.5695 
G01 X-4.4378 Y28.5611 
G01 X-4.4681 Y28.5485 
G01 X-4.5006 Y28.5443 
G01 X-4.5322 Y28.5358 
G01 X-4.5649 Y28.5358 
G01 X-4.5974 Y28.5315 
G01 X-4.6299 Y28.5358 
G01 X-4.6626 Y28.5358 
G01 X-4.6942 Y28.5443 
G01 X-4.7267 Y28.5485 
G01 X-4.7569 Y28.5611 
G01 X-4.7886 Y28.5695 
G01 X-4.8169 Y28.5859 
G01 X-4.8472 Y28.5984 
G01 X-4.8732 Y28.6184 
G01 X-4.9015 Y28.6347 
G01 X-4.9247 Y28.6579 
G01 X-4.9506 Y28.6778 
G01 X-4.9706 Y28.7038 
G01 X-4.9937 Y28.7270 
G01 X-5.0101 Y28.7553 
G01 X-5.0300 Y28.7813 
G01 X-5.0426 Y28.8115 
G01 X-5.0589 Y28.8399 
G01 X-5.0674 Y28.8715 
G01 X-5.2217 Y29.2440 
G01 X-5.4263 Y29.4487 
G01 X-5.5121 Y29.5344 
G01 X-5.5185 Y29.5409 
G01 X-5.5453 Y29.5872 
G01 X-5.5838 Y29.6538 
G01 X-5.6175 Y29.7798 
G01 X-5.6175 Y29.9102 
G01 X-5.5838 Y30.0362 
G01 X-5.5200 Y30.1466 
G01 X-5.4263 Y30.2413 
G01 X-5.2217 Y30.4460 
G01 X-5.0674 Y30.8184 
G01 X-5.0589 Y30.8501 
G01 X-5.0426 Y30.8785 
G01 X-5.0300 Y30.9087 
G01 X-5.0101 Y30.9347 
G01 X-4.9937 Y30.9630 
G01 X-4.9706 Y30.9862 
G01 X-4.9506 Y31.0122 
G01 X-4.9247 Y31.0321 
G01 X-4.9015 Y31.0552 
G01 X-4.8732 Y31.0716 
G01 X-4.8472 Y31.0916 
G01 X-4.8169 Y31.1041 
G01 X-4.7980 Y31.1150 
G01 X-4.8169 Y31.1259 
G01 X-4.8472 Y31.1384 
G01 X-4.8732 Y31.1584 
G01 X-4.9015 Y31.1747 
G01 X-4.9247 Y31.1979 
G01 X-4.9506 Y31.2178 
G01 X-4.9706 Y31.2438 
G01 X-4.9937 Y31.2670 
G01 X-5.0101 Y31.2953 
G01 X-5.0300 Y31.3213 
G01 X-5.0426 Y31.3515 
G01 X-5.0589 Y31.3799 
G01 X-5.0674 Y31.4115 
G01 X-5.2217 Y31.7840 
G01 X-5.5540 Y32.1163 
G01 X-5.5675 Y32.1219 
G01 X-5.5727 Y32.1259 
G01 X-5.5788 Y32.1286 
G01 X-5.6244 Y32.1656 
G01 X-5.6710 Y32.2013 
G01 X-5.6750 Y32.2065 
G01 X-5.6801 Y32.2107 
G01 X-5.7146 Y32.2582 
G01 X-5.7504 Y32.3047 
G01 X-5.7529 Y32.3108 
G01 X-5.7568 Y32.3162 
G01 X-5.7778 Y32.3710 
G01 X-5.8003 Y32.4252 
G01 X-5.8011 Y32.4318 
G01 X-5.8035 Y32.4379 
G01 X-5.8096 Y32.4963 
G01 X-5.8173 Y32.5545 
G01 X-5.8164 Y32.5611 
G01 X-5.8171 Y32.5676 
G01 X-5.8079 Y32.6256 
G01 X-5.8003 Y32.6838 
G01 X-5.7977 Y32.6899 
G01 X-5.7967 Y32.6964 
G01 X-5.7728 Y32.7501 
G01 X-5.7504 Y32.8043 
G01 X-5.7464 Y32.8095 
G01 X-5.7437 Y32.8156 
G01 X-5.7067 Y32.8612 
G01 X-5.6710 Y32.9078 
G01 X-5.6657 Y32.9118 
G01 X-5.6616 Y32.9169 
G01 X-5.6190 Y32.9478 
G01 X-5.5158 Y33.0510 
G01 X-5.4369 Y33.1597 
G01 X-5.5306 Y33.1597 
G01 X-5.5621 Y33.1126 
G01 X-5.6806 Y32.9941 
G01 X-5.8199 Y32.9009 
G01 X-5.9748 Y32.8368 
G01 X-6.1392 Y32.8041 
G01 X-7.8308 Y32.8041 
G01 X-7.9952 Y32.8368 
G01 X-8.1501 Y32.9009 
G01 X-8.2894 Y32.9941 
G01 X-8.4079 Y33.1126 
G01 X-8.4394 Y33.1597 
G01 X-8.5331 Y33.1597 
G01 X-8.4542 Y33.0510 
G01 X-8.3510 Y32.9478 
G01 X-8.3084 Y32.9169 
G01 X-8.3043 Y32.9118 
G01 X-8.2990 Y32.9078 
G01 X-8.2633 Y32.8612 
G01 X-8.2263 Y32.8156 
G01 X-8.2236 Y32.8095 
G01 X-8.2196 Y32.8043 
G01 X-8.1972 Y32.7501 
G01 X-8.1733 Y32.6964 
G01 X-8.1723 Y32.6899 
G01 X-8.1697 Y32.6838 
G01 X-8.1621 Y32.6256 
G01 X-8.1529 Y32.5676 
G01 X-8.1536 Y32.5611 
G01 X-8.1527 Y32.5545 
G01 X-8.1604 Y32.4963 
G01 X-8.1665 Y32.4379 
G01 X-8.1689 Y32.4318 
G01 X-8.1697 Y32.4252 
G01 X-8.1922 Y32.3710 
G01 X-8.2132 Y32.3162 
G01 X-8.2171 Y32.3108 
G01 X-8.2196 Y32.3047 
G01 X-8.2554 Y32.2582 
G01 X-8.2899 Y32.2107 
G01 X-8.2950 Y32.2065 
G01 X-8.2990 Y32.2013 
G01 X-8.3456 Y32.1656 
G01 X-8.3912 Y32.1286 
G01 X-8.3973 Y32.1259 
G01 X-8.4025 Y32.1219 
G01 X-8.4160 Y32.1163 
G01 X-8.7483 Y31.7840 
G01 X-8.9281 Y31.3499 
G01 X-8.9281 Y30.8801 
G01 X-8.7483 Y30.4460 
G01 X-8.4514 Y30.1491 
G01 X-8.3862 Y30.0362 
G01 X-8.3525 Y29.9102 
G01 X-8.3525 Y29.7798 
G01 X-8.3862 Y29.6538 
G01 X-8.4231 Y29.5900 
G01 X-8.4514 Y29.5409 
G01 X-8.5437 Y29.4487 
G01 X-8.7483 Y29.2440 
G01 X-8.9281 Y28.8099 
G01 X-8.9281 Y28.3401 
G01 X-8.7483 Y27.9060 
G01 X-8.6961 Y27.8537 
G01 X-8.6059 Y27.7635 
G01 X-8.5386 Y27.6486 
G01 X-8.5195 Y27.5770 
G01 X-8.5049 Y27.5226 
G01 X-8.5049 Y27.3922 
G01 X-8.5386 Y27.2662 
G01 X-8.6038 Y27.1533 
G01 X-8.6946 Y27.0625 
G01 X-8.8090 Y26.9959 
G01 X-8.8806 Y26.9767 
G01 X-8.9350 Y26.9621 
G01 X-9.7094 Y26.9621 
G01 X-10.0502 Y26.8210 
G01 X-10.4267 Y26.4444 
G01 X-12.2160 Y24.6552 
G01 X-12.3571 Y24.3144 
G01 X-12.3571 Y17.6690 
G01 X-12.3909 Y17.5430 
G01 X-12.4561 Y17.4301 
G01 X-12.5483 Y17.3378 
G01 X-18.7001 Y11.1861 
G00 Z2.5400 
G00 X-18.7122 Y14.8971 
G01 Z-0.1778 F100.00 
G01 X-18.8798 Y14.8971 F100.00 
G01 X-19.0442 Y14.9298 
G01 X-19.1990 Y14.9939 
G01 X-19.3384 Y15.0871 
G01 X-19.4569 Y15.2056 
G01 X-19.5501 Y15.3449 
G01 X-19.6142 Y15.4998 
G01 X-19.6469 Y15.6642 
G01 X-19.6469 Y17.3558 
G01 X-19.6142 Y17.5202 
G01 X-19.5501 Y17.6750 
G01 X-19.4569 Y17.8144 
G01 X-19.4343 Y17.8371 
G01 X-19.4343 Y24.6165 
G01 X-19.4564 Y24.6495 
G01 X-19.5091 Y24.7767 
G01 X-19.5359 Y24.9116 
G01 X-19.5359 Y26.2684 
G01 X-19.5091 Y26.4033 
G01 X-19.4564 Y26.5305 
G01 X-19.3800 Y26.6449 
G01 X-19.2827 Y26.7422 
G01 X-19.1683 Y26.8186 
G01 X-19.0411 Y26.8713 
G01 X-18.9062 Y26.8981 
G01 X-18.7686 Y26.8981 
G01 X-18.6337 Y26.8713 
G01 X-18.5065 Y26.8186 
G01 X-18.3921 Y26.7422 
G01 X-18.2948 Y26.6449 
G01 X-18.2184 Y26.5305 
G01 X-18.1657 Y26.4033 
G01 X-18.1389 Y26.2684 
G01 X-18.1389 Y24.9116 
G01 X-18.1657 Y24.7767 
G01 X-18.2184 Y24.6495 
G01 X-18.2405 Y24.6165 
G01 X-18.2405 Y17.9199 
G01 X-18.1351 Y17.8144 
G01 X-18.0419 Y17.6750 
G01 X-17.9778 Y17.5202 
G01 X-17.9451 Y17.3558 
G01 X-17.9451 Y15.6642 
G01 X-17.9778 Y15.4998 
G01 X-18.0419 Y15.3449 
G01 X-18.1351 Y15.2056 
G01 X-18.2536 Y15.0871 
G01 X-18.3929 Y14.9939 
G01 X-18.5478 Y14.9298 
G01 X-18.7122 Y14.8971 
G00 Z2.5400 
G00 X-20.6751 Y15.2056 
G01 Z-0.1778 F100.00 
G01 X-20.7936 Y15.0871 F100.00 
G01 X-20.9329 Y14.9939 
G01 X-21.0878 Y14.9298 
G01 X-21.2522 Y14.8971 
G01 X-21.4198 Y14.8971 
G01 X-21.5842 Y14.9298 
G01 X-21.7390 Y14.9939 
G01 X-21.8784 Y15.0871 
G01 X-21.9969 Y15.2056 
G01 X-22.0901 Y15.3449 
G01 X-22.1542 Y15.4998 
G01 X-22.1869 Y15.6642 
G01 X-22.1869 Y17.3558 
G01 X-22.1542 Y17.5202 
G01 X-22.0901 Y17.6750 
G01 X-21.9969 Y17.8144 
