(.../pcb-gcode-3.6.2.4/pcb-gcode.ulp)
(Copyright 2005 - 2012 by John Johnson)
(See readme.txt for licensing terms.)
(This file generated from the board:)
(.../WEMOS/WEMOS_GPIO/wemos_gpio_7x.brd)
(Current profile is .../pcb-gcode-3.6.2.4/profiles/generic.pp  )
(This file generated 03.06.2018 20:01)
(Settings from pcb-machine.h)
(spindle on time = 3.0000)
(spindle speed = 20000.0000)
(tool change at 0.0000 0.0000 25.4000 )
(feed rate xy = F0.00  )
(feed rate z  = F100.00 )
(Z Axis Settings)
(  High     Up        Down     Drill)
(12.7000 	2.5400 	-0.1778 	-3.0000 )
(Settings from pcb-defaults.h)
(isolate min = 0.0000)
(isolate max = 0.3810)
(isolate step = 0.1016)
(Generated bottom outlines, bottom drill, )
(Unit of measure: mm)
( Tool|       Size       |  Min Sub |  Max Sub |   Count )
( T03  1.016mm 0.0400in 0.0000in 0.0000in )
(Metric Mode)
G21
(Absolute Coordinates)
G90
S20000
G00 Z12.7000 
G00 X0.0000 Y0.0000 
M03
G04 P3.000000
G00 X-6.9850 Y23.4950 
G01 Z-3.0000 F100.00 
G00 Z2.5400 
G00 X-6.9850 Y26.0350 
G01 Z-3.0000 F100.00 
G00 Z2.5400 
G00 X-6.9850 Y28.5750 
G01 Z-3.0000 F100.00 
G00 Z2.5400 
G00 X-6.9850 Y31.1150 
G01 Z-3.0000 F100.00 
G00 Z2.5400 
G00 X-6.9850 Y33.6550 
G01 Z-3.0000 F100.00 
G00 Z2.5400 
G00 X-6.9850 Y36.1950 
G01 Z-3.0000 F100.00 
G00 Z2.5400 
G00 X-6.9850 Y38.7350 
G01 Z-3.0000 F100.00 
G00 Z2.5400 
G00 X-6.9850 Y41.2750 
G01 Z-3.0000 F100.00 
G00 Z2.5400 
G00 X-6.9850 Y43.8150 
G01 Z-3.0000 F100.00 
G00 Z2.5400 
G00 X-6.9850 Y46.3550 
G01 Z-3.0000 F100.00 
G00 Z2.5400 
G00 X-16.3068 Y55.8800 
G01 Z-3.0000 F100.00 
G00 Z2.5400 
G00 X-18.8468 Y55.8800 
G01 Z-3.0000 F100.00 
G00 Z2.5400 
G00 X-21.3868 Y55.8800 
G01 Z-3.0000 F100.00 
G00 Z2.5400 
G00 X-23.9268 Y55.8800 
G01 Z-3.0000 F100.00 
G00 Z2.5400 
G00 X-26.4668 Y55.8800 
G01 Z-3.0000 F100.00 
G00 Z2.5400 
G00 X-29.0068 Y55.8800 
G01 Z-3.0000 F100.00 
G00 Z2.5400 
G00 X-31.5468 Y55.8800 
G01 Z-3.0000 F100.00 
G00 Z2.5400 
G00 X-34.0868 Y55.8800 
G01 Z-3.0000 F100.00 
G00 Z2.5400 
G00 X-65.6600 Y46.9900 
G01 Z-3.0000 F100.00 
G00 Z2.5400 
G00 X-68.2000 Y46.9900 
G01 Z-3.0000 F100.00 
G00 Z2.5400 
G00 X-70.7400 Y46.9900 
G01 Z-3.0000 F100.00 
G00 Z2.5400 
G00 X-73.2800 Y46.9900 
G01 Z-3.0000 F100.00 
G00 Z2.5400 
G00 X-75.8200 Y46.9900 
G01 Z-3.0000 F100.00 
G00 Z2.5400 
G00 X-78.3600 Y46.9900 
G01 Z-3.0000 F100.00 
G00 Z2.5400 
G00 X-80.9000 Y46.9900 
G01 Z-3.0000 F100.00 
G00 Z2.5400 
G00 X-83.4400 Y46.9900 
G01 Z-3.0000 F100.00 
G00 Z2.5400 
G00 X-83.4400 Y24.1300 
G01 Z-3.0000 F100.00 
G00 Z2.5400 
G00 X-80.9000 Y24.1300 
G01 Z-3.0000 F100.00 
G00 Z2.5400 
G00 X-78.3600 Y24.1300 
G01 Z-3.0000 F100.00 
G00 Z2.5400 
G00 X-75.8200 Y24.1300 
G01 Z-3.0000 F100.00 
G00 Z2.5400 
G00 X-73.2800 Y24.1300 
G01 Z-3.0000 F100.00 
G00 Z2.5400 
G00 X-70.7400 Y24.1300 
G01 Z-3.0000 F100.00 
G00 Z2.5400 
G00 X-68.2000 Y24.1300 
G01 Z-3.0000 F100.00 
G00 Z2.5400 
G00 X-65.6600 Y24.1300 
G01 Z-3.0000 F100.00 
G00 Z2.5400 
G00 X-80.0100 Y15.2400 
G01 Z-3.0000 F100.00 
G00 Z2.5400 
G00 X-82.5500 Y15.2400 
G01 Z-3.0000 F100.00 
G00 Z2.5400 
G00 X-85.0900 Y15.2400 
G01 Z-3.0000 F100.00 
G00 Z2.5400 
G00 X-36.5760 Y16.5100 
G01 Z-3.0000 F100.00 
G00 Z2.5400 
G00 X-34.0360 Y16.5100 
G01 Z-3.0000 F100.00 
G00 Z2.5400 
G00 X-31.4960 Y16.5100 
G01 Z-3.0000 F100.00 
G00 Z2.5400 
G00 X-28.9560 Y16.5100 
G01 Z-3.0000 F100.00 
G00 Z2.5400 
G00 X-26.4160 Y16.5100 
G01 Z-3.0000 F100.00 
G00 Z2.5400 
G00 X-23.8760 Y16.5100 
G01 Z-3.0000 F100.00 
G00 Z2.5400 
G00 X-21.3360 Y16.5100 
G01 Z-3.0000 F100.00 
G00 Z2.5400 
G00 X-18.7960 Y16.5100 
G01 Z-3.0000 F100.00 
G00 Z2.5400 
M05
M02
