(.../pcb-gcode-3.6.2.4/pcb-gcode.ulp)
(Copyright 2005 - 2012 by John Johnson)
(See readme.txt for licensing terms.)
(This file generated from the board:)
(.../WEMOS/WEMOS_GPIO/wemos_gpio_7x.brd)
(Current profile is .../pcb-gcode-3.6.2.4/profiles/generic.pp  )
(This file generated 04.06.2018 06:18)
(Settings from pcb-machine.h)
(spindle on time = 3.0000)
(spindle speed = 20000.0000)
(tool change at 0.0000 0.0000 25.4000 )
(feed rate xy = F0.00  )
(feed rate z  = F100.00 )
(Z Axis Settings)
(  High     Up        Down     Drill)
(12.7000 	2.5400 	-0.1778 	-3.0000 )
(Settings from pcb-defaults.h)
(isolate min = 0.0000)
(isolate max = 0.3810)
(isolate step = 0.1016)
(Generated bottom outlines, bottom drill, )
(Unit of measure: mm)
( Tool|       Size       |  Min Sub |  Max Sub |   Count )
( T01  0.800mm 0.0315in 0.0000in 0.0000in )
( T02  0.813mm 0.0320in 0.0000in 0.0000in )
( T03  1.016mm 0.0400in 0.0000in 0.0000in )
( T04  2.800mm 0.1102in 0.0000in 0.0000in )
(Metric Mode)
G21
(Absolute Coordinates)
G90
S20000
G00 Z12.7000 
G00 X0.0000 Y0.0000 
M03
G04 P3.000000
M05
G00 Z25.4000 
M06 T01  ; 0.8000 
G01 Z0.0000 F100.00 
M06 
G00 Z2.5400 
M03
G04 P3.000000
G00 X-40.6400 Y36.7350 
G01 Z-3.0000 F100.00 
G00 Z2.5400 
G00 X-55.2450 Y36.7350 
G01 Z-3.0000 F100.00 
G00 Z2.5400 
G00 X-53.9750 Y52.6100 
G01 Z-3.0000 F100.00 
G00 Z2.5400 
G00 X-69.9300 Y57.6900 
G01 Z-3.0000 F100.00 
G00 Z2.5400 
G00 X-72.4700 Y57.6900 
G01 Z-3.0000 F100.00 
G00 Z2.5400 
G00 X-75.0100 Y57.6900 
G01 Z-3.0000 F100.00 
G00 Z2.5400 
G00 X-77.5500 Y57.6900 
G01 Z-3.0000 F100.00 
G00 Z2.5400 
G00 X-78.7400 Y52.6100 
G01 Z-3.0000 F100.00 
G00 Z2.5400 
M05
G00 Z25.4000 
G00 X0.0000 Y0.0000 
M06 T02  ; 0.8128 
G01 Z0.0000 F100.00 
M06 
G00 Z2.5400 
M03
G04 P3.000000
G00 X-6.4600 Y52.9300 
G01 Z-3.0000 F100.00 
G00 Z2.5400 
G00 X-11.5400 Y52.9300 
G01 Z-3.0000 F100.00 
G00 Z2.5400 
G00 X-16.2650 Y44.8800 
G01 Z-3.0000 F100.00 
G00 Z2.5400 
G00 X-18.8050 Y44.8800 
G01 Z-3.0000 F100.00 
G00 Z2.5400 
G00 X-21.3450 Y44.8800 
G01 Z-3.0000 F100.00 
G00 Z2.5400 
G00 X-23.8850 Y44.8800 
G01 Z-3.0000 F100.00 
G00 Z2.5400 
G00 X-26.4250 Y44.8800 
G01 Z-3.0000 F100.00 
G00 Z2.5400 
G00 X-28.9650 Y44.8800 
G01 Z-3.0000 F100.00 
G00 Z2.5400 
G00 X-31.5050 Y44.8800 
G01 Z-3.0000 F100.00 
G00 Z2.5400 
G00 X-34.0450 Y44.8800 
G01 Z-3.0000 F100.00 
G00 Z2.5400 
G00 X-36.5850 Y44.8800 
G01 Z-3.0000 F100.00 
G00 Z2.5400 
G00 X-36.5850 Y37.2600 
G01 Z-3.0000 F100.00 
G00 Z2.5400 
G00 X-34.0450 Y37.2600 
G01 Z-3.0000 F100.00 
G00 Z2.5400 
G00 X-31.5050 Y37.2600 
G01 Z-3.0000 F100.00 
G00 Z2.5400 
G00 X-28.9650 Y37.2600 
G01 Z-3.0000 F100.00 
G00 Z2.5400 
G00 X-26.4250 Y37.2600 
G01 Z-3.0000 F100.00 
G00 Z2.5400 
G00 X-23.8850 Y37.2600 
G01 Z-3.0000 F100.00 
G00 Z2.5400 
G00 X-21.3450 Y37.2600 
G01 Z-3.0000 F100.00 
G00 Z2.5400 
G00 X-18.8050 Y37.2600 
G01 Z-3.0000 F100.00 
G00 Z2.5400 
G00 X-16.2650 Y37.2600 
G01 Z-3.0000 F100.00 
G00 Z2.5400 
G00 X-18.8374 Y31.2100 
G01 Z-3.0000 F100.00 
G00 Z2.5400 
G00 X-21.3774 Y31.2100 
G01 Z-3.0000 F100.00 
G00 Z2.5400 
G00 X-23.9174 Y31.2100 
G01 Z-3.0000 F100.00 
G00 Z2.5400 
G00 X-26.4574 Y31.2100 
G01 Z-3.0000 F100.00 
G00 Z2.5400 
G00 X-28.9974 Y31.2100 
G01 Z-3.0000 F100.00 
G00 Z2.5400 
G00 X-31.5374 Y31.2100 
G01 Z-3.0000 F100.00 
G00 Z2.5400 
G00 X-34.0774 Y31.2100 
G01 Z-3.0000 F100.00 
G00 Z2.5400 
G00 X-36.6174 Y31.2100 
G01 Z-3.0000 F100.00 
G00 Z2.5400 
G00 X-39.1574 Y31.2100 
G01 Z-3.0000 F100.00 
G00 Z2.5400 
G00 X-41.6974 Y31.2100 
G01 Z-3.0000 F100.00 
G00 Z2.5400 
G00 X-44.2374 Y31.2100 
G01 Z-3.0000 F100.00 
G00 Z2.5400 
G00 X-46.7774 Y31.2100 
G01 Z-3.0000 F100.00 
G00 Z2.5400 
G00 X-49.3174 Y31.2100 
G01 Z-3.0000 F100.00 
G00 Z2.5400 
G00 X-51.8574 Y31.2100 
G01 Z-3.0000 F100.00 
G00 Z2.5400 
G00 X-51.8574 Y23.5900 
G01 Z-3.0000 F100.00 
G00 Z2.5400 
G00 X-49.3174 Y23.5900 
G01 Z-3.0000 F100.00 
G00 Z2.5400 
G00 X-46.7774 Y23.5900 
G01 Z-3.0000 F100.00 
G00 Z2.5400 
G00 X-44.2374 Y23.5900 
G01 Z-3.0000 F100.00 
G00 Z2.5400 
G00 X-41.6974 Y23.5900 
G01 Z-3.0000 F100.00 
G00 Z2.5400 
G00 X-39.1574 Y23.5900 
G01 Z-3.0000 F100.00 
G00 Z2.5400 
G00 X-36.6174 Y23.5900 
G01 Z-3.0000 F100.00 
G00 Z2.5400 
G00 X-34.0774 Y23.5900 
G01 Z-3.0000 F100.00 
G00 Z2.5400 
G00 X-31.5374 Y23.5900 
G01 Z-3.0000 F100.00 
G00 Z2.5400 
G00 X-28.9974 Y23.5900 
G01 Z-3.0000 F100.00 
G00 Z2.5400 
G00 X-26.4574 Y23.5900 
G01 Z-3.0000 F100.00 
G00 Z2.5400 
G00 X-23.9174 Y23.5900 
G01 Z-3.0000 F100.00 
G00 Z2.5400 
G00 X-21.3774 Y23.5900 
G01 Z-3.0000 F100.00 
G00 Z2.5400 
G00 X-18.8374 Y23.5900 
G01 Z-3.0000 F100.00 
G00 Z2.5400 
G00 X-18.9400 Y10.0500 
G01 Z-3.0000 F100.00 
G00 Z2.5400 
G00 X-18.9400 Y4.9700 
G01 Z-3.0000 F100.00 
G00 Z2.5400 
M05
G00 Z25.4000 
G00 X0.0000 Y0.0000 
M06 T03  ; 1.0160 
G01 Z0.0000 F100.00 
M06 
G00 Z2.5400 
M03
G04 P3.000000
G00 X-6.9850 Y21.4950 
G01 Z-3.0000 F100.00 
G00 Z2.5400 
G00 X-6.9850 Y24.0350 
G01 Z-3.0000 F100.00 
G00 Z2.5400 
G00 X-6.9850 Y26.5750 
G01 Z-3.0000 F100.00 
G00 Z2.5400 
G00 X-6.9850 Y29.1150 
G01 Z-3.0000 F100.00 
G00 Z2.5400 
G00 X-6.9850 Y31.6550 
G01 Z-3.0000 F100.00 
G00 Z2.5400 
G00 X-6.9850 Y34.1950 
G01 Z-3.0000 F100.00 
G00 Z2.5400 
G00 X-6.9850 Y36.7350 
G01 Z-3.0000 F100.00 
G00 Z2.5400 
G00 X-6.9850 Y39.2750 
G01 Z-3.0000 F100.00 
G00 Z2.5400 
G00 X-6.9850 Y41.8150 
G01 Z-3.0000 F100.00 
G00 Z2.5400 
G00 X-6.9850 Y44.3550 
G01 Z-3.0000 F100.00 
G00 Z2.5400 
G00 X-16.3068 Y53.8800 
G01 Z-3.0000 F100.00 
G00 Z2.5400 
G00 X-18.8468 Y53.8800 
G01 Z-3.0000 F100.00 
G00 Z2.5400 
G00 X-21.3868 Y53.8800 
G01 Z-3.0000 F100.00 
G00 Z2.5400 
G00 X-23.9268 Y53.8800 
G01 Z-3.0000 F100.00 
G00 Z2.5400 
G00 X-26.4668 Y53.8800 
G01 Z-3.0000 F100.00 
G00 Z2.5400 
G00 X-29.0068 Y53.8800 
G01 Z-3.0000 F100.00 
G00 Z2.5400 
G00 X-31.5468 Y53.8800 
G01 Z-3.0000 F100.00 
G00 Z2.5400 
G00 X-34.0868 Y53.8800 
G01 Z-3.0000 F100.00 
G00 Z2.5400 
G00 X-65.6600 Y44.9900 
G01 Z-3.0000 F100.00 
G00 Z2.5400 
G00 X-68.2000 Y44.9900 
G01 Z-3.0000 F100.00 
G00 Z2.5400 
G00 X-70.7400 Y44.9900 
G01 Z-3.0000 F100.00 
G00 Z2.5400 
G00 X-73.2800 Y44.9900 
G01 Z-3.0000 F100.00 
G00 Z2.5400 
G00 X-75.8200 Y44.9900 
G01 Z-3.0000 F100.00 
G00 Z2.5400 
G00 X-78.3600 Y44.9900 
G01 Z-3.0000 F100.00 
G00 Z2.5400 
G00 X-80.9000 Y44.9900 
G01 Z-3.0000 F100.00 
G00 Z2.5400 
G00 X-83.4400 Y44.9900 
G01 Z-3.0000 F100.00 
G00 Z2.5400 
G00 X-83.4400 Y22.1300 
G01 Z-3.0000 F100.00 
G00 Z2.5400 
G00 X-80.9000 Y22.1300 
G01 Z-3.0000 F100.00 
G00 Z2.5400 
G00 X-78.3600 Y22.1300 
G01 Z-3.0000 F100.00 
G00 Z2.5400 
G00 X-75.8200 Y22.1300 
G01 Z-3.0000 F100.00 
G00 Z2.5400 
G00 X-73.2800 Y22.1300 
G01 Z-3.0000 F100.00 
G00 Z2.5400 
G00 X-70.7400 Y22.1300 
G01 Z-3.0000 F100.00 
G00 Z2.5400 
G00 X-68.2000 Y22.1300 
G01 Z-3.0000 F100.00 
G00 Z2.5400 
G00 X-65.6600 Y22.1300 
G01 Z-3.0000 F100.00 
G00 Z2.5400 
G00 X-80.0100 Y13.2400 
G01 Z-3.0000 F100.00 
G00 Z2.5400 
G00 X-82.5500 Y13.2400 
G01 Z-3.0000 F100.00 
G00 Z2.5400 
G00 X-85.0900 Y13.2400 
G01 Z-3.0000 F100.00 
G00 Z2.5400 
G00 X-36.5760 Y14.5100 
G01 Z-3.0000 F100.00 
G00 Z2.5400 
G00 X-34.0360 Y14.5100 
G01 Z-3.0000 F100.00 
G00 Z2.5400 
G00 X-31.4960 Y14.5100 
G01 Z-3.0000 F100.00 
G00 Z2.5400 
G00 X-28.9560 Y14.5100 
G01 Z-3.0000 F100.00 
G00 Z2.5400 
G00 X-26.4160 Y14.5100 
G01 Z-3.0000 F100.00 
G00 Z2.5400 
G00 X-23.8760 Y14.5100 
G01 Z-3.0000 F100.00 
G00 Z2.5400 
G00 X-21.3360 Y14.5100 
G01 Z-3.0000 F100.00 
G00 Z2.5400 
G00 X-18.7960 Y14.5100 
G01 Z-3.0000 F100.00 
G00 Z2.5400 
M05
G00 Z25.4000 
G00 X0.0000 Y0.0000 
M06 T04  ; 2.8000 
G01 Z0.0000 F100.00 
M06 
G00 Z2.5400 
M03
G04 P3.000000
G00 X-4.9400 Y3.0100 
G01 Z-3.0000 F100.00 
G00 Z2.5400 
G00 X-49.9800 Y3.0100 
G01 Z-3.0000 F100.00 
G00 Z2.5400 
G00 X-88.9800 Y3.0100 
G01 Z-3.0000 F100.00 
G00 Z2.5400 
G00 X-88.6800 Y62.8100 
G01 Z-3.0000 F100.00 
G00 Z2.5400 
G00 X-49.9800 Y63.0100 
G01 Z-3.0000 F100.00 
G00 Z2.5400 
G00 X-4.9400 Y63.0200 
G01 Z-3.0000 F100.00 
G00 Z2.5400 
T01 
G00 Z12.7000 
M05
M02
