(.../pcb-gcode-3.6.2.4/pcb-gcode.ulp)
(Copyright 2005 - 2012 by John Johnson)
(See readme.txt for licensing terms.)
(This file generated from the board:)
(.../WEMOS/WEMOS_GPIO/wemos_gpio_7x.brd)
(Current profile is .../pcb-gcode-3.6.2.4/profiles/generic.pp  )
(This file generated 03.06.2018 20:01)
(Settings from pcb-machine.h)
(spindle on time = 3.0000)
(spindle speed = 20000.0000)
(tool change at 0.0000 0.0000 25.4000 )
(feed rate xy = F0.00  )
(feed rate z  = F100.00 )
(Z Axis Settings)
(  High     Up        Down     Drill)
(12.7000 	2.5400 	-0.1778 	-3.0000 )
(Settings from pcb-defaults.h)
(isolate min = 0.0000)
(isolate max = 0.3810)
(isolate step = 0.1016)
(Generated bottom outlines, bottom drill, )
(Unit of measure: mm)
( Tool|       Size       |  Min Sub |  Max Sub |   Count )
( T01  0.800mm 0.0315in 0.0000in 0.0000in )
( T02  0.813mm 0.0320in 0.0000in 0.0000in )
(Metric Mode)
G21
(Absolute Coordinates)
G90
S20000
G00 Z12.7000 
G00 X0.0000 Y0.0000 
M03
G04 P3.000000
G00 X-40.6400 Y38.7350 
G01 Z-3.0000 F100.00 
G00 Z2.5400 
G00 X-55.2450 Y38.7350 
G01 Z-3.0000 F100.00 
G00 Z2.5400 
G00 X-53.9750 Y54.6100 
G01 Z-3.0000 F100.00 
G00 Z2.5400 
G00 X-69.9300 Y59.6900 
G01 Z-3.0000 F100.00 
G00 Z2.5400 
G00 X-72.4700 Y59.6900 
G01 Z-3.0000 F100.00 
G00 Z2.5400 
G00 X-75.0100 Y59.6900 
G01 Z-3.0000 F100.00 
G00 Z2.5400 
G00 X-77.5500 Y59.6900 
G01 Z-3.0000 F100.00 
G00 Z2.5400 
G00 X-78.7400 Y54.6100 
G01 Z-3.0000 F100.00 
G00 Z2.5400 
G00 X-16.2650 Y39.2600 
G01 Z-3.0000 F100.00 
G00 Z2.5400 
G00 X-18.8050 Y39.2600 
G01 Z-3.0000 F100.00 
G00 Z2.5400 
G00 X-21.3450 Y39.2600 
G01 Z-3.0000 F100.00 
G00 Z2.5400 
G00 X-23.8850 Y39.2600 
G01 Z-3.0000 F100.00 
G00 Z2.5400 
G00 X-26.4250 Y39.2600 
G01 Z-3.0000 F100.00 
G00 Z2.5400 
G00 X-28.9650 Y39.2600 
G01 Z-3.0000 F100.00 
G00 Z2.5400 
G00 X-31.5050 Y39.2600 
G01 Z-3.0000 F100.00 
G00 Z2.5400 
G00 X-34.0450 Y39.2600 
G01 Z-3.0000 F100.00 
G00 Z2.5400 
G00 X-36.5850 Y39.2600 
G01 Z-3.0000 F100.00 
G00 Z2.5400 
G00 X-36.6174 Y33.2100 
G01 Z-3.0000 F100.00 
G00 Z2.5400 
G00 X-39.1574 Y33.2100 
G01 Z-3.0000 F100.00 
G00 Z2.5400 
G00 X-41.6974 Y33.2100 
G01 Z-3.0000 F100.00 
G00 Z2.5400 
G00 X-44.2374 Y33.2100 
G01 Z-3.0000 F100.00 
G00 Z2.5400 
G00 X-46.7774 Y33.2100 
G01 Z-3.0000 F100.00 
G00 Z2.5400 
G00 X-49.3174 Y33.2100 
G01 Z-3.0000 F100.00 
G00 Z2.5400 
G00 X-51.8574 Y33.2100 
G01 Z-3.0000 F100.00 
G00 Z2.5400 
G00 X-51.8574 Y25.5900 
G01 Z-3.0000 F100.00 
G00 Z2.5400 
G00 X-49.3174 Y25.5900 
G01 Z-3.0000 F100.00 
G00 Z2.5400 
G00 X-46.7774 Y25.5900 
G01 Z-3.0000 F100.00 
G00 Z2.5400 
G00 X-44.2374 Y25.5900 
G01 Z-3.0000 F100.00 
G00 Z2.5400 
G00 X-41.6974 Y25.5900 
G01 Z-3.0000 F100.00 
G00 Z2.5400 
G00 X-39.1574 Y25.5900 
G01 Z-3.0000 F100.00 
G00 Z2.5400 
G00 X-36.6174 Y25.5900 
G01 Z-3.0000 F100.00 
G00 Z2.5400 
G00 X-34.0774 Y25.5900 
G01 Z-3.0000 F100.00 
G00 Z2.5400 
G00 X-31.5374 Y25.5900 
G01 Z-3.0000 F100.00 
G00 Z2.5400 
G00 X-28.9974 Y25.5900 
G01 Z-3.0000 F100.00 
G00 Z2.5400 
G00 X-26.4574 Y25.5900 
G01 Z-3.0000 F100.00 
G00 Z2.5400 
G00 X-23.9174 Y25.5900 
G01 Z-3.0000 F100.00 
G00 Z2.5400 
G00 X-21.3774 Y25.5900 
G01 Z-3.0000 F100.00 
G00 Z2.5400 
G00 X-18.8374 Y25.5900 
G01 Z-3.0000 F100.00 
G00 Z2.5400 
G00 X-18.8374 Y33.2100 
G01 Z-3.0000 F100.00 
G00 Z2.5400 
G00 X-21.3774 Y33.2100 
G01 Z-3.0000 F100.00 
G00 Z2.5400 
G00 X-23.9174 Y33.2100 
G01 Z-3.0000 F100.00 
G00 Z2.5400 
G00 X-26.4574 Y33.2100 
G01 Z-3.0000 F100.00 
G00 Z2.5400 
G00 X-28.9974 Y33.2100 
G01 Z-3.0000 F100.00 
G00 Z2.5400 
G00 X-31.5374 Y33.2100 
G01 Z-3.0000 F100.00 
G00 Z2.5400 
G00 X-34.0774 Y33.2100 
G01 Z-3.0000 F100.00 
G00 Z2.5400 
G00 X-34.0450 Y46.8800 
G01 Z-3.0000 F100.00 
G00 Z2.5400 
G00 X-36.5850 Y46.8800 
G01 Z-3.0000 F100.00 
G00 Z2.5400 
G00 X-31.5050 Y46.8800 
G01 Z-3.0000 F100.00 
G00 Z2.5400 
G00 X-28.9650 Y46.8800 
G01 Z-3.0000 F100.00 
G00 Z2.5400 
G00 X-26.4250 Y46.8800 
G01 Z-3.0000 F100.00 
G00 Z2.5400 
G00 X-23.8850 Y46.8800 
G01 Z-3.0000 F100.00 
G00 Z2.5400 
G00 X-21.3450 Y46.8800 
G01 Z-3.0000 F100.00 
G00 Z2.5400 
G00 X-18.8050 Y46.8800 
G01 Z-3.0000 F100.00 
G00 Z2.5400 
G00 X-16.2650 Y46.8800 
G01 Z-3.0000 F100.00 
G00 Z2.5400 
M05
M02
