( Made using CamBam - http://www.cambam.co.uk )
( Grbl Post Processor )
( pcb 4/1/2018 5:21:37 PM )
( T2 : 2.0 )
G21 G90
G0 Z3.0
( T2 : 2.0 )
T2
( Profil1 )
( T2 : 2.0 )
T2
G17
M3 S1000
G0 X-47.0 Y-1.0
G0 Z1.0
G1 F300.0 Z-0.4
G1 F200.0 X-1.0
G3 X1.0 Y1.0 I0.0 J2.0
G1 Y63.0
G3 X-1.0 Y65.0 I-2.0 J0.0
G1 X-47.0
G3 X-49.0 Y63.0 I0.0 J-2.0
G1 Y1.0
G3 X-47.0 Y-1.0 I2.0 J0.0
G1 F300.0 Z-0.8
G1 F200.0 X-1.0
G3 X1.0 Y1.0 I0.0 J2.0
G1 Y63.0
G3 X-1.0 Y65.0 I-2.0 J0.0
G1 X-47.0
G3 X-49.0 Y63.0 I0.0 J-2.0
G1 Y1.0
G3 X-47.0 Y-1.0 I2.0 J0.0
G1 F300.0 Z-1.2
G1 F200.0 X-1.0
G3 X1.0 Y1.0 I0.0 J2.0
G1 Y63.0
G3 X-1.0 Y65.0 I-2.0 J0.0
G1 X-47.0
G3 X-49.0 Y63.0 I0.0 J-2.0
G1 Y1.0
G3 X-47.0 Y-1.0 I2.0 J0.0
G1 F300.0 Z-1.6
G1 F200.0 X-1.0
G3 X1.0 Y1.0 I0.0 J2.0
G1 Y63.0
G3 X-1.0 Y65.0 I-2.0 J0.0
G1 X-47.0
G3 X-49.0 Y63.0 I0.0 J-2.0
G1 Y1.0
G3 X-47.0 Y-1.0 I2.0 J0.0
G1 F300.0 Z-2.0
G1 F200.0 X-1.0
G3 X1.0 Y1.0 I0.0 J2.0
G1 Y63.0
G3 X-1.0 Y65.0 I-2.0 J0.0
G1 X-47.0
G3 X-49.0 Y63.0 I0.0 J-2.0
G1 Y1.0
G3 X-47.0 Y-1.0 I2.0 J0.0
G1 F300.0 Z-2.4
G1 F200.0 X-1.0
G3 X1.0 Y1.0 I0.0 J2.0
G1 Y63.0
G3 X-1.0 Y65.0 I-2.0 J0.0
G1 X-47.0
G3 X-49.0 Y63.0 I0.0 J-2.0
G1 Y1.0
G3 X-47.0 Y-1.0 I2.0 J0.0
G1 F300.0 Z-2.8
G1 F200.0 X-1.0
G3 X1.0 Y1.0 I0.0 J2.0
G1 Y63.0
G3 X-1.0 Y65.0 I-2.0 J0.0
G1 X-47.0
G3 X-49.0 Y63.0 I0.0 J-2.0
G1 Y1.0
G3 X-47.0 Y-1.0 I2.0 J0.0
G1 F300.0 Z-3.0
G1 F200.0 X-1.0
G3 X1.0 Y1.0 I0.0 J2.0
G1 Y63.0
G3 X-1.0 Y65.0 I-2.0 J0.0
G1 X-47.0
G3 X-49.0 Y63.0 I0.0 J-2.0
G1 Y1.0
G3 X-47.0 Y-1.0 I2.0 J0.0
G0 Z3.0
M5
