(.../pcb-gcode-3.6.2.4/pcb-gcode.ulp)
(Copyright 2005 - 2012 by John Johnson)
(See readme.txt for licensing terms.)
(This file generated from the board:)
(.../WEMOS_RFMASTER/wemos_rfmaster7x.brd)
(Current profile is .../pcb-gcode-3.6.2.4/profiles/generic.pp  )
(This file generated 01.04.2018 16:53)
(Settings from pcb-machine.h)
(spindle on time = 3.0000)
(spindle speed = 20000.0000)
(tool change at 0.0000 0.0000 25.4000 )
(feed rate xy = F0.00  )
(feed rate z  = F100.00 )
(Z Axis Settings)
(  High     Up        Down     Drill)
(12.7000 	2.5400 	-0.1778 	-3.0000 )
(Settings from pcb-defaults.h)
(isolate min = 0.0000)
(isolate max = 0.3810)
(isolate step = 0.1016)
(Generated bottom outlines, bottom drill, )
(Unit of measure: mm)
( Tool|       Size       |  Min Sub |  Max Sub |   Count )
( T01  0.350mm 0.0138in 0.0000in 0.0000in )
(Metric Mode)
G21
(Absolute Coordinates)
G90
S20000
G00 Z12.7000 
G00 X0.0000 Y0.0000 
M03
G04 P3.000000
G00 X-11.4300 Y14.6050 
G01 Z-3.0000 F100.00 
G00 Z2.5400 
G00 X-22.8600 Y8.2550 
G01 Z-3.0000 F100.00 
G00 Z2.5400 
G00 X-22.2250 Y51.4350 
G01 Z-3.0000 F100.00 
G00 Z2.5400 
G00 X-29.2100 Y51.4350 
G01 Z-3.0000 F100.00 
G00 Z2.5400 
G00 X-39.3700 Y51.4350 
G01 Z-3.0000 F100.00 
G00 Z2.5400 
G00 X-11.4300 Y51.4350 
G01 Z-3.0000 F100.00 
G00 Z2.5400 
M05
M02
