(.../pcb-gcode-3.6.2.4/pcb-gcode.ulp)
(Copyright 2005 - 2012 by John Johnson)
(See readme.txt for licensing terms.)
(This file generated from the board:)
(.../WEMOS_RFMASTER/wemos_rfmaster7x.brd)
(Current profile is .../pcb-gcode-3.6.2.4/profiles/generic.pp  )
(This file generated 01.04.2018 16:53)
(Settings from pcb-machine.h)
(spindle on time = 3.0000)
(spindle speed = 20000.0000)
(tool change at 0.0000 0.0000 25.4000 )
(feed rate xy = F0.00  )
(feed rate z  = F100.00 )
(Z Axis Settings)
(  High     Up        Down     Drill)
(12.7000 	2.5400 	-0.1778 	-3.0000 )
(Settings from pcb-defaults.h)
(isolate min = 0.0000)
(isolate max = 0.3810)
(isolate step = 0.1016)
(Generated bottom outlines, bottom drill, )
(Unit of measure: mm)
( Tool|       Size       |  Min Sub |  Max Sub |   Count )
( T01  0.350mm 0.0138in 0.0000in 0.0000in )
( T02  1.016mm 0.0400in 0.0000in 0.0000in )
( T03  2.800mm 0.1102in 0.0000in 0.0000in )
(Metric Mode)
G21
(Absolute Coordinates)
G90
S20000
G00 Z12.7000 
G00 X0.0000 Y0.0000 
M03
G04 P3.000000
M05
G00 Z25.4000 
M06 T01  ; 0.3500 
G01 Z0.0000 F100.00 
M06 
G00 Z2.5400 
M03
G04 P3.000000
G00 X-11.4300 Y14.6050 
G01 Z-3.0000 F100.00 
G00 Z2.5400 
G00 X-22.8600 Y8.2550 
G01 Z-3.0000 F100.00 
G00 Z2.5400 
G00 X-22.2250 Y51.4350 
G01 Z-3.0000 F100.00 
G00 Z2.5400 
G00 X-29.2100 Y51.4350 
G01 Z-3.0000 F100.00 
G00 Z2.5400 
G00 X-39.3700 Y51.4350 
G01 Z-3.0000 F100.00 
G00 Z2.5400 
G00 X-11.4300 Y51.4350 
G01 Z-3.0000 F100.00 
G00 Z2.5400 
M05
G00 Z25.4000 
G00 X0.0000 Y0.0000 
M06 T02  ; 1.0160 
G01 Z0.0000 F100.00 
M06 
G00 Z2.5400 
M03
G04 P3.000000
G00 X-6.3500 Y10.1600 
G01 Z-3.0000 F100.00 
G00 Z2.5400 
G00 X-6.3500 Y12.7000 
G01 Z-3.0000 F100.00 
G00 Z2.5400 
G00 X-6.3500 Y15.2400 
G01 Z-3.0000 F100.00 
G00 Z2.5400 
G00 X-13.9700 Y19.0500 
G01 Z-3.0000 F100.00 
G00 Z2.5400 
G00 X-16.5100 Y19.0500 
G01 Z-3.0000 F100.00 
G00 Z2.5400 
G00 X-19.0500 Y19.0500 
G01 Z-3.0000 F100.00 
G00 Z2.5400 
G00 X-21.5900 Y19.0500 
G01 Z-3.0000 F100.00 
G00 Z2.5400 
G00 X-24.1300 Y19.0500 
G01 Z-3.0000 F100.00 
G00 Z2.5400 
G00 X-26.6700 Y19.0500 
G01 Z-3.0000 F100.00 
G00 Z2.5400 
G00 X-29.2100 Y19.0500 
G01 Z-3.0000 F100.00 
G00 Z2.5400 
G00 X-31.7500 Y19.0500 
G01 Z-3.0000 F100.00 
G00 Z2.5400 
G00 X-31.7500 Y6.3500 
G01 Z-3.0000 F100.00 
G00 Z2.5400 
G00 X-29.2100 Y6.3500 
G01 Z-3.0000 F100.00 
G00 Z2.5400 
G00 X-26.6700 Y6.3500 
G01 Z-3.0000 F100.00 
G00 Z2.5400 
G00 X-34.2900 Y6.3500 
G01 Z-3.0000 F100.00 
G00 Z2.5400 
G00 X-19.0500 Y6.3500 
G01 Z-3.0000 F100.00 
G00 Z2.5400 
G00 X-16.5100 Y6.3500 
G01 Z-3.0000 F100.00 
G00 Z2.5400 
G00 X-13.9700 Y6.3500 
G01 Z-3.0000 F100.00 
G00 Z2.5400 
G00 X-11.4300 Y6.3500 
G01 Z-3.0000 F100.00 
G00 Z2.5400 
G00 X-13.9700 Y41.9100 
G01 Z-3.0000 F100.00 
G00 Z2.5400 
G00 X-16.5100 Y41.9100 
G01 Z-3.0000 F100.00 
G00 Z2.5400 
G00 X-19.0500 Y41.9100 
G01 Z-3.0000 F100.00 
G00 Z2.5400 
G00 X-21.5900 Y41.9100 
G01 Z-3.0000 F100.00 
G00 Z2.5400 
G00 X-24.1300 Y41.9100 
G01 Z-3.0000 F100.00 
G00 Z2.5400 
G00 X-26.6700 Y41.9100 
G01 Z-3.0000 F100.00 
G00 Z2.5400 
G00 X-29.2100 Y41.9100 
G01 Z-3.0000 F100.00 
G00 Z2.5400 
G00 X-31.7500 Y41.9100 
G01 Z-3.0000 F100.00 
G00 Z2.5400 
G00 X-33.0200 Y55.8800 
G01 Z-3.0000 F100.00 
G00 Z2.5400 
G00 X-35.5600 Y55.8800 
G01 Z-3.0000 F100.00 
G00 Z2.5400 
G00 X-30.4800 Y55.8800 
G01 Z-3.0000 F100.00 
G00 Z2.5400 
G00 X-27.9400 Y55.8800 
G01 Z-3.0000 F100.00 
G00 Z2.5400 
G00 X-19.0500 Y55.8800 
G01 Z-3.0000 F100.00 
G00 Z2.5400 
G00 X-16.5100 Y55.8800 
G01 Z-3.0000 F100.00 
G00 Z2.5400 
G00 X-13.9700 Y55.8800 
G01 Z-3.0000 F100.00 
G00 Z2.5400 
G00 X-11.4300 Y55.8800 
G01 Z-3.0000 F100.00 
G00 Z2.5400 
M05
G00 Z25.4000 
G00 X0.0000 Y0.0000 
M06 T03  ; 2.8000 
G01 Z0.0000 F100.00 
M06 
G00 Z2.5400 
M03
G04 P3.000000
G00 X-3.5400 Y3.8100 
G01 Z-3.0000 F100.00 
G00 Z2.5400 
G00 X-42.6800 Y3.8100 
G01 Z-3.0000 F100.00 
G00 Z2.5400 
G00 X-42.6800 Y58.4200 
G01 Z-3.0000 F100.00 
G00 Z2.5400 
G00 X-3.5400 Y58.4200 
G01 Z-3.0000 F100.00 
G00 Z2.5400 
T01 
G00 Z12.7000 
M05
M02
