(.../pcb-gcode-3.6.2.4/pcb-gcode.ulp)
(Copyright 2005 - 2012 by John Johnson)
(See readme.txt for licensing terms.)
(This file generated from the board:)
(.../WEMOS_RFMASTER/wemos_rfmaster7x.brd)
(Current profile is .../pcb-gcode-3.6.2.4/profiles/generic.pp  )
(This file generated 01.04.2018 16:53)
(Settings from pcb-machine.h)
(spindle on time = 3.0000)
(  Tool Size)
(0.1778 )
(spindle speed = 30000.0000)
(tool change at 0.0000 0.0000 25.4000 )
(feed rate xy = F100.00 )
(feed rate z  = F100.00 )
(Z Axis Settings)
(  High     Up        Down     Drill)
(12.7000 	2.5400 	-0.1778 	-3.0000 )
(Settings from pcb-defaults.h)
(isolate min = 0.0000)
(isolate max = 0.3810)
(isolate step = 0.1016)
(Generated bottom outlines, bottom drill, )
(Unit of measure: mm)
(Metric Mode)
G21
(Absolute Coordinates)
G90
S30000
G00 Z12.7000 
G00 X0.0000 Y0.0000 
M03
G04 P3.000000
G00 Z2.5400 
G00 X-1.0261 Y1.1183 
G01 Z-0.1778 F100.00 
G01 X-1.1183 Y1.0261 F100.00 
G01 X-1.2312 Y0.9608 
G01 X-1.3572 Y0.9271 
G01 X-2.5023 Y0.9271 
G01 X-2.6229 Y0.9594 
G01 X-2.6282 Y0.9608 
G01 X-2.7412 Y1.0261 
G01 X-2.8334 Y1.1183 
G01 X-2.8986 Y1.2312 
G01 X-2.9324 Y1.3572 
G01 X-2.9324 Y1.4876 
G01 X-2.9000 Y1.6082 
G01 X-2.8986 Y1.6136 
G01 X-2.8334 Y1.7265 
G01 X-2.7412 Y1.8187 
G01 X-2.6282 Y1.8839 
G01 X-2.2359 Y2.1105 
G01 X-1.8405 Y2.5059 
G01 X-1.8188 Y2.5435 
G01 X-1.7578 Y2.6045 
G01 X-1.7265 Y2.6357 
G01 X-1.6413 Y2.6850 
G01 X-1.6136 Y2.7009 
G01 X-1.5425 Y2.7200 
G01 X-1.4876 Y2.7347 
G01 X-1.4231 Y2.7347 
G01 X-1.3572 Y2.7347 
G01 X-1.2859 Y2.7156 
G01 X-1.2312 Y2.7010 
G01 X-1.1609 Y2.6603 
G01 X-1.1183 Y2.6358 
G01 X-1.0573 Y2.5748 
G01 X-1.0261 Y2.5435 
G01 X-0.9768 Y2.4583 
G01 X-0.9609 Y2.4306 
G01 X-0.9418 Y2.3595 
G01 X-0.9271 Y2.3046 
G01 X-0.9271 Y2.2401 
G01 X-0.9271 Y2.1742 
G01 X-0.9271 Y1.3572 
G01 X-0.9608 Y1.2312 
G01 X-1.0261 Y1.1183 
G00 Z2.5400 
G00 X-4.2466 Y1.1183 
G01 Z-0.1778 F100.00 
G01 X-4.3388 Y1.0261 F100.00 
G01 X-4.4518 Y0.9608 
G01 X-4.4893 Y0.9508 
G01 X-4.5777 Y0.9271 
G01 X-9.0439 Y0.9271 
G01 X-9.1698 Y0.9608 
G01 X-9.2828 Y1.0261 
G01 X-9.3750 Y1.1183 
G01 X-9.4402 Y1.2312 
G01 X-9.4740 Y1.3572 
G01 X-9.4740 Y1.4876 
G01 X-9.4402 Y1.6136 
G01 X-9.3750 Y1.7265 
G01 X-9.2828 Y1.8187 
G01 X-6.4315 Y4.6700 
G01 X-6.3185 Y4.7353 
G01 X-6.1925 Y4.7690 
G01 X-6.0621 Y4.7690 
G01 X-5.9415 Y4.7367 
G01 X-5.9362 Y4.7353 
G01 X-5.8232 Y4.6700 
G01 X-5.7310 Y4.5778 
G01 X-5.6658 Y4.4649 
G01 X-5.6320 Y4.3389 
G01 X-5.6320 Y4.2085 
G01 X-5.6564 Y4.1177 
G01 X-5.6639 Y4.0896 
G01 X-5.6639 Y3.5304 
G01 X-5.5192 Y2.9902 
G01 X-5.2395 Y2.5059 
G01 X-4.8441 Y2.1105 
G01 X-4.4518 Y1.8839 
G01 X-4.3388 Y1.8187 
G01 X-4.2466 Y1.7265 
G01 X-4.1814 Y1.6136 
G01 X-4.1713 Y1.5760 
G01 X-4.1476 Y1.4876 
G01 X-4.1476 Y1.3572 
G01 X-4.1814 Y1.2312 
G01 X-4.2466 Y1.1183 
G00 Z2.5400 
G00 X-4.3598 Y5.7892 
G01 Z-0.1778 F100.00 
G01 X-4.4203 Y5.7542 F100.00 
G01 X-4.5332 Y5.6890 
G01 X-4.6048 Y5.6698 
G01 X-4.6592 Y5.6553 
G01 X-4.7896 Y5.6553 
G01 X-4.9156 Y5.6890 
G01 X-4.9973 Y5.7362 
G01 X-5.0285 Y5.7542 
G01 X-5.1207 Y5.8464 
G01 X-5.1396 Y5.8792 
G01 X-5.1859 Y5.9594 
G01 X-5.2051 Y6.0310 
G01 X-5.2197 Y6.0854 
G01 X-5.2197 Y8.3408 
G01 X-5.2240 Y8.3733 
G01 X-5.2197 Y8.4057 
G01 X-5.2197 Y8.4385 
G01 X-5.2112 Y8.4701 
G01 X-5.2069 Y8.5026 
G01 X-5.1944 Y8.5328 
G01 X-5.1859 Y8.5645 
G01 X-5.1696 Y8.5928 
G01 X-5.1570 Y8.6231 
G01 X-5.1371 Y8.6490 
G01 X-5.1207 Y8.6774 
G01 X-5.0976 Y8.7005 
G01 X-5.0777 Y8.7265 
G01 X-5.0517 Y8.7465 
G01 X-5.0285 Y8.7696 
G01 X-5.0002 Y8.7860 
G01 X-4.9742 Y8.8059 
G01 X-4.9439 Y8.8184 
G01 X-4.9156 Y8.8348 
G01 X-4.8839 Y8.8433 
G01 X-4.7463 Y8.9003 
G01 X-4.3283 Y9.3183 
G01 X-4.1021 Y9.8644 
G01 X-4.1021 Y10.4556 
G01 X-4.3283 Y11.0017 
G01 X-4.3603 Y11.0337 
G01 X-4.4511 Y11.1244 
G01 X-4.4694 Y11.1552 
G01 X-4.5177 Y11.2388 
G01 X-4.5515 Y11.3648 
G01 X-4.5515 Y11.4952 
G01 X-4.5375 Y11.5473 
G01 X-4.5177 Y11.6212 
G01 X-4.4685 Y11.7064 
G01 X-4.4525 Y11.7341 
G01 X-4.3283 Y11.8583 
G01 X-4.1021 Y12.4044 
G01 X-4.1021 Y12.9956 
G01 X-4.3283 Y13.5417 
G01 X-4.3603 Y13.5737 
G01 X-4.4511 Y13.6644 
G01 X-4.4694 Y13.6952 
G01 X-4.5177 Y13.7788 
G01 X-4.5515 Y13.9048 
G01 X-4.5515 Y14.0352 
G01 X-4.5375 Y14.0873 
G01 X-4.5177 Y14.1612 
G01 X-4.4685 Y14.2463 
G01 X-4.4525 Y14.2741 
G01 X-4.3283 Y14.3983 
G01 X-4.1021 Y14.9444 
G01 X-4.1021 Y15.5356 
G01 X-4.3283 Y16.0817 
G01 X-4.7463 Y16.4997 
G01 X-4.8165 Y16.5288 
G01 X-4.8482 Y16.5373 
G01 X-4.8765 Y16.5536 
G01 X-4.9068 Y16.5662 
G01 X-4.9328 Y16.5861 
G01 X-4.9611 Y16.6025 
G01 X-4.9843 Y16.6256 
G01 X-5.0102 Y16.6455 
G01 X-5.0302 Y16.6715 
G01 X-5.0533 Y16.6947 
G01 X-5.0697 Y16.7230 
G01 X-5.0896 Y16.7490 
G01 X-5.1022 Y16.7793 
G01 X-5.1185 Y16.8076 
G01 X-5.1270 Y16.8392 
G01 X-5.1395 Y16.8695 
G01 X-5.1438 Y16.9020 
G01 X-5.1523 Y16.9336 
G01 X-5.1523 Y16.9663 
G01 X-5.1566 Y16.9988 
G01 X-5.1523 Y17.0313 
G01 X-5.1523 Y17.0640 
G01 X-5.1438 Y17.0956 
G01 X-5.1395 Y17.1281 
G01 X-5.1270 Y17.1583 
G01 X-5.1185 Y17.1900 
G01 X-5.1022 Y17.2183 
G01 X-5.0896 Y17.2486 
G01 X-5.0762 Y17.2661 
G01 X-5.0598 Y17.3057 
G01 X-5.0498 Y17.3187 
G01 X-5.0425 Y17.3335 
G01 X-5.0102 Y17.3703 
G01 X-4.9804 Y17.4092 
G01 X-4.9673 Y17.4192 
G01 X-4.9565 Y17.4315 
G01 X-4.9158 Y17.4587 
G01 X-4.8769 Y17.4886 
G01 X-4.8617 Y17.4949 
G01 X-4.8481 Y17.5040 
G01 X-4.8017 Y17.5197 
G01 X-4.7564 Y17.5385 
G01 X-4.7401 Y17.5406 
G01 X-4.7246 Y17.5459 
G01 X-4.6757 Y17.5491 
G01 X-4.6271 Y17.5555 
G01 X-4.6108 Y17.5534 
G01 X-4.5945 Y17.5544 
G01 X-4.5464 Y17.5449 
G01 X-4.4978 Y17.5385 
G01 X-4.4892 Y17.5349 
G01 X-4.1753 Y17.5349 
G01 X-4.1753 Y17.6111 
G01 X-4.4977 Y17.6111 
G01 X-4.5304 Y17.6246 
G01 X-4.5554 Y17.6496 
G01 X-4.5689 Y17.6823 
G01 X-4.5689 Y20.4177 
G01 X-4.5554 Y20.4504 
G01 X-4.5304 Y20.4754 
G01 X-4.4977 Y20.4889 
G01 X-4.1753 Y20.4889 
G01 X-4.1753 Y20.5651 
G01 X-4.4892 Y20.5651 
G01 X-4.4978 Y20.5615 
G01 X-4.5464 Y20.5551 
G01 X-4.5945 Y20.5456 
G01 X-4.6108 Y20.5466 
G01 X-4.6271 Y20.5445 
G01 X-4.6757 Y20.5509 
G01 X-4.7246 Y20.5541 
G01 X-4.7401 Y20.5594 
G01 X-4.7564 Y20.5615 
G01 X-4.8017 Y20.5803 
G01 X-4.8481 Y20.5960 
G01 X-4.8617 Y20.6051 
G01 X-4.8769 Y20.6114 
G01 X-4.9158 Y20.6413 
G01 X-4.9565 Y20.6685 
G01 X-4.9674 Y20.6808 
G01 X-4.9804 Y20.6908 
G01 X-5.0102 Y20.7297 
G01 X-5.0425 Y20.7665 
G01 X-5.0498 Y20.7813 
G01 X-5.0598 Y20.7943 
G01 X-5.0663 Y20.8101 
G01 X-5.2507 Y20.9945 
G01 X-5.3159 Y21.1074 
G01 X-5.3497 Y21.2334 
G01 X-5.3497 Y23.2166 
G01 X-5.3159 Y23.3426 
G01 X-5.2507 Y23.4555 
G01 X-5.1585 Y23.5477 
G01 X-5.0663 Y23.6399 
G01 X-5.0598 Y23.6557 
G01 X-5.0498 Y23.6687 
G01 X-5.0425 Y23.6835 
G01 X-5.0102 Y23.7203 
G01 X-4.9804 Y23.7592 
G01 X-4.9673 Y23.7692 
G01 X-4.9565 Y23.7815 
G01 X-4.9158 Y23.8087 
G01 X-4.8769 Y23.8386 
G01 X-4.8617 Y23.8449 
G01 X-4.8481 Y23.8540 
G01 X-4.8017 Y23.8697 
G01 X-4.7564 Y23.8885 
G01 X-4.7401 Y23.8906 
G01 X-4.7246 Y23.8959 
G01 X-4.6757 Y23.8991 
G01 X-4.6271 Y23.9055 
G01 X-4.6108 Y23.9034 
G01 X-4.5945 Y23.9044 
G01 X-4.5464 Y23.8949 
G01 X-4.4978 Y23.8885 
G01 X-4.4892 Y23.8849 
G01 X-4.1753 Y23.8849 
G01 X-4.1753 Y23.9611 
G01 X-4.4977 Y23.9611 
G01 X-4.5304 Y23.9746 
G01 X-4.5554 Y23.9996 
G01 X-4.5689 Y24.0323 
G01 X-4.5689 Y26.7677 
G01 X-4.5554 Y26.8004 
G01 X-4.5304 Y26.8254 
G01 X-4.4977 Y26.8389 
G01 X-4.1753 Y26.8389 
G01 X-4.1753 Y26.9151 
G01 X-4.4892 Y26.9151 
G01 X-4.4978 Y26.9115 
G01 X-4.5464 Y26.9051 
G01 X-4.5945 Y26.8956 
G01 X-4.6108 Y26.8966 
G01 X-4.6271 Y26.8945 
G01 X-4.6757 Y26.9009 
G01 X-4.7246 Y26.9041 
G01 X-4.7401 Y26.9094 
G01 X-4.7564 Y26.9115 
G01 X-4.8017 Y26.9303 
G01 X-4.8481 Y26.9460 
G01 X-4.8617 Y26.9551 
G01 X-4.8769 Y26.9614 
G01 X-4.9158 Y26.9913 
G01 X-4.9565 Y27.0185 
G01 X-4.9674 Y27.0308 
G01 X-4.9804 Y27.0408 
G01 X-5.0102 Y27.0797 
G01 X-5.0425 Y27.1165 
G01 X-5.0498 Y27.1313 
G01 X-5.0598 Y27.1443 
G01 X-5.0663 Y27.1601 
G01 X-5.2699 Y27.3637 
G01 X-5.5360 Y27.4739 
G01 X-7.4240 Y27.4739 
G01 X-7.6901 Y27.3637 
G01 X-7.8937 Y27.1600 
G01 X-8.0039 Y26.8940 
G01 X-8.0039 Y23.9060 
G01 X-7.8937 Y23.6399 
G01 X-7.7093 Y23.4555 
G01 X-7.6441 Y23.3426 
G01 X-7.6103 Y23.2166 
G01 X-7.6103 Y21.2334 
G01 X-7.6441 Y21.1074 
G01 X-7.7093 Y20.9945 
G01 X-7.8015 Y20.9023 
G01 X-7.8937 Y20.8101 
G01 X-8.0155 Y20.5161 
G01 X-8.0239 Y20.4844 
G01 X-8.0403 Y20.4560 
G01 X-8.0528 Y20.4258 
G01 X-8.0728 Y20.3999 
G01 X-8.0892 Y20.3715 
G01 X-8.1123 Y20.3483 
G01 X-8.1322 Y20.3223 
G01 X-8.1582 Y20.3024 
G01 X-8.1814 Y20.2793 
G01 X-8.2097 Y20.2629 
G01 X-8.2357 Y20.2430 
G01 X-8.2659 Y20.2304 
G01 X-8.2943 Y20.2141 
G01 X-8.3260 Y20.2056 
G01 X-8.3562 Y20.1930 
G01 X-8.3886 Y20.1888 
G01 X-8.4203 Y20.1803 
G01 X-8.4530 Y20.1803 
G01 X-8.4855 Y20.1760 
G01 X-8.5180 Y20.1803 
G01 X-11.9227 Y20.1803 
G01 X-11.9552 Y20.1760 
G01 X-11.9877 Y20.1803 
G01 X-12.0204 Y20.1803 
G01 X-12.0520 Y20.1888 
G01 X-12.0845 Y20.1930 
G01 X-12.1147 Y20.2056 
G01 X-12.1464 Y20.2141 
G01 X-12.1747 Y20.2304 
G01 X-12.2050 Y20.2430 
G01 X-12.2309 Y20.2629 
G01 X-12.2593 Y20.2793 
G01 X-12.2825 Y20.3024 
G01 X-12.3084 Y20.3223 
G01 X-12.3284 Y20.3483 
G01 X-12.3515 Y20.3715 
G01 X-12.3679 Y20.3998 
G01 X-12.3878 Y20.4258 
G01 X-12.4004 Y20.4561 
G01 X-12.4167 Y20.4844 
G01 X-12.4252 Y20.5161 
G01 X-12.5811 Y20.8924 
G01 X-13.0420 Y21.3533 
G01 X-13.6441 Y21.6027 
G01 X-14.2959 Y21.6027 
G01 X-14.8980 Y21.3533 
G01 X-15.2813 Y20.9700 
G01 X-15.2967 Y20.9488 
G01 X-15.3272 Y20.9241 
G01 X-15.3549 Y20.8964 
G01 X-15.3777 Y20.8832 
G01 X-15.3980 Y20.8667 
G01 X-15.4339 Y20.8508 
G01 X-15.4679 Y20.8312 
G01 X-15.4932 Y20.8244 
G01 X-15.5172 Y20.8137 
G01 X-15.5559 Y20.8076 
G01 X-15.5938 Y20.7974 
G01 X-15.6201 Y20.7974 
G01 X-15.6460 Y20.7933 
G01 X-15.6850 Y20.7974 
G01 X-15.7243 Y20.7974 
G01 X-15.7496 Y20.8042 
G01 X-15.7757 Y20.8069 
G01 X-15.8123 Y20.8210 
G01 X-15.8502 Y20.8312 
G01 X-15.8729 Y20.8443 
G01 X-15.8974 Y20.8537 
G01 X-15.9292 Y20.8768 
G01 X-15.9632 Y20.8964 
G01 X-16.0147 Y20.9236 
G01 X-16.0147 Y20.8401 
G01 X-15.8704 Y20.7437 
G01 X-15.7307 Y20.6040 
G01 X-15.6209 Y20.4396 
G01 X-15.5453 Y20.2570 
G01 X-15.5067 Y20.0632 
G01 X-15.5067 Y18.0368 
G01 X-15.5453 Y17.8429 
G01 X-15.6209 Y17.6604 
G01 X-15.7307 Y17.4960 
G01 X-15.8704 Y17.3563 
G01 X-16.0147 Y17.2599 
G01 X-16.0147 Y17.1764 
G01 X-15.9651 Y17.2017 
G01 X-15.9292 Y17.2232 
G01 X-15.8974 Y17.2463 
G01 X-15.8729 Y17.2557 
G01 X-15.8502 Y17.2688 
G01 X-15.8123 Y17.2790 
G01 X-15.7757 Y17.2931 
G01 X-15.7496 Y17.2958 
G01 X-15.7243 Y17.3026 
G01 X-15.6850 Y17.3026 
G01 X-15.6460 Y17.3067 
G01 X-15.6201 Y17.3026 
G01 X-15.5938 Y17.3026 
G01 X-15.5559 Y17.2924 
G01 X-15.5172 Y17.2863 
G01 X-15.4932 Y17.2756 
G01 X-15.4679 Y17.2688 
G01 X-15.4339 Y17.2492 
G01 X-15.3980 Y17.2333 
G01 X-15.3777 Y17.2167 
G01 X-15.3549 Y17.2036 
G01 X-15.3272 Y17.1759 
G01 X-15.2967 Y17.1512 
G01 X-15.2813 Y17.1300 
G01 X-14.8980 Y16.7467 
G01 X-14.2959 Y16.4973 
G01 X-13.6441 Y16.4973 
G01 X-13.0420 Y16.7467 
G01 X-12.5811 Y17.2076 
G01 X-12.4252 Y17.5839 
G01 X-12.4167 Y17.6156 
G01 X-12.4004 Y17.6439 
G01 X-12.3878 Y17.6742 
G01 X-12.3679 Y17.7002 
G01 X-12.3515 Y17.7285 
G01 X-12.3284 Y17.7517 
G01 X-12.3084 Y17.7777 
G01 X-12.2825 Y17.7976 
G01 X-12.2593 Y17.8207 
G01 X-12.2309 Y17.8371 
G01 X-12.2050 Y17.8570 
G01 X-12.1747 Y17.8696 
G01 X-12.1464 Y17.8859 
G01 X-12.1147 Y17.8944 
G01 X-12.0845 Y17.9069 
G01 X-12.0520 Y17.9112 
G01 X-12.0204 Y17.9197 
G01 X-11.9877 Y17.9197 
G01 X-11.9552 Y17.9240 
G01 X-11.9227 Y17.9197 
G01 X-8.5180 Y17.9197 
G01 X-8.4855 Y17.9240 
G01 X-8.4530 Y17.9197 
G01 X-8.4203 Y17.9197 
G01 X-8.3887 Y17.9112 
G01 X-8.3562 Y17.9069 
G01 X-8.3259 Y17.8944 
G01 X-8.2943 Y17.8859 
G01 X-8.2660 Y17.8696 
G01 X-8.2357 Y17.8570 
G01 X-8.2097 Y17.8371 
G01 X-8.1814 Y17.8207 
G01 X-8.1582 Y17.7976 
G01 X-8.1322 Y17.7777 
G01 X-8.1123 Y17.7517 
G01 X-8.0892 Y17.7285 
G01 X-8.0728 Y17.7002 
G01 X-8.0528 Y17.6742 
G01 X-8.0403 Y17.6439 
G01 X-8.0239 Y17.6156 
G01 X-8.0155 Y17.5839 
G01 X-7.8945 Y17.2919 
G01 X-7.8736 Y17.2759 
G01 X-7.8537 Y17.2499 
G01 X-7.8305 Y17.2268 
G01 X-7.8141 Y17.1984 
G01 X-7.7942 Y17.1724 
G01 X-7.7817 Y17.1422 
G01 X-7.7653 Y17.1138 
G01 X-7.7568 Y17.0822 
G01 X-7.7443 Y17.0519 
G01 X-7.7400 Y17.0195 
G01 X-7.7316 Y16.9879 
G01 X-7.7316 Y16.9551 
G01 X-7.7273 Y16.9226 
G01 X-7.7316 Y16.8902 
G01 X-7.7316 Y16.8574 
G01 X-7.7400 Y16.8258 
G01 X-7.7443 Y16.7933 
G01 X-7.7568 Y16.7631 
G01 X-7.7653 Y16.7315 
G01 X-7.7817 Y16.7031 
G01 X-7.7942 Y16.6728 
G01 X-7.8141 Y16.6469 
G01 X-7.8305 Y16.6185 
G01 X-7.8537 Y16.5954 
G01 X-7.8736 Y16.5694 
G01 X-7.8996 Y16.5495 
G01 X-7.9227 Y16.5263 
G01 X-7.9330 Y16.5204 
G01 X-8.3717 Y16.0817 
G01 X-8.5979 Y15.5356 
G01 X-8.5979 Y14.9444 
G01 X-8.4325 Y14.5451 
G01 X-8.4161 Y14.5168 
G01 X-8.4077 Y14.4851 
G01 X-8.3951 Y14.4549 
G01 X-8.3909 Y14.4224 
G01 X-8.3824 Y14.3908 
G01 X-8.3824 Y14.3581 
G01 X-8.3781 Y14.3256 
G01 X-8.3824 Y14.2931 
G01 X-8.3824 Y14.2604 
G01 X-8.3909 Y14.2288 
G01 X-8.3951 Y14.1963 
G01 X-8.4077 Y14.1661 
G01 X-8.4161 Y14.1344 
G01 X-8.4325 Y14.1060 
G01 X-8.4450 Y14.0758 
G01 X-8.4650 Y14.0498 
G01 X-8.4813 Y14.0215 
G01 X-8.5045 Y13.9983 
G01 X-8.5244 Y13.9723 
G01 X-8.5504 Y13.9524 
G01 X-8.5736 Y13.9293 
G01 X-8.6019 Y13.9129 
G01 X-8.6279 Y13.8930 
G01 X-8.6581 Y13.8804 
G01 X-8.6865 Y13.8641 
G01 X-8.7181 Y13.8556 
G01 X-8.7484 Y13.8430 
G01 X-8.7808 Y13.8388 
G01 X-8.8125 Y13.8303 
G01 X-8.8452 Y13.8303 
G01 X-8.8777 Y13.8260 
G01 X-8.9101 Y13.8303 
G01 X-9.1148 Y13.8303 
G01 X-9.5303 Y13.6582 
G01 X-9.9640 Y13.2245 
G01 X-12.3882 Y10.8003 
G01 X-12.5603 Y10.3848 
G01 X-12.5603 Y8.9101 
G01 X-12.5560 Y8.8777 
G01 X-12.5603 Y8.8452 
G01 X-12.5603 Y8.8125 
G01 X-12.5688 Y8.7808 
G01 X-12.5730 Y8.7484 
G01 X-12.5856 Y8.7181 
G01 X-12.5940 Y8.6865 
G01 X-12.6104 Y8.6581 
G01 X-12.6230 Y8.6279 
G01 X-12.6429 Y8.6019 
G01 X-12.6593 Y8.5736 
G01 X-12.6824 Y8.5504 
G01 X-12.7023 Y8.5244 
G01 X-12.7283 Y8.5045 
G01 X-12.7515 Y8.4813 
G01 X-12.7798 Y8.4650 
G01 X-12.8058 Y8.4450 
G01 X-12.8360 Y8.4325 
G01 X-12.8644 Y8.4161 
G01 X-12.8961 Y8.4077 
G01 X-12.9263 Y8.3951 
G01 X-12.9588 Y8.3909 
G01 X-12.9904 Y8.3824 
G01 X-13.0231 Y8.3824 
G01 X-13.0556 Y8.3781 
G01 X-13.0881 Y8.3824 
G01 X-13.1208 Y8.3824 
G01 X-13.1524 Y8.3909 
G01 X-13.1849 Y8.3951 
G01 X-13.2151 Y8.4077 
G01 X-13.2468 Y8.4161 
G01 X-13.2751 Y8.4325 
G01 X-13.6744 Y8.5979 
G01 X-14.2656 Y8.5979 
G01 X-14.6649 Y8.4325 
G01 X-14.6932 Y8.4161 
G01 X-14.7249 Y8.4077 
G01 X-14.7551 Y8.3951 
G01 X-14.7876 Y8.3909 
G01 X-14.8192 Y8.3824 
G01 X-14.8519 Y8.3824 
G01 X-14.8844 Y8.3781 
G01 X-14.9169 Y8.3824 
G01 X-14.9496 Y8.3824 
G01 X-14.9812 Y8.3909 
G01 X-15.0137 Y8.3951 
G01 X-15.0439 Y8.4077 
G01 X-15.0756 Y8.4161 
G01 X-15.1039 Y8.4325 
G01 X-15.1342 Y8.4450 
G01 X-15.1602 Y8.4650 
G01 X-15.1885 Y8.4813 
G01 X-15.2117 Y8.5045 
G01 X-15.2377 Y8.5244 
G01 X-15.2576 Y8.5504 
G01 X-15.2807 Y8.5736 
G01 X-15.2971 Y8.6019 
G01 X-15.3170 Y8.6279 
G01 X-15.3296 Y8.6581 
G01 X-15.3459 Y8.6865 
G01 X-15.3544 Y8.7181 
G01 X-15.3669 Y8.7484 
G01 X-15.3712 Y8.7808 
G01 X-15.3797 Y8.8125 
G01 X-15.3797 Y8.8452 
G01 X-15.3840 Y8.8777 
G01 X-15.3797 Y8.9101 
G01 X-15.3797 Y9.1148 
G01 X-15.5518 Y9.5303 
G01 X-15.9019 Y9.8804 
G01 X-16.3560 Y10.3345 
G01 X-16.4395 Y10.4180 
G01 X-16.4482 Y10.4267 
G01 X-16.5114 Y10.5362 
G01 X-16.5134 Y10.5396 
G01 X-16.5472 Y10.6656 
G01 X-16.5472 Y10.7960 
G01 X-16.5457 Y10.8014 
G01 X-16.5134 Y10.9220 
G01 X-16.4496 Y11.0324 
G01 X-16.3560 Y11.1271 
G01 X-16.2464 Y11.1904 
G01 X-16.2430 Y11.1923 
G01 X-16.1171 Y11.2261 
G01 X-15.3960 Y11.2261 
G01 X-15.1299 Y11.3363 
G01 X-14.9255 Y11.5408 
G01 X-14.9066 Y11.5654 
G01 X-14.8902 Y11.5937 
G01 X-14.8671 Y11.6169 
G01 X-14.8471 Y11.6429 
G01 X-14.8212 Y11.6628 
G01 X-14.7980 Y11.6859 
G01 X-14.7853 Y11.6933 
G01 X-14.7853 Y11.8611 
G01 X-14.9577 Y11.8611 
G01 X-14.9904 Y11.8746 
G01 X-15.0154 Y11.8996 
G01 X-15.0289 Y11.9323 
G01 X-15.0289 Y13.4677 
G01 X-15.0154 Y13.5004 
G01 X-14.9904 Y13.5254 
G01 X-14.9577 Y13.5389 
G01 X-14.7853 Y13.5389 
G01 X-14.7853 Y13.7067 
G01 X-14.7980 Y13.7141 
G01 X-14.8212 Y13.7372 
G01 X-14.8471 Y13.7571 
G01 X-14.8671 Y13.7831 
G01 X-14.8902 Y13.8063 
G01 X-14.9066 Y13.8346 
G01 X-14.9255 Y13.8592 
G01 X-15.1299 Y14.0637 
G01 X-15.3960 Y14.1739 
G01 X-16.9840 Y14.1739 
G01 X-17.2049 Y14.0824 
G01 X-17.2332 Y14.0660 
G01 X-17.2649 Y14.0576 
G01 X-17.2951 Y14.0450 
G01 X-17.3276 Y14.0408 
G01 X-17.3592 Y14.0323 
G01 X-17.3919 Y14.0323 
G01 X-17.4244 Y14.0280 
G01 X-17.4569 Y14.0323 
G01 X-17.4896 Y14.0323 
G01 X-17.5212 Y14.0408 
G01 X-17.5537 Y14.0450 
G01 X-17.5840 Y14.0576 
G01 X-17.6156 Y14.0660 
G01 X-17.6439 Y14.0824 
G01 X-17.6742 Y14.0949 
G01 X-17.7002 Y14.1149 
G01 X-17.7285 Y14.1312 
G01 X-17.7517 Y14.1544 
G01 X-17.7777 Y14.1743 
G01 X-17.7976 Y14.2003 
G01 X-17.8207 Y14.2235 
G01 X-17.8371 Y14.2518 
G01 X-17.8570 Y14.2778 
G01 X-17.8696 Y14.3080 
G01 X-17.8859 Y14.3364 
G01 X-17.8944 Y14.3680 
G01 X-17.9069 Y14.3983 
G01 X-17.9112 Y14.4307 
G01 X-17.9197 Y14.4624 
G01 X-17.9197 Y14.4951 
G01 X-17.9240 Y14.5276 
G01 X-17.9197 Y14.5601 
G01 X-17.9197 Y15.4648 
G01 X-18.0918 Y15.8803 
G01 X-18.2360 Y16.0245 
G01 X-18.3012 Y16.1374 
G01 X-18.3026 Y16.1428 
G01 X-18.3349 Y16.2634 
G01 X-18.3349 Y16.3938 
G01 X-18.3012 Y16.5198 
G01 X-18.2360 Y16.6327 
G01 X-18.2271 Y16.6416 
G01 X-17.7387 Y17.1300 
G01 X-17.7233 Y17.1512 
G01 X-17.6928 Y17.1759 
G01 X-17.6651 Y17.2036 
G01 X-17.6423 Y17.2167 
G01 X-17.6219 Y17.2333 
G01 X-17.5861 Y17.2492 
G01 X-17.5521 Y17.2688 
G01 X-17.5268 Y17.2756 
G01 X-17.5028 Y17.2863 
G01 X-17.4641 Y17.2924 
G01 X-17.4262 Y17.3026 
G01 X-17.3999 Y17.3026 
G01 X-17.3740 Y17.3067 
G01 X-17.3350 Y17.3026 
G01 X-17.2957 Y17.3026 
G01 X-17.2704 Y17.2958 
G01 X-17.2443 Y17.2931 
G01 X-17.2077 Y17.2790 
G01 X-17.1698 Y17.2688 
G01 X-17.1471 Y17.2557 
G01 X-17.1225 Y17.2463 
G01 X-17.0908 Y17.2232 
G01 X-17.0568 Y17.2036 
G01 X-17.0053 Y17.1764 
G01 X-17.0053 Y17.2599 
G01 X-17.1496 Y17.3563 
G01 X-17.2893 Y17.4960 
G01 X-17.3991 Y17.6604 
G01 X-17.4747 Y17.8429 
G01 X-17.5133 Y18.0368 
G01 X-17.5133 Y20.0632 
G01 X-17.4747 Y20.2570 
G01 X-17.3991 Y20.4396 
G01 X-17.2893 Y20.6040 
G01 X-17.1496 Y20.7437 
G01 X-17.0053 Y20.8401 
G01 X-17.0053 Y20.9236 
G01 X-17.0549 Y20.8983 
G01 X-17.0908 Y20.8768 
G01 X-17.1225 Y20.8537 
G01 X-17.1471 Y20.8443 
G01 X-17.1698 Y20.8312 
G01 X-17.2077 Y20.8210 
G01 X-17.2443 Y20.8069 
G01 X-17.2704 Y20.8042 
G01 X-17.2957 Y20.7974 
G01 X-17.3350 Y20.7974 
G01 X-17.3740 Y20.7933 
G01 X-17.3999 Y20.7974 
G01 X-17.4262 Y20.7974 
G01 X-17.4641 Y20.8076 
G01 X-17.5028 Y20.8137 
G01 X-17.5268 Y20.8244 
G01 X-17.5521 Y20.8312 
G01 X-17.5861 Y20.8508 
G01 X-17.6219 Y20.8667 
G01 X-17.6423 Y20.8832 
G01 X-17.6651 Y20.8964 
G01 X-17.6928 Y20.9241 
G01 X-17.7233 Y20.9488 
G01 X-17.7387 Y20.9700 
G01 X-18.1220 Y21.3533 
G01 X-18.7241 Y21.6027 
G01 X-19.3759 Y21.6027 
G01 X-19.9780 Y21.3533 
G01 X-20.0147 Y21.3166 
G01 X-20.1057 Y21.2635 
G01 X-20.1288 Y21.2502 
G01 X-20.2443 Y21.2193 
G01 X-20.2548 Y21.2165 
G01 X-20.3193 Y21.2165 
G01 X-20.3852 Y21.2165 
G01 X-20.5112 Y21.2502 
G01 X-20.6040 Y21.3038 
G01 X-20.6241 Y21.3154 
G01 X-20.6620 Y21.3533 
G01 X-21.2641 Y21.6027 
G01 X-21.9159 Y21.6027 
G01 X-22.5180 Y21.3533 
G01 X-22.5559 Y21.3154 
G01 X-22.5742 Y21.3049 
G01 X-22.6688 Y21.2502 
G01 X-22.7948 Y21.2165 
G01 X-22.8593 Y21.2165 
G01 X-22.9252 Y21.2165 
G01 X-22.9328 Y21.2185 
G01 X-23.0512 Y21.2502 
G01 X-23.0724 Y21.2625 
G01 X-23.1641 Y21.3154 
G01 X-23.2020 Y21.3533 
G01 X-23.8041 Y21.6027 
G01 X-24.4559 Y21.6027 
G01 X-25.0580 Y21.3533 
G01 X-25.0947 Y21.3166 
G01 X-25.1857 Y21.2635 
G01 X-25.2088 Y21.2502 
G01 X-25.3243 Y21.2193 
G01 X-25.3348 Y21.2165 
G01 X-25.3993 Y21.2165 
G01 X-25.4652 Y21.2165 
G01 X-25.5912 Y21.2502 
G01 X-25.6840 Y21.3038 
G01 X-25.7041 Y21.3154 
G01 X-25.7420 Y21.3533 
G01 X-26.3441 Y21.6027 
G01 X-26.9959 Y21.6027 
G01 X-27.5980 Y21.3533 
G01 X-27.6347 Y21.3166 
G01 X-27.7257 Y21.2635 
G01 X-27.7488 Y21.2502 
G01 X-27.8643 Y21.2193 
G01 X-27.8748 Y21.2165 
G01 X-27.9393 Y21.2165 
G01 X-28.0052 Y21.2165 
G01 X-28.1312 Y21.2502 
G01 X-28.2240 Y21.3038 
G01 X-28.2441 Y21.3154 
G01 X-28.2820 Y21.3533 
G01 X-28.8841 Y21.6027 
G01 X-29.5359 Y21.6027 
G01 X-30.1380 Y21.3533 
G01 X-30.1747 Y21.3166 
G01 X-30.2657 Y21.2635 
G01 X-30.2888 Y21.2502 
G01 X-30.4043 Y21.2193 
G01 X-30.4148 Y21.2165 
G01 X-30.4793 Y21.2165 
G01 X-30.5452 Y21.2165 
G01 X-30.6712 Y21.2502 
G01 X-30.7640 Y21.3038 
G01 X-30.7841 Y21.3154 
G01 X-30.8220 Y21.3533 
G01 X-31.4241 Y21.6027 
G01 X-32.0759 Y21.6027 
G01 X-32.6780 Y21.3533 
G01 X-33.1389 Y20.8924 
G01 X-33.3883 Y20.2903 
G01 X-33.3883 Y17.8097 
G01 X-33.1389 Y17.2076 
G01 X-32.6780 Y16.7467 
G01 X-32.0759 Y16.4973 
G01 X-31.4241 Y16.4973 
G01 X-30.8220 Y16.7467 
G01 X-30.7841 Y16.7846 
G01 X-30.7658 Y16.7951 
G01 X-30.6712 Y16.8498 
G01 X-30.5452 Y16.8835 
G01 X-30.4807 Y16.8835 
G01 X-30.4148 Y16.8835 
G01 X-30.4072 Y16.8815 
G01 X-30.2888 Y16.8498 
G01 X-30.2676 Y16.8375 
G01 X-30.1759 Y16.7846 
G01 X-30.1380 Y16.7467 
G01 X-29.5359 Y16.4973 
G01 X-28.8841 Y16.4973 
G01 X-28.5151 Y16.6501 
G01 X-28.4868 Y16.6665 
G01 X-28.4551 Y16.6750 
G01 X-28.4249 Y16.6875 
G01 X-28.3924 Y16.6918 
G01 X-28.3608 Y16.7003 
G01 X-28.3281 Y16.7003 
G01 X-28.2956 Y16.7045 
G01 X-28.2631 Y16.7003 
G01 X-28.2304 Y16.7003 
G01 X-28.1988 Y16.6918 
G01 X-28.1663 Y16.6875 
G01 X-28.1360 Y16.6750 
G01 X-28.1044 Y16.6665 
G01 X-28.0761 Y16.6501 
G01 X-28.0458 Y16.6376 
G01 X-28.0198 Y16.6177 
G01 X-27.9915 Y16.6013 
G01 X-27.9683 Y16.5782 
G01 X-27.9423 Y16.5582 
G01 X-27.9224 Y16.5322 
G01 X-27.8993 Y16.5091 
G01 X-27.8829 Y16.4807 
G01 X-27.8630 Y16.4548 
G01 X-27.8504 Y16.4245 
G01 X-27.8341 Y16.3961 
G01 X-27.8256 Y16.3645 
G01 X-27.8130 Y16.3343 
G01 X-27.8088 Y16.3018 
G01 X-27.8003 Y16.2702 
G01 X-27.8003 Y16.2374 
G01 X-27.7960 Y16.2050 
G01 X-27.8003 Y16.1725 
G01 X-27.8003 Y15.8481 
G01 X-27.8341 Y15.7222 
G01 X-27.8993 Y15.6092 
G01 X-27.9915 Y15.5170 
G01 X-29.8267 Y13.6818 
G01 X-30.1682 Y13.3403 
G01 X-30.3403 Y12.9248 
G01 X-30.3403 Y8.2230 
G01 X-30.3741 Y8.0971 
G01 X-30.4393 Y7.9841 
G01 X-30.5055 Y7.9178 
G01 X-30.5210 Y7.8966 
G01 X-30.5514 Y7.8719 
G01 X-30.5792 Y7.8442 
G01 X-30.6019 Y7.8311 
G01 X-30.6223 Y7.8145 
G01 X-30.6582 Y7.7986 
G01 X-30.6921 Y7.7790 
G01 X-30.7175 Y7.7722 
G01 X-30.7414 Y7.7615 
G01 X-30.7802 Y7.7554 
G01 X-30.8181 Y7.7452 
G01 X-30.8443 Y7.7452 
G01 X-30.8703 Y7.7411 
G01 X-30.9093 Y7.7452 
G01 X-30.9485 Y7.7452 
G01 X-30.9739 Y7.7520 
G01 X-31.0000 Y7.7547 
G01 X-31.0366 Y7.7688 
G01 X-31.0745 Y7.7790 
G01 X-31.0972 Y7.7921 
G01 X-31.1217 Y7.8015 
G01 X-31.1535 Y7.8245 
G01 X-31.1874 Y7.8442 
G01 X-31.2060 Y7.8627 
G01 X-31.2547 Y7.8981 
G01 X-31.2547 Y7.8044 
G01 X-31.2076 Y7.7729 
G01 X-31.0891 Y7.6544 
G01 X-30.9959 Y7.5150 
G01 X-30.9318 Y7.3602 
G01 X-30.8991 Y7.1958 
G01 X-30.8991 Y5.5042 
G01 X-30.9318 Y5.3398 
G01 X-30.9959 Y5.1849 
G01 X-31.0891 Y5.0456 
G01 X-31.2076 Y4.9271 
G01 X-31.3469 Y4.8339 
G01 X-31.5018 Y4.7698 
G01 X-31.6662 Y4.7371 
G01 X-31.8338 Y4.7371 
G01 X-31.9982 Y4.7698 
G01 X-32.1531 Y4.8339 
G01 X-32.2924 Y4.9271 
G01 X-32.4109 Y5.0456 
G01 X-32.5041 Y5.1849 
G01 X-32.5682 Y5.3398 
G01 X-32.6009 Y5.5042 
G01 X-32.6009 Y7.1958 
G01 X-32.5682 Y7.3602 
G01 X-32.5041 Y7.5150 
G01 X-32.4109 Y7.6544 
G01 X-32.2924 Y7.7729 
G01 X-32.2453 Y7.8044 
G01 X-32.2453 Y7.8981 
G01 X-32.2940 Y7.8627 
G01 X-32.3125 Y7.8442 
G01 X-32.3465 Y7.8245 
G01 X-32.3783 Y7.8015 
G01 X-32.4028 Y7.7921 
G01 X-32.4255 Y7.7790 
G01 X-32.4634 Y7.7688 
G01 X-32.5000 Y7.7547 
G01 X-32.5261 Y7.7520 
G01 X-32.5515 Y7.7452 
G01 X-32.5907 Y7.7452 
G01 X-32.6297 Y7.7411 
G01 X-32.6556 Y7.7452 
G01 X-32.6819 Y7.7452 
G01 X-32.7198 Y7.7554 
G01 X-32.7585 Y7.7615 
G01 X-32.7825 Y7.7722 
G01 X-32.8078 Y7.7790 
G01 X-32.8418 Y7.7986 
G01 X-32.8777 Y7.8145 
G01 X-32.8981 Y7.8311 
G01 X-32.9208 Y7.8442 
G01 X-32.9485 Y7.8719 
G01 X-32.9790 Y7.8966 
G01 X-32.9945 Y7.9178 
G01 X-33.4483 Y8.3717 
G01 X-33.9944 Y8.5979 
G01 X-34.5856 Y8.5979 
G01 X-35.1317 Y8.3717 
G01 X-35.5497 Y7.9537 
G01 X-35.6067 Y7.8161 
G01 X-35.6152 Y7.7844 
G01 X-35.6315 Y7.7561 
G01 X-35.6441 Y7.7258 
G01 X-35.6640 Y7.6998 
G01 X-35.6804 Y7.6715 
G01 X-35.7035 Y7.6483 
G01 X-35.7235 Y7.6223 
G01 X-35.7494 Y7.6024 
G01 X-35.7726 Y7.5793 
G01 X-35.8010 Y7.5629 
G01 X-35.8269 Y7.5430 
G01 X-35.8572 Y7.5304 
G01 X-35.8855 Y7.5141 
G01 X-35.9172 Y7.5056 
G01 X-35.9474 Y7.4930 
G01 X-35.9799 Y7.4888 
G01 X-36.0115 Y7.4803 
G01 X-36.0442 Y7.4803 
G01 X-36.0767 Y7.4760 
G01 X-36.1092 Y7.4803 
G01 X-40.0319 Y7.4803 
G01 X-40.1578 Y7.5141 
G01 X-40.2708 Y7.5793 
G01 X-40.3630 Y7.6715 
G01 X-41.1560 Y8.4645 
G01 X-41.2482 Y8.5567 
G01 X-41.3126 Y8.6682 
G01 X-41.3472 Y8.7956 
G01 X-41.3472 Y8.9260 
G01 X-41.3134 Y9.0520 
G01 X-41.2482 Y9.1649 
G01 X-41.1560 Y9.2571 
G01 X-41.0445 Y9.3215 
G01 X-40.9171 Y9.3561 
G01 X-39.8260 Y9.3561 
G01 X-39.5599 Y9.4663 
G01 X-39.3563 Y9.6699 
G01 X-39.3498 Y9.6857 
G01 X-39.3398 Y9.6987 
G01 X-39.3325 Y9.7135 
G01 X-39.3002 Y9.7503 
G01 X-39.2704 Y9.7892 
G01 X-39.2574 Y9.7992 
G01 X-39.2465 Y9.8115 
G01 X-39.2058 Y9.8387 
G01 X-39.1669 Y9.8686 
G01 X-39.1517 Y9.8749 
G01 X-39.1381 Y9.8840 
G01 X-39.0917 Y9.8997 
G01 X-39.0464 Y9.9185 
G01 X-39.0301 Y9.9206 
G01 X-39.0146 Y9.9259 
G01 X-38.9657 Y9.9291 
G01 X-38.9171 Y9.9355 
G01 X-38.9008 Y9.9334 
G01 X-38.8844 Y9.9344 
G01 X-38.8364 Y9.9249 
G01 X-38.7878 Y9.9185 
G01 X-38.7792 Y9.9149 
G01 X-38.4653 Y9.9149 
G01 X-38.4653 Y9.9911 
G01 X-38.7877 Y9.9911 
G01 X-38.8204 Y10.0046 
G01 X-38.8454 Y10.0296 
G01 X-38.8589 Y10.0623 
G01 X-38.8589 Y12.7977 
G01 X-38.8454 Y12.8304 
G01 X-38.8204 Y12.8554 
G01 X-38.7877 Y12.8689 
G01 X-38.4653 Y12.8689 
G01 X-38.4653 Y12.9451 
G01 X-38.7792 Y12.9451 
G01 X-38.7878 Y12.9415 
G01 X-38.8364 Y12.9351 
G01 X-38.8844 Y12.9256 
G01 X-38.9008 Y12.9266 
G01 X-38.9171 Y12.9245 
G01 X-38.9657 Y12.9309 
G01 X-39.0146 Y12.9341 
G01 X-39.0301 Y12.9394 
G01 X-39.0464 Y12.9415 
G01 X-39.0917 Y12.9603 
G01 X-39.1381 Y12.9760 
G01 X-39.1517 Y12.9851 
G01 X-39.1669 Y12.9914 
G01 X-39.2058 Y13.0213 
G01 X-39.2465 Y13.0485 
G01 X-39.2574 Y13.0608 
G01 X-39.2704 Y13.0708 
G01 X-39.3002 Y13.1097 
G01 X-39.3325 Y13.1465 
G01 X-39.3398 Y13.1613 
G01 X-39.3498 Y13.1743 
G01 X-39.3563 Y13.1901 
G01 X-39.5599 Y13.3937 
G01 X-39.8260 Y13.5039 
G01 X-41.1055 Y13.5039 
G01 X-41.2314 Y13.5376 
G01 X-41.3444 Y13.6029 
G01 X-41.4366 Y13.6951 
G01 X-41.9507 Y14.2092 
G01 X-42.0159 Y14.3222 
G01 X-42.0497 Y14.4481 
G01 X-42.0497 Y15.2760 
G01 X-42.0159 Y15.4020 
G01 X-41.9507 Y15.5149 
G01 X-41.8585 Y15.6071 
G01 X-41.7456 Y15.6723 
G01 X-41.6196 Y15.7061 
G01 X-39.8260 Y15.7061 
G01 X-39.5599 Y15.8163 
G01 X-39.3563 Y16.0199 
G01 X-39.3498 Y16.0357 
G01 X-39.3398 Y16.0487 
G01 X-39.3325 Y16.0635 
G01 X-39.3002 Y16.1003 
G01 X-39.2704 Y16.1392 
G01 X-39.2574 Y16.1492 
G01 X-39.2465 Y16.1615 
G01 X-39.2058 Y16.1887 
G01 X-39.1669 Y16.2186 
G01 X-39.1517 Y16.2249 
G01 X-39.1381 Y16.2340 
G01 X-39.0917 Y16.2497 
G01 X-39.0464 Y16.2685 
G01 X-39.0301 Y16.2706 
G01 X-39.0146 Y16.2759 
G01 X-38.9657 Y16.2791 
G01 X-38.9171 Y16.2855 
G01 X-38.9008 Y16.2834 
G01 X-38.8845 Y16.2844 
G01 X-38.8364 Y16.2749 
G01 X-38.7878 Y16.2685 
G01 X-38.7792 Y16.2649 
G01 X-38.4653 Y16.2649 
G01 X-38.4653 Y16.3411 
G01 X-38.7877 Y16.3411 
G01 X-38.8204 Y16.3546 
G01 X-38.8454 Y16.3796 
G01 X-38.8589 Y16.4123 
G01 X-38.8589 Y19.1477 
G01 X-38.8454 Y19.1804 
G01 X-38.8204 Y19.2054 
G01 X-38.7877 Y19.2189 
G01 X-38.4653 Y19.2189 
G01 X-38.4653 Y19.2951 
G01 X-38.7792 Y19.2951 
G01 X-38.7878 Y19.2915 
G01 X-38.8364 Y19.2851 
G01 X-38.8845 Y19.2756 
G01 X-38.9008 Y19.2766 
G01 X-38.9171 Y19.2745 
G01 X-38.9657 Y19.2809 
G01 X-39.0146 Y19.2841 
G01 X-39.0301 Y19.2894 
G01 X-39.0464 Y19.2915 
G01 X-39.0917 Y19.3103 
G01 X-39.1381 Y19.3260 
G01 X-39.1517 Y19.3351 
G01 X-39.1669 Y19.3414 
G01 X-39.2058 Y19.3713 
G01 X-39.2465 Y19.3985 
G01 X-39.2574 Y19.4108 
G01 X-39.2704 Y19.4208 
G01 X-39.3002 Y19.4597 
G01 X-39.3325 Y19.4965 
G01 X-39.3398 Y19.5113 
G01 X-39.3498 Y19.5243 
G01 X-39.3563 Y19.5401 
G01 X-39.5599 Y19.7437 
G01 X-39.8260 Y19.8539 
G01 X-41.1055 Y19.8539 
G01 X-41.2261 Y19.8862 
G01 X-41.2314 Y19.8877 
G01 X-41.3444 Y19.9529 
G01 X-41.4366 Y20.0451 
G01 X-41.9507 Y20.5592 
G01 X-42.0159 Y20.6722 
G01 X-42.0483 Y20.7928 
G01 X-42.0497 Y20.7981 
G01 X-42.0497 Y52.7319 
G01 X-42.0159 Y52.8578 
G01 X-41.9507 Y52.9708 
G01 X-41.8868 Y53.0347 
G01 X-37.9375 Y56.9840 
G01 X-37.9093 Y57.0122 
G01 X-37.8453 Y57.0762 
G01 X-37.7324 Y57.1414 
G01 X-37.6064 Y57.1752 
G01 X-37.4760 Y57.1752 
G01 X-37.3500 Y57.1414 
G01 X-37.2371 Y57.0762 
G01 X-37.1449 Y56.9840 
G01 X-37.0797 Y56.8710 
G01 X-37.0459 Y56.7451 
G01 X-37.0459 Y54.8224 
G01 X-36.8197 Y54.2763 
G01 X-36.7893 Y54.2459 
G01 X-36.7240 Y54.1329 
G01 X-36.6903 Y54.0070 
G01 X-36.6903 Y33.4302 
G01 X-36.5182 Y33.0147 
G01 X-33.6603 Y30.1568 
G01 X-33.2448 Y29.9847 
G01 X-23.9052 Y29.9847 
G01 X-23.4897 Y30.1568 
G01 X-21.0655 Y32.5810 
G01 X-21.0143 Y32.6322 
G01 X-20.9733 Y32.6732 
G01 X-20.6318 Y33.0147 
G01 X-20.4597 Y33.4302 
G01 X-20.4597 Y39.0325 
G01 X-20.4640 Y39.0650 
G01 X-20.4597 Y39.0974 
G01 X-20.4597 Y39.1302 
G01 X-20.4512 Y39.1618 
G01 X-20.4469 Y39.1943 
G01 X-20.4344 Y39.2245 
G01 X-20.4259 Y39.2561 
G01 X-20.4096 Y39.2845 
G01 X-20.3970 Y39.3148 
G01 X-20.3771 Y39.3407 
G01 X-20.3607 Y39.3691 
G01 X-20.3376 Y39.3922 
G01 X-20.3176 Y39.4182 
G01 X-20.2917 Y39.4382 
G01 X-20.2685 Y39.4613 
G01 X-20.2402 Y39.4777 
G01 X-20.2142 Y39.4976 
G01 X-20.1839 Y39.5101 
G01 X-20.1556 Y39.5265 
G01 X-20.1239 Y39.5350 
G01 X-20.0937 Y39.5475 
G01 X-20.0612 Y39.5518 
G01 X-20.0296 Y39.5603 
G01 X-19.9969 Y39.5603 
G01 X-19.9644 Y39.5645 
G01 X-19.9319 Y39.5603 
G01 X-19.8992 Y39.5603 
G01 X-19.8676 Y39.5518 
G01 X-19.8351 Y39.5475 
G01 X-19.8048 Y39.5350 
G01 X-19.7732 Y39.5265 
G01 X-19.7449 Y39.5101 
G01 X-19.3759 Y39.3573 
G01 X-18.7241 Y39.3573 
G01 X-18.1220 Y39.6067 
G01 X-18.0841 Y39.6446 
G01 X-18.0658 Y39.6551 
G01 X-17.9712 Y39.7098 
G01 X-17.8452 Y39.7435 
G01 X-17.7807 Y39.7435 
G01 X-17.7148 Y39.7435 
G01 X-17.7072 Y39.7415 
G01 X-17.5888 Y39.7098 
G01 X-17.5676 Y39.6975 
G01 X-17.4759 Y39.6446 
G01 X-17.4380 Y39.6067 
G01 X-16.8359 Y39.3573 
G01 X-16.1841 Y39.3573 
G01 X-15.5820 Y39.6067 
G01 X-15.5441 Y39.6446 
G01 X-15.5258 Y39.6551 
G01 X-15.4312 Y39.7098 
G01 X-15.3052 Y39.7435 
G01 X-15.2407 Y39.7435 
G01 X-15.1748 Y39.7435 
G01 X-15.1672 Y39.7415 
G01 X-15.0488 Y39.7098 
G01 X-15.0276 Y39.6975 
G01 X-14.9359 Y39.6446 
G01 X-14.8980 Y39.6067 
G01 X-14.2959 Y39.3573 
G01 X-13.6441 Y39.3573 
G01 X-13.0420 Y39.6067 
G01 X-12.5811 Y40.0676 
G01 X-12.4252 Y40.4439 
G01 X-12.4167 Y40.4756 
G01 X-12.4004 Y40.5039 
G01 X-12.3878 Y40.5342 
G01 X-12.3679 Y40.5602 
G01 X-12.3515 Y40.5885 
G01 X-12.3284 Y40.6117 
G01 X-12.3084 Y40.6377 
G01 X-12.2825 Y40.6576 
G01 X-12.2593 Y40.6807 
G01 X-12.2309 Y40.6971 
G01 X-12.2050 Y40.7170 
G01 X-12.1747 Y40.7296 
G01 X-12.1464 Y40.7459 
G01 X-12.1147 Y40.7544 
G01 X-12.0845 Y40.7669 
G01 X-12.0520 Y40.7712 
G01 X-12.0204 Y40.7797 
G01 X-11.9877 Y40.7797 
G01 X-11.9552 Y40.7840 
G01 X-11.9227 Y40.7797 
G01 X-11.2052 Y40.7797 
G01 X-10.7897 Y40.9518 
G01 X-5.7333 Y46.0082 
G01 X-5.3918 Y46.3497 
G01 X-5.2197 Y46.7652 
G01 X-5.2197 Y56.1446 
G01 X-5.2057 Y56.1967 
G01 X-5.1859 Y56.2706 
G01 X-5.1368 Y56.3558 
G01 X-5.1207 Y56.3835 
G01 X-5.0300 Y56.4743 
G01 X-4.9992 Y56.4927 
G01 X-4.9156 Y56.5410 
G01 X-4.7896 Y56.5747 
G01 X-4.6592 Y56.5747 
G01 X-4.6071 Y56.5608 
G01 X-4.5332 Y56.5410 
G01 X-4.4203 Y56.4758 
G01 X-4.3598 Y56.4408 
G01 X-3.8196 Y56.2961 
G01 X-3.2604 Y56.2961 
G01 X-2.7202 Y56.4408 
G01 X-2.2359 Y56.7205 
G01 X-1.8405 Y57.1159 
G01 X-1.8188 Y57.1535 
G01 X-1.7578 Y57.2145 
G01 X-1.7265 Y57.2457 
G01 X-1.6413 Y57.2950 
G01 X-1.6136 Y57.3109 
G01 X-1.5425 Y57.3300 
G01 X-1.4876 Y57.3447 
G01 X-1.4231 Y57.3447 
G01 X-1.3572 Y57.3447 
G01 X-1.2859 Y57.3256 
G01 X-1.2312 Y57.3110 
G01 X-1.1609 Y57.2703 
G01 X-1.1183 Y57.2458 
G01 X-1.0573 Y57.1848 
G01 X-1.0261 Y57.1535 
G01 X-0.9768 Y57.0683 
G01 X-0.9609 Y57.0406 
G01 X-0.9418 Y56.9695 
G01 X-0.9271 Y56.9146 
G01 X-0.9271 Y56.8501 
G01 X-0.9271 Y56.7842 
G01 X-0.9271 Y5.4458 
G01 X-0.9271 Y5.3813 
G01 X-0.9271 Y5.3154 
G01 X-0.9416 Y5.2614 
G01 X-0.9608 Y5.1894 
G01 X-0.9762 Y5.1628 
G01 X-1.0261 Y5.0765 
G01 X-1.0563 Y5.0462 
G01 X-1.1183 Y4.9843 
G01 X-1.1597 Y4.9603 
G01 X-1.2312 Y4.9191 
G01 X-1.2845 Y4.9048 
G01 X-1.3572 Y4.8853 
G01 X-1.4217 Y4.8853 
G01 X-1.4876 Y4.8853 
G01 X-1.5416 Y4.8998 
G01 X-1.6136 Y4.9191 
G01 X-1.6402 Y4.9344 
G01 X-1.7265 Y4.9843 
G01 X-1.7568 Y5.0145 
G01 X-1.8187 Y5.0765 
G01 X-1.8405 Y5.1141 
G01 X-2.2359 Y5.5095 
G01 X-2.7202 Y5.7892 
G01 X-3.2604 Y5.9339 
G01 X-3.8196 Y5.9339 
G01 X-4.3598 Y5.7892 
G00 Z2.5400 
G00 X-5.9537 Y6.0459 
G01 Z-0.1778 F100.00 
G01 X-6.0459 Y5.9537 F100.00 
G01 X-9.8559 Y2.1437 
G01 X-9.9688 Y2.0785 
G01 X-10.0948 Y2.0447 
G01 X-36.8952 Y2.0447 
G01 X-37.0212 Y2.0785 
G01 X-37.1341 Y2.1437 
G01 X-41.0363 Y6.0459 
G01 X-43.5763 Y8.5859 
G01 X-43.6415 Y8.6988 
G01 X-43.6753 Y8.8248 
G01 X-43.6753 Y53.4052 
G01 X-43.6415 Y53.5312 
G01 X-43.5763 Y53.6441 
G01 X-43.4841 Y53.7363 
G01 X-37.1341 Y60.0863 
G01 X-37.0212 Y60.1515 
G01 X-36.8952 Y60.1853 
G01 X-10.0948 Y60.1853 
G01 X-9.9688 Y60.1515 
G01 X-9.8559 Y60.0863 
G01 X-9.7637 Y59.9941 
G01 X-5.9537 Y56.1841 
G01 X-5.8885 Y56.0712 
G01 X-5.8547 Y55.9452 
G01 X-5.8547 Y46.9248 
G01 X-5.8885 Y46.7988 
G01 X-5.9537 Y46.6859 
G01 X-6.0459 Y46.5937 
G01 X-11.1259 Y41.5137 
G01 X-11.2388 Y41.4485 
G01 X-11.3648 Y41.4147 
G01 X-12.9667 Y41.4147 
G01 X-12.9667 Y40.8968 
G01 X-13.0053 Y40.7029 
G01 X-13.0809 Y40.5204 
G01 X-13.1907 Y40.3560 
G01 X-13.3304 Y40.2163 
G01 X-13.4948 Y40.1065 
G01 X-13.6773 Y40.0309 
G01 X-13.8712 Y39.9923 
G01 X-14.0688 Y39.9923 
G01 X-14.2627 Y40.0309 
G01 X-14.4452 Y40.1065 
G01 X-14.6096 Y40.2163 
G01 X-14.7493 Y40.3560 
G01 X-14.8591 Y40.5204 
G01 X-14.9347 Y40.7029 
G01 X-14.9733 Y40.8968 
G01 X-14.9733 Y42.9232 
G01 X-14.9347 Y43.1170 
G01 X-14.8591 Y43.2996 
G01 X-14.7493 Y43.4640 
G01 X-14.6096 Y43.6037 
G01 X-14.4452 Y43.7135 
G01 X-14.2627 Y43.7891 
G01 X-14.0688 Y43.8277 
G01 X-13.8712 Y43.8277 
G01 X-13.6773 Y43.7891 
G01 X-13.4948 Y43.7135 
G01 X-13.3304 Y43.6037 
G01 X-13.1907 Y43.4640 
G01 X-13.0809 Y43.2996 
G01 X-13.0053 Y43.1170 
G01 X-12.9667 Y42.9232 
G01 X-12.9667 Y42.4053 
G01 X-11.6352 Y42.4053 
G01 X-6.8453 Y47.1952 
G01 X-6.8453 Y55.6748 
G01 X-10.3652 Y59.1947 
G01 X-17.5748 Y59.1947 
G01 X-18.5547 Y58.2148 
G01 X-18.5547 Y57.3344 
G01 X-18.5076 Y57.3029 
G01 X-18.3891 Y57.1844 
G01 X-18.2959 Y57.0451 
G01 X-18.2318 Y56.8902 
G01 X-18.1991 Y56.7258 
G01 X-18.1991 Y55.0342 
G01 X-18.2318 Y54.8698 
G01 X-18.2959 Y54.7149 
G01 X-18.3891 Y54.5756 
G01 X-18.5076 Y54.4571 
G01 X-18.5547 Y54.4256 
G01 X-18.5547 Y51.6389 
G01 X-18.0623 Y51.6389 
G01 X-18.0296 Y51.6254 
G01 X-18.0046 Y51.6004 
G01 X-17.9911 Y51.5677 
G01 X-17.9911 Y50.0323 
G01 X-18.0046 Y49.9996 
G01 X-18.0296 Y49.9746 
G01 X-18.0623 Y49.9611 
G01 X-19.3977 Y49.9611 
G01 X-19.4304 Y49.9746 
G01 X-19.4554 Y49.9996 
G01 X-19.4689 Y50.0323 
G01 X-19.4689 Y50.8550 
G01 X-19.5115 Y50.9288 
G01 X-19.5453 Y51.0548 
G01 X-19.5453 Y54.4256 
G01 X-19.5924 Y54.4571 
G01 X-19.7109 Y54.5756 
G01 X-19.8041 Y54.7149 
G01 X-19.8682 Y54.8698 
G01 X-19.9009 Y55.0342 
G01 X-19.9009 Y56.7258 
G01 X-19.8682 Y56.8902 
G01 X-19.8041 Y57.0451 
G01 X-19.7109 Y57.1844 
G01 X-19.5924 Y57.3029 
G01 X-19.5453 Y57.3344 
G01 X-19.5453 Y58.4852 
G01 X-19.5115 Y58.6112 
G01 X-19.4463 Y58.7241 
G01 X-19.3541 Y58.8163 
G01 X-18.9758 Y59.1947 
G01 X-29.0048 Y59.1947 
G01 X-29.9847 Y58.2148 
G01 X-29.9847 Y57.3344 
G01 X-29.9376 Y57.3029 
G01 X-29.8191 Y57.1844 
G01 X-29.7259 Y57.0451 
G01 X-29.6618 Y56.8902 
G01 X-29.6291 Y56.7258 
G01 X-29.6291 Y55.0342 
G01 X-29.6618 Y54.8698 
G01 X-29.7259 Y54.7149 
G01 X-29.8191 Y54.5756 
G01 X-29.9376 Y54.4571 
G01 X-30.0769 Y54.3639 
G01 X-30.2318 Y54.2998 
G01 X-30.3962 Y54.2671 
G01 X-30.5638 Y54.2671 
G01 X-30.7282 Y54.2998 
G01 X-30.8831 Y54.3639 
G01 X-31.0224 Y54.4571 
G01 X-31.1409 Y54.5756 
G01 X-31.2341 Y54.7149 
G01 X-31.2982 Y54.8698 
G01 X-31.3309 Y55.0342 
G01 X-31.3309 Y56.7258 
G01 X-31.2982 Y56.8902 
G01 X-31.2341 Y57.0451 
G01 X-31.1409 Y57.1844 
G01 X-31.0224 Y57.3029 
G01 X-30.9753 Y57.3344 
G01 X-30.9753 Y58.4852 
G01 X-30.9415 Y58.6112 
G01 X-30.8763 Y58.7241 
G01 X-30.7841 Y58.8163 
G01 X-30.4058 Y59.1947 
G01 X-36.6248 Y59.1947 
G01 X-42.6847 Y53.1348 
G01 X-42.6847 Y20.3952 
G01 X-41.5084 Y19.2189 
G01 X-39.9523 Y19.2189 
G01 X-39.9196 Y19.2054 
G01 X-39.8946 Y19.1804 
G01 X-39.8811 Y19.1477 
G01 X-39.8811 Y16.4123 
G01 X-39.8946 Y16.3796 
G01 X-39.9196 Y16.3546 
G01 X-39.9523 Y16.3411 
G01 X-41.5877 Y16.3411 
G01 X-41.6204 Y16.3546 
G01 X-41.6454 Y16.3796 
G01 X-41.6589 Y16.4123 
G01 X-41.6589 Y17.9684 
G01 X-42.6847 Y18.9942 
G01 X-42.6847 Y14.0452 
G01 X-41.5084 Y12.8689 
G01 X-39.9523 Y12.8689 
G01 X-39.9196 Y12.8554 
G01 X-39.8946 Y12.8304 
G01 X-39.8811 Y12.7977 
G01 X-39.8811 Y10.0623 
G01 X-39.8946 Y10.0296 
G01 X-39.9196 Y10.0046 
G01 X-39.9523 Y9.9911 
G01 X-41.5877 Y9.9911 
G01 X-41.6204 Y10.0046 
G01 X-41.6454 Y10.0296 
G01 X-41.6589 Y10.0623 
G01 X-41.6589 Y11.6184 
G01 X-42.6847 Y12.6442 
G01 X-42.6847 Y9.0952 
G01 X-40.4348 Y6.8453 
G01 X-35.1409 Y6.8453 
G01 X-35.1409 Y7.1958 
G01 X-35.1082 Y7.3602 
G01 X-35.0441 Y7.5150 
G01 X-34.9509 Y7.6544 
G01 X-34.8324 Y7.7729 
G01 X-34.6930 Y7.8661 
G01 X-34.5382 Y7.9302 
G01 X-34.3738 Y7.9629 
G01 X-34.2062 Y7.9629 
G01 X-34.0418 Y7.9302 
G01 X-33.8869 Y7.8661 
G01 X-33.7476 Y7.7729 
G01 X-33.6291 Y7.6544 
G01 X-33.5359 Y7.5150 
G01 X-33.4718 Y7.3602 
G01 X-33.4391 Y7.1958 
G01 X-33.4391 Y5.5042 
G01 X-33.4718 Y5.3398 
G01 X-33.5359 Y5.1849 
G01 X-33.6291 Y5.0456 
G01 X-33.7476 Y4.9271 
G01 X-33.8869 Y4.8339 
G01 X-34.0418 Y4.7698 
G01 X-34.2062 Y4.7371 
G01 X-34.3738 Y4.7371 
G01 X-34.5382 Y4.7698 
G01 X-34.6930 Y4.8339 
G01 X-34.8324 Y4.9271 
G01 X-34.9509 Y5.0456 
G01 X-35.0441 Y5.1849 
G01 X-35.1082 Y5.3398 
G01 X-35.1409 Y5.5042 
G01 X-35.1409 Y5.8547 
G01 X-39.4442 Y5.8547 
G01 X-36.6248 Y3.0353 
G01 X-10.3652 Y3.0353 
G01 X-6.8453 Y6.5552 
G01 X-6.8453 Y9.3091 
G01 X-7.1958 Y9.3091 
G01 X-7.3602 Y9.3418 
G01 X-7.5150 Y9.4059 
G01 X-7.6544 Y9.4991 
G01 X-7.7729 Y9.6176 
G01 X-7.8661 Y9.7569 
G01 X-7.9302 Y9.9118 
G01 X-7.9629 Y10.0762 
G01 X-7.9629 Y10.2438 
G01 X-7.9302 Y10.4082 
G01 X-7.8661 Y10.5631 
G01 X-7.7729 Y10.7024 
G01 X-7.6544 Y10.8209 
G01 X-7.5150 Y10.9141 
G01 X-7.3602 Y10.9782 
G01 X-7.1958 Y11.0109 
G01 X-5.5042 Y11.0109 
G01 X-5.3398 Y10.9782 
G01 X-5.1849 Y10.9141 
G01 X-5.0456 Y10.8209 
G01 X-4.9271 Y10.7024 
G01 X-4.8339 Y10.5631 
G01 X-4.7698 Y10.4082 
G01 X-4.7371 Y10.2438 
G01 X-4.7371 Y10.0762 
G01 X-4.7698 Y9.9118 
G01 X-4.8339 Y9.7569 
G01 X-4.9271 Y9.6176 
G01 X-5.0456 Y9.4991 
G01 X-5.1849 Y9.4059 
G01 X-5.3398 Y9.3418 
G01 X-5.5042 Y9.3091 
G01 X-5.8547 Y9.3091 
G01 X-5.8547 Y6.2848 
G01 X-5.8885 Y6.1588 
G01 X-5.9537 Y6.0459 
G00 Z2.5400 
G00 X-7.5793 Y6.7192 
G01 Z-0.1778 F100.00 
G01 X-7.6715 Y6.6270 F100.00 
G01 X-9.0525 Y5.2460 
G01 X-9.1447 Y5.1538 
G01 X-9.2562 Y5.0894 
G01 X-9.3836 Y5.0548 
G01 X-9.5140 Y5.0548 
G01 X-9.6400 Y5.0886 
G01 X-9.7529 Y5.1538 
G01 X-9.8451 Y5.2460 
G01 X-9.9095 Y5.3575 
G01 X-9.9441 Y5.4849 
G01 X-9.9441 Y7.4076 
G01 X-10.1703 Y7.9537 
G01 X-10.2007 Y7.9841 
G01 X-10.2659 Y8.0971 
G01 X-10.2997 Y8.2230 
G01 X-10.2997 Y9.5519 
G01 X-10.2659 Y9.6778 
G01 X-10.2007 Y9.7908 
G01 X-10.1085 Y9.8830 
G01 X-9.4895 Y10.5020 
G01 X-9.3973 Y10.5942 
G01 X-9.2858 Y10.6586 
G01 X-9.1584 Y10.6932 
G01 X-9.0280 Y10.6932 
G01 X-9.0226 Y10.6917 
G01 X-8.9020 Y10.6594 
G01 X-8.7916 Y10.5956 
G01 X-8.7876 Y10.5928 
G01 X-8.6969 Y10.5020 
G01 X-8.6325 Y10.3905 
G01 X-8.5979 Y10.2631 
G01 X-8.5979 Y9.8644 
G01 X-8.3717 Y9.3183 
G01 X-7.9537 Y8.9003 
G01 X-7.8161 Y8.8433 
G01 X-7.7844 Y8.8348 
G01 X-7.7561 Y8.8184 
G01 X-7.7258 Y8.8059 
G01 X-7.6998 Y8.7860 
G01 X-7.6715 Y8.7696 
G01 X-7.6483 Y8.7465 
G01 X-7.6223 Y8.7265 
G01 X-7.6024 Y8.7005 
G01 X-7.5793 Y8.6774 
G01 X-7.5629 Y8.6490 
G01 X-7.5430 Y8.6231 
G01 X-7.5304 Y8.5928 
G01 X-7.5141 Y8.5645 
G01 X-7.5056 Y8.5328 
G01 X-7.4930 Y8.5026 
G01 X-7.4888 Y8.4701 
G01 X-7.4803 Y8.4385 
G01 X-7.4803 Y8.4057 
G01 X-7.4760 Y8.3733 
G01 X-7.4803 Y8.3408 
G01 X-7.4803 Y6.9581 
G01 X-7.5141 Y6.8322 
G01 X-7.5793 Y6.7192 
G00 Z2.5400 
G00 X-10.5791 Y7.1958 
G01 Z-0.1778 F100.00 
G01 X-10.5791 Y5.5042 F100.00 
G01 X-10.6118 Y5.3398 
G01 X-10.6759 Y5.1849 
G01 X-10.7691 Y5.0456 
G01 X-10.8876 Y4.9271 
G01 X-11.0269 Y4.8339 
G01 X-11.1818 Y4.7698 
G01 X-11.3462 Y4.7371 
G01 X-11.5138 Y4.7371 
G01 X-11.6782 Y4.7698 
G01 X-11.8331 Y4.8339 
G01 X-11.9724 Y4.9271 
G01 X-12.0909 Y5.0456 
G01 X-12.1841 Y5.1849 
G01 X-12.2482 Y5.3398 
G01 X-12.2809 Y5.5042 
G01 X-12.2809 Y7.1958 
G01 X-12.2482 Y7.3602 
G01 X-12.1841 Y7.5150 
G01 X-12.0909 Y7.6544 
G01 X-11.9724 Y7.7729 
G01 X-11.9253 Y7.8044 
G01 X-11.9253 Y10.2252 
G01 X-11.8915 Y10.3512 
G01 X-11.8263 Y10.4641 
G01 X-9.2863 Y13.0041 
G01 X-9.1941 Y13.0963 
G01 X-9.0812 Y13.1615 
G01 X-8.9552 Y13.1953 
G01 X-7.8044 Y13.1953 
G01 X-7.7729 Y13.2424 
G01 X-7.6544 Y13.3609 
G01 X-7.5150 Y13.4541 
G01 X-7.3602 Y13.5182 
G01 X-7.1958 Y13.5509 
G01 X-5.5042 Y13.5509 
G01 X-5.3398 Y13.5182 
G01 X-5.1849 Y13.4541 
G01 X-5.0456 Y13.3609 
G01 X-4.9271 Y13.2424 
G01 X-4.8339 Y13.1030 
G01 X-4.7698 Y12.9482 
G01 X-4.7371 Y12.7838 
G01 X-4.7371 Y12.6162 
G01 X-4.7698 Y12.4518 
G01 X-4.8339 Y12.2969 
G01 X-4.9271 Y12.1576 
G01 X-5.0456 Y12.0391 
G01 X-5.1849 Y11.9459 
G01 X-5.3398 Y11.8818 
G01 X-5.5042 Y11.8491 
G01 X-7.1958 Y11.8491 
G01 X-7.3602 Y11.8818 
G01 X-7.5150 Y11.9459 
G01 X-7.6544 Y12.0391 
G01 X-7.7729 Y12.1576 
G01 X-7.8044 Y12.2047 
G01 X-8.6848 Y12.2047 
G01 X-10.9347 Y9.9548 
G01 X-10.9347 Y7.8044 
G01 X-10.8876 Y7.7729 
G01 X-10.7691 Y7.6544 
G01 X-10.6759 Y7.5150 
G01 X-10.6118 Y7.3602 
G01 X-10.5791 Y7.1958 
G00 Z2.5400 
G00 X-13.1191 Y7.1958 
G01 Z-0.1778 F100.00 
G01 X-13.1191 Y5.5042 F100.00 
G01 X-13.1518 Y5.3398 
G01 X-13.2159 Y5.1849 
G01 X-13.3091 Y5.0456 
G01 X-13.4276 Y4.9271 
G01 X-13.5669 Y4.8339 
G01 X-13.7218 Y4.7698 
G01 X-13.8862 Y4.7371 
G01 X-14.0538 Y4.7371 
G01 X-14.2182 Y4.7698 
G01 X-14.3730 Y4.8339 
G01 X-14.5124 Y4.9271 
G01 X-14.6309 Y5.0456 
G01 X-14.7241 Y5.1849 
G01 X-14.7882 Y5.3398 
G01 X-14.8209 Y5.5042 
G01 X-14.8209 Y5.8547 
G01 X-15.6591 Y5.8547 
G01 X-15.6591 Y5.5042 
G01 X-15.6918 Y5.3398 
G01 X-15.7559 Y5.1849 
G01 X-15.8491 Y5.0456 
G01 X-15.9676 Y4.9271 
G01 X-16.1069 Y4.8339 
G01 X-16.2618 Y4.7698 
G01 X-16.4262 Y4.7371 
G01 X-16.5938 Y4.7371 
G01 X-16.7582 Y4.7698 
G01 X-16.9130 Y4.8339 
G01 X-17.0524 Y4.9271 
G01 X-17.1709 Y5.0456 
G01 X-17.2641 Y5.1849 
G01 X-17.3282 Y5.3398 
G01 X-17.3609 Y5.5042 
G01 X-17.3609 Y7.1958 
G01 X-17.3282 Y7.3602 
G01 X-17.2641 Y7.5150 
G01 X-17.1709 Y7.6544 
G01 X-17.0524 Y7.7729 
G01 X-17.0053 Y7.8044 
G01 X-17.0053 Y8.6848 
G01 X-17.9852 Y9.6647 
G01 X-20.3852 Y9.6647 
G01 X-20.5112 Y9.6985 
G01 X-20.6241 Y9.7637 
G01 X-20.7163 Y9.8559 
G01 X-21.6663 Y10.8059 
G01 X-21.7315 Y10.9188 
G01 X-21.7653 Y11.0448 
G01 X-21.7653 Y11.8611 
G01 X-21.9377 Y11.8611 
G01 X-21.9704 Y11.8746 
G01 X-21.9954 Y11.8996 
G01 X-22.0089 Y11.9323 
G01 X-22.0089 Y13.4677 
G01 X-21.9954 Y13.5004 
G01 X-21.9704 Y13.5254 
G01 X-21.9377 Y13.5389 
G01 X-20.6023 Y13.5389 
G01 X-20.5696 Y13.5254 
G01 X-20.5446 Y13.5004 
G01 X-20.5311 Y13.4677 
G01 X-20.5311 Y11.9323 
G01 X-20.5446 Y11.8996 
G01 X-20.5696 Y11.8746 
G01 X-20.6023 Y11.8611 
G01 X-20.7747 Y11.8611 
G01 X-20.7747 Y11.3152 
G01 X-20.1148 Y10.6553 
G01 X-17.7148 Y10.6553 
G01 X-17.5888 Y10.6215 
G01 X-17.4759 Y10.5563 
G01 X-16.2059 Y9.2863 
G01 X-16.1137 Y9.1941 
G01 X-16.0485 Y9.0812 
G01 X-16.0147 Y8.9552 
G01 X-16.0147 Y7.8044 
G01 X-15.9676 Y7.7729 
G01 X-15.8491 Y7.6544 
G01 X-15.7559 Y7.5150 
G01 X-15.6918 Y7.3602 
G01 X-15.6591 Y7.1958 
G01 X-15.6591 Y6.8453 
G01 X-14.8209 Y6.8453 
G01 X-14.8209 Y7.1958 
G01 X-14.7882 Y7.3602 
G01 X-14.7241 Y7.5150 
G01 X-14.6309 Y7.6544 
G01 X-14.5124 Y7.7729 
G01 X-14.3730 Y7.8661 
G01 X-14.2182 Y7.9302 
G01 X-14.0538 Y7.9629 
G01 X-13.8862 Y7.9629 
G01 X-13.7218 Y7.9302 
G01 X-13.5669 Y7.8661 
G01 X-13.4276 Y7.7729 
G01 X-13.3091 Y7.6544 
G01 X-13.2159 Y7.5150 
G01 X-13.1518 Y7.3602 
G01 X-13.1191 Y7.1958 
G00 Z2.5400 
G00 X-13.5348 Y11.8217 
G01 Z-0.1778 F100.00 
G01 X-13.5117 Y11.8448 F100.00 
G01 X-13.4937 Y11.8718 
G01 X-13.4812 Y11.9018 
G01 X-13.4749 Y11.9337 
G01 X-13.4749 Y12.2047 
G01 X-13.5511 Y12.2047 
G01 X-13.5511 Y11.9323 
G01 X-13.5646 Y11.8996 
G01 X-13.5896 Y11.8746 
G01 X-13.6223 Y11.8611 
G01 X-13.7947 Y11.8611 
G01 X-13.7947 Y11.7849 
G01 X-13.6237 Y11.7849 
G01 X-13.5919 Y11.7912 
G01 X-13.5618 Y11.8037 
G01 X-13.5348 Y11.8217 
G00 Z2.5400 
G00 X-13.5511 Y13.1953 
G01 Z-0.1778 F100.00 
G01 X-13.4749 Y13.1953 F100.00 
G01 X-13.4749 Y13.4663 
G01 X-13.4812 Y13.4981 
G01 X-13.4937 Y13.5282 
G01 X-13.5117 Y13.5552 
G01 X-13.5348 Y13.5782 
G01 X-13.5618 Y13.5963 
G01 X-13.5918 Y13.6088 
G01 X-13.6237 Y13.6151 
G01 X-13.7947 Y13.6151 
G01 X-13.7947 Y13.5389 
G01 X-13.6223 Y13.5389 
G01 X-13.5896 Y13.5254 
G01 X-13.5646 Y13.5004 
G01 X-13.5511 Y13.4677 
G01 X-13.5511 Y13.1953 
G00 Z2.5400 
G00 X-15.4511 Y13.4677 
G01 Z-0.1778 F100.00 
G01 X-15.4511 Y11.9323 F100.00 
G01 X-15.4646 Y11.8996 
G01 X-15.4896 Y11.8746 
G01 X-15.5223 Y11.8611 
G01 X-16.8577 Y11.8611 
G01 X-16.8904 Y11.8746 
G01 X-16.9154 Y11.8996 
G01 X-16.9289 Y11.9323 
G01 X-16.9289 Y12.2047 
G01 X-18.6311 Y12.2047 
G01 X-18.6311 Y11.9323 
G01 X-18.6446 Y11.8996 
G01 X-18.6696 Y11.8746 
G01 X-18.7023 Y11.8611 
G01 X-20.0377 Y11.8611 
G01 X-20.0704 Y11.8746 
G01 X-20.0954 Y11.8996 
G01 X-20.1089 Y11.9323 
G01 X-20.1089 Y13.4677 
G01 X-20.0954 Y13.5004 
G01 X-20.0704 Y13.5254 
G01 X-20.0377 Y13.5389 
G01 X-19.5453 Y13.5389 
G01 X-19.5453 Y15.0348 
G01 X-21.6428 Y17.1323 
G01 X-21.6888 Y17.1323 
G01 X-21.8827 Y17.1709 
G01 X-22.0652 Y17.2465 
G01 X-22.2296 Y17.3563 
G01 X-22.3693 Y17.4960 
G01 X-22.4791 Y17.6604 
G01 X-22.5547 Y17.8429 
G01 X-22.5933 Y18.0368 
G01 X-22.5933 Y20.0632 
G01 X-22.5547 Y20.2570 
G01 X-22.4791 Y20.4396 
G01 X-22.3693 Y20.6040 
G01 X-22.2296 Y20.7437 
G01 X-22.0652 Y20.8535 
G01 X-21.8827 Y20.9291 
G01 X-21.6888 Y20.9677 
G01 X-21.4912 Y20.9677 
G01 X-21.2973 Y20.9291 
G01 X-21.1148 Y20.8535 
G01 X-20.9504 Y20.7437 
G01 X-20.8107 Y20.6040 
G01 X-20.7009 Y20.4396 
G01 X-20.6253 Y20.2570 
G01 X-20.5867 Y20.0632 
G01 X-20.5867 Y18.0368 
G01 X-20.6253 Y17.8429 
G01 X-20.7009 Y17.6604 
G01 X-20.7285 Y17.6190 
G01 X-18.7459 Y15.6363 
G01 X-18.6537 Y15.5441 
G01 X-18.5885 Y15.4312 
G01 X-18.5547 Y15.3052 
G01 X-18.5547 Y13.1953 
G01 X-16.9289 Y13.1953 
G01 X-16.9289 Y13.4677 
G01 X-16.9154 Y13.5004 
G01 X-16.8904 Y13.5254 
G01 X-16.8577 Y13.5389 
G01 X-15.5223 Y13.5389 
G01 X-15.4896 Y13.5254 
G01 X-15.4646 Y13.5004 
G01 X-15.4511 Y13.4677 
G00 Z2.5400 
G00 X-14.6096 Y17.3563 
G01 Z-0.1778 F100.00 
G01 X-14.7493 Y17.4960 F100.00 
G01 X-14.8591 Y17.6604 
G01 X-14.9347 Y17.8429 
G01 X-14.9733 Y18.0368 
G01 X-14.9733 Y20.0632 
G01 X-14.9347 Y20.2570 
G01 X-14.8591 Y20.4396 
G01 X-14.7493 Y20.6040 
G01 X-14.6096 Y20.7437 
G01 X-14.4452 Y20.8535 
G01 X-14.2627 Y20.9291 
G01 X-14.0688 Y20.9677 
G01 X-13.8712 Y20.9677 
G01 X-13.6773 Y20.9291 
G01 X-13.4948 Y20.8535 
G01 X-13.3304 Y20.7437 
G01 X-13.1907 Y20.6040 
G01 X-13.0809 Y20.4396 
G01 X-13.0053 Y20.2570 
G01 X-12.9667 Y20.0632 
G01 X-12.9667 Y19.5453 
G01 X-7.3689 Y19.5453 
G01 X-7.3689 Y20.4177 
G01 X-7.3554 Y20.4504 
G01 X-7.3304 Y20.4754 
G01 X-7.2977 Y20.4889 
G01 X-6.9753 Y20.4889 
G01 X-6.9753 Y23.9611 
G01 X-7.2977 Y23.9611 
G01 X-7.3304 Y23.9746 
G01 X-7.3554 Y23.9996 
G01 X-7.3689 Y24.0323 
G01 X-7.3689 Y26.7677 
G01 X-7.3554 Y26.8004 
G01 X-7.3304 Y26.8254 
G01 X-7.2977 Y26.8389 
G01 X-5.6623 Y26.8389 
G01 X-5.6296 Y26.8254 
G01 X-5.6046 Y26.8004 
G01 X-5.5911 Y26.7677 
G01 X-5.5911 Y24.0323 
G01 X-5.6046 Y23.9996 
G01 X-5.6296 Y23.9746 
G01 X-5.6623 Y23.9611 
G01 X-5.9847 Y23.9611 
G01 X-5.9847 Y20.4889 
G01 X-5.6623 Y20.4889 
G01 X-5.6296 Y20.4754 
G01 X-5.6046 Y20.4504 
G01 X-5.5911 Y20.4177 
G01 X-5.5911 Y17.6823 
G01 X-5.6046 Y17.6496 
G01 X-5.6296 Y17.6246 
G01 X-5.6623 Y17.6111 
G01 X-5.8547 Y17.6111 
G01 X-5.8547 Y16.0909 
G01 X-5.5042 Y16.0909 
G01 X-5.3398 Y16.0582 
G01 X-5.1849 Y15.9941 
G01 X-5.0456 Y15.9009 
G01 X-4.9271 Y15.7824 
G01 X-4.8339 Y15.6431 
G01 X-4.7698 Y15.4882 
G01 X-4.7371 Y15.3238 
G01 X-4.7371 Y15.1562 
G01 X-4.7698 Y14.9918 
G01 X-4.8339 Y14.8369 
G01 X-4.9271 Y14.6976 
G01 X-5.0456 Y14.5791 
G01 X-5.1849 Y14.4859 
G01 X-5.3398 Y14.4218 
G01 X-5.5042 Y14.3891 
G01 X-7.1958 Y14.3891 
G01 X-7.3602 Y14.4218 
G01 X-7.5150 Y14.4859 
G01 X-7.6544 Y14.5791 
G01 X-7.7729 Y14.6976 
G01 X-7.8661 Y14.8369 
G01 X-7.9302 Y14.9918 
G01 X-7.9629 Y15.1562 
G01 X-7.9629 Y15.3238 
G01 X-7.9302 Y15.4882 
G01 X-7.8661 Y15.6431 
G01 X-7.7729 Y15.7824 
G01 X-7.6544 Y15.9009 
G01 X-7.5150 Y15.9941 
G01 X-7.3602 Y16.0582 
G01 X-7.1958 Y16.0909 
G01 X-6.8453 Y16.0909 
G01 X-6.8453 Y17.6111 
G01 X-7.2977 Y17.6111 
G01 X-7.3304 Y17.6246 
G01 X-7.3554 Y17.6496 
G01 X-7.3689 Y17.6823 
G01 X-7.3689 Y18.5547 
G01 X-12.9667 Y18.5547 
G01 X-12.9667 Y18.0368 
G01 X-13.0053 Y17.8429 
G01 X-13.0809 Y17.6604 
G01 X-13.1907 Y17.4960 
G01 X-13.3304 Y17.3563 
G01 X-13.4948 Y17.2465 
G01 X-13.6773 Y17.1709 
G01 X-13.8712 Y17.1323 
G01 X-14.0688 Y17.1323 
G01 X-14.2627 Y17.1709 
G01 X-14.4452 Y17.2465 
G01 X-14.6096 Y17.3563 
G00 Z2.5400 
G00 X-18.2707 Y17.4960 
G01 Z-0.1778 F100.00 
G01 X-18.4104 Y17.3563 F100.00 
G01 X-18.5748 Y17.2465 
G01 X-18.7573 Y17.1709 
G01 X-18.9512 Y17.1323 
G01 X-19.1488 Y17.1323 
G01 X-19.3426 Y17.1709 
G01 X-19.5252 Y17.2465 
G01 X-19.6896 Y17.3563 
G01 X-19.8293 Y17.4960 
G01 X-19.9391 Y17.6604 
G01 X-20.0147 Y17.8429 
G01 X-20.0533 Y18.0368 
G01 X-20.0533 Y20.0632 
G01 X-20.0147 Y20.2570 
G01 X-19.9391 Y20.4396 
G01 X-19.8293 Y20.6040 
G01 X-19.6896 Y20.7437 
G01 X-19.5252 Y20.8535 
G01 X-19.3426 Y20.9291 
G01 X-19.1488 Y20.9677 
G01 X-18.9512 Y20.9677 
G01 X-18.7573 Y20.9291 
G01 X-18.5748 Y20.8535 
G01 X-18.4104 Y20.7437 
G01 X-18.2707 Y20.6040 
G01 X-18.1609 Y20.4396 
G01 X-18.0853 Y20.2570 
G01 X-18.0467 Y20.0632 
G01 X-18.0467 Y18.0368 
G01 X-18.0853 Y17.8429 
G01 X-18.1609 Y17.6604 
G01 X-18.2707 Y17.4960 
G00 Z2.5400 
G00 X-21.8260 Y16.4235 
G01 Z-0.1778 F100.00 
G01 X-21.8060 Y16.3975 F100.00 
G01 X-20.4740 Y15.0655 
G01 X-20.3818 Y14.9733 
G01 X-20.3174 Y14.8618 
G01 X-20.2828 Y14.7344 
G01 X-20.2828 Y14.6040 
G01 X-20.3166 Y14.4780 
G01 X-20.3818 Y14.3651 
G01 X-20.4740 Y14.2729 
G01 X-20.5855 Y14.2085 
G01 X-20.7129 Y14.1739 
G01 X-22.0640 Y14.1739 
G01 X-22.2849 Y14.0824 
G01 X-22.3132 Y14.0660 
G01 X-22.3449 Y14.0576 
G01 X-22.3751 Y14.0450 
G01 X-22.4076 Y14.0408 
G01 X-22.4392 Y14.0323 
G01 X-22.4719 Y14.0323 
G01 X-22.5044 Y14.0280 
G01 X-22.5369 Y14.0323 
G01 X-22.5696 Y14.0323 
G01 X-22.6012 Y14.0408 
G01 X-22.6337 Y14.0450 
G01 X-22.6639 Y14.0576 
G01 X-22.6956 Y14.0660 
G01 X-22.7239 Y14.0824 
G01 X-22.7542 Y14.0949 
G01 X-22.7802 Y14.1149 
G01 X-22.8085 Y14.1312 
G01 X-22.8317 Y14.1544 
G01 X-22.8576 Y14.1743 
G01 X-22.8776 Y14.2003 
G01 X-22.9007 Y14.2235 
G01 X-22.9171 Y14.2518 
G01 X-22.9370 Y14.2778 
G01 X-22.9496 Y14.3080 
G01 X-22.9659 Y14.3364 
G01 X-22.9744 Y14.3680 
G01 X-22.9869 Y14.3983 
G01 X-22.9912 Y14.4307 
G01 X-22.9997 Y14.4624 
G01 X-22.9997 Y14.4951 
G01 X-23.0040 Y14.5276 
G01 X-22.9997 Y14.5601 
G01 X-22.9997 Y16.1725 
G01 X-23.0040 Y16.2050 
G01 X-22.9997 Y16.2374 
G01 X-22.9997 Y16.2702 
G01 X-22.9912 Y16.3018 
G01 X-22.9869 Y16.3343 
G01 X-22.9744 Y16.3645 
G01 X-22.9659 Y16.3961 
G01 X-22.9496 Y16.4245 
G01 X-22.9370 Y16.4548 
G01 X-22.9171 Y16.4807 
G01 X-22.9007 Y16.5091 
G01 X-22.8776 Y16.5322 
G01 X-22.8576 Y16.5582 
G01 X-22.8317 Y16.5781 
G01 X-22.8085 Y16.6013 
G01 X-22.7802 Y16.6177 
G01 X-22.7542 Y16.6376 
G01 X-22.7239 Y16.6501 
G01 X-22.6956 Y16.6665 
G01 X-22.6639 Y16.6750 
G01 X-22.6337 Y16.6875 
G01 X-22.6012 Y16.6918 
G01 X-22.5696 Y16.7003 
G01 X-22.5369 Y16.7003 
G01 X-22.5044 Y16.7045 
G01 X-22.4719 Y16.7003 
G01 X-22.4392 Y16.7003 
G01 X-22.4076 Y16.6918 
G01 X-22.3751 Y16.6875 
G01 X-22.3449 Y16.6750 
G01 X-22.3132 Y16.6665 
G01 X-22.2849 Y16.6501 
G01 X-22.0197 Y16.5403 
G01 X-21.9880 Y16.5318 
G01 X-21.9597 Y16.5154 
G01 X-21.9294 Y16.5029 
G01 X-21.9034 Y16.4830 
G01 X-21.8751 Y16.4666 
G01 X-21.8519 Y16.4434 
G01 X-21.8260 Y16.4235 
G00 Z2.5400 
G00 X-23.3507 Y17.4960 
G01 Z-0.1778 F100.00 
G01 X-23.4904 Y17.3563 F100.00 
G01 X-23.6347 Y17.2599 
G01 X-23.6347 Y13.9048 
G01 X-23.6685 Y13.7788 
G01 X-23.7337 Y13.6659 
G01 X-26.1747 Y11.2248 
G01 X-26.1747 Y7.8044 
G01 X-26.1276 Y7.7729 
G01 X-26.0091 Y7.6544 
G01 X-25.9159 Y7.5150 
G01 X-25.8518 Y7.3602 
G01 X-25.8191 Y7.1958 
G01 X-25.8191 Y5.5042 
G01 X-25.8518 Y5.3398 
G01 X-25.9159 Y5.1849 
G01 X-26.0091 Y5.0456 
G01 X-26.1276 Y4.9271 
G01 X-26.2669 Y4.8339 
G01 X-26.4218 Y4.7698 
G01 X-26.5862 Y4.7371 
G01 X-26.7538 Y4.7371 
G01 X-26.9182 Y4.7698 
G01 X-27.0730 Y4.8339 
G01 X-27.2124 Y4.9271 
G01 X-27.3309 Y5.0456 
G01 X-27.4241 Y5.1849 
G01 X-27.4882 Y5.3398 
G01 X-27.5209 Y5.5042 
G01 X-27.5209 Y7.1958 
G01 X-27.4882 Y7.3602 
G01 X-27.4241 Y7.5150 
G01 X-27.3309 Y7.6544 
G01 X-27.2124 Y7.7729 
G01 X-27.1653 Y7.8044 
G01 X-27.1653 Y11.4952 
G01 X-27.1315 Y11.6212 
G01 X-27.0663 Y11.7341 
G01 X-26.9741 Y11.8263 
G01 X-24.6253 Y14.1752 
G01 X-24.6253 Y17.2599 
G01 X-24.7696 Y17.3563 
G01 X-24.9093 Y17.4960 
G01 X-25.0191 Y17.6604 
G01 X-25.0947 Y17.8429 
G01 X-25.1333 Y18.0368 
G01 X-25.1333 Y20.0632 
G01 X-25.0947 Y20.2570 
G01 X-25.0191 Y20.4396 
G01 X-24.9093 Y20.6040 
G01 X-24.7696 Y20.7437 
G01 X-24.6052 Y20.8535 
G01 X-24.4227 Y20.9291 
G01 X-24.2288 Y20.9677 
G01 X-24.0312 Y20.9677 
G01 X-23.8373 Y20.9291 
G01 X-23.6548 Y20.8535 
G01 X-23.4904 Y20.7437 
G01 X-23.3507 Y20.6040 
G01 X-23.2409 Y20.4396 
G01 X-23.1653 Y20.2570 
G01 X-23.1267 Y20.0632 
G01 X-23.1267 Y18.0368 
G01 X-23.1653 Y17.8429 
G01 X-23.2409 Y17.6604 
G01 X-23.3507 Y17.4960 
G00 Z2.5400 
G00 X-25.8907 Y17.4960 
G01 Z-0.1778 F100.00 
G01 X-26.0304 Y17.3563 F100.00 
G01 X-26.1747 Y17.2599 
G01 X-26.1747 Y15.1748 
G01 X-26.2085 Y15.0488 
G01 X-26.2737 Y14.9359 
G01 X-28.7147 Y12.4948 
G01 X-28.7147 Y7.8044 
G01 X-28.6676 Y7.7729 
G01 X-28.5491 Y7.6544 
G01 X-28.4559 Y7.5150 
G01 X-28.3918 Y7.3602 
G01 X-28.3591 Y7.1958 
G01 X-28.3591 Y5.5042 
G01 X-28.3918 Y5.3398 
G01 X-28.4559 Y5.1849 
G01 X-28.5491 Y5.0456 
G01 X-28.6676 Y4.9271 
G01 X-28.8069 Y4.8339 
G01 X-28.9618 Y4.7698 
G01 X-29.1262 Y4.7371 
G01 X-29.2938 Y4.7371 
G01 X-29.4582 Y4.7698 
G01 X-29.6131 Y4.8339 
G01 X-29.7524 Y4.9271 
G01 X-29.8709 Y5.0456 
G01 X-29.9641 Y5.1849 
G01 X-30.0282 Y5.3398 
G01 X-30.0609 Y5.5042 
G01 X-30.0609 Y7.1958 
G01 X-30.0282 Y7.3602 
G01 X-29.9641 Y7.5150 
G01 X-29.8709 Y7.6544 
G01 X-29.7524 Y7.7729 
G01 X-29.7053 Y7.8044 
G01 X-29.7053 Y12.7652 
G01 X-29.6715 Y12.8912 
G01 X-29.6063 Y13.0041 
G01 X-29.5141 Y13.0963 
G01 X-27.1653 Y15.4452 
G01 X-27.1653 Y17.2599 
G01 X-27.3096 Y17.3563 
G01 X-27.4493 Y17.4960 
G01 X-27.5591 Y17.6604 
G01 X-27.6347 Y17.8429 
G01 X-27.6733 Y18.0368 
G01 X-27.6733 Y20.0632 
G01 X-27.6347 Y20.2570 
G01 X-27.5591 Y20.4396 
G01 X-27.4493 Y20.6040 
G01 X-27.3096 Y20.7437 
G01 X-27.1452 Y20.8535 
G01 X-26.9627 Y20.9291 
G01 X-26.7688 Y20.9677 
G01 X-26.5712 Y20.9677 
G01 X-26.3773 Y20.9291 
G01 X-26.1948 Y20.8535 
G01 X-26.0304 Y20.7437 
G01 X-25.8907 Y20.6040 
G01 X-25.7809 Y20.4396 
G01 X-25.7053 Y20.2570 
G01 X-25.6667 Y20.0632 
G01 X-25.6667 Y18.0368 
G01 X-25.7053 Y17.8429 
G01 X-25.7809 Y17.6604 
G01 X-25.8907 Y17.4960 
G00 Z2.5400 
G00 X-28.4307 Y17.4960 
G01 Z-0.1778 F100.00 
G01 X-28.5704 Y17.3563 F100.00 
G01 X-28.7348 Y17.2465 
G01 X-28.9173 Y17.1709 
G01 X-29.1112 Y17.1323 
G01 X-29.3088 Y17.1323 
G01 X-29.5026 Y17.1709 
G01 X-29.6852 Y17.2465 
G01 X-29.8496 Y17.3563 
G01 X-29.9893 Y17.4960 
G01 X-30.0991 Y17.6604 
G01 X-30.1747 Y17.8429 
G01 X-30.2133 Y18.0368 
G01 X-30.2133 Y20.0632 
G01 X-30.1747 Y20.2570 
G01 X-30.0991 Y20.4396 
G01 X-29.9893 Y20.6040 
G01 X-29.8496 Y20.7437 
G01 X-29.6852 Y20.8535 
G01 X-29.5026 Y20.9291 
G01 X-29.3088 Y20.9677 
G01 X-29.1112 Y20.9677 
G01 X-28.9173 Y20.9291 
G01 X-28.7348 Y20.8535 
G01 X-28.5704 Y20.7437 
G01 X-28.4307 Y20.6040 
G01 X-28.3209 Y20.4396 
G01 X-28.2453 Y20.2570 
G01 X-28.2067 Y20.0632 
G01 X-28.2067 Y18.0368 
G01 X-28.2453 Y17.8429 
G01 X-28.3209 Y17.6604 
G01 X-28.4307 Y17.4960 
G00 Z2.5400 
G00 X-30.9707 Y17.4960 
G01 Z-0.1778 F100.00 
G01 X-31.1104 Y17.3563 F100.00 
G01 X-31.2748 Y17.2465 
G01 X-31.4573 Y17.1709 
G01 X-31.6512 Y17.1323 
G01 X-31.8488 Y17.1323 
G01 X-32.0427 Y17.1709 
G01 X-32.2252 Y17.2465 
G01 X-32.3896 Y17.3563 
G01 X-32.5293 Y17.4960 
G01 X-32.6391 Y17.6604 
G01 X-32.7147 Y17.8429 
G01 X-32.7533 Y18.0368 
G01 X-32.7533 Y20.0632 
G01 X-32.7147 Y20.2570 
G01 X-32.6391 Y20.4396 
G01 X-32.5293 Y20.6040 
G01 X-32.3896 Y20.7437 
G01 X-32.2252 Y20.8535 
G01 X-32.0427 Y20.9291 
G01 X-31.8488 Y20.9677 
G01 X-31.6512 Y20.9677 
G01 X-31.4573 Y20.9291 
G01 X-31.2748 Y20.8535 
G01 X-31.1104 Y20.7437 
G01 X-30.9707 Y20.6040 
G01 X-30.8609 Y20.4396 
G01 X-30.7853 Y20.2570 
G01 X-30.7467 Y20.0632 
G01 X-30.7467 Y18.0368 
G01 X-30.7853 Y17.8429 
G01 X-30.8609 Y17.6604 
G01 X-30.9707 Y17.4960 
G00 Z2.5400 
G00 X-31.4470 Y22.8981 
G01 Z-0.1778 F100.00 
G01 X-30.3830 Y22.8981 F100.00 
G01 X-30.3664 Y22.9050 
G01 X-30.2371 Y22.9220 
G01 X-30.1078 Y22.9050 
G01 X-30.0911 Y22.8981 
G01 X-29.4911 Y22.8981 
G01 X-29.4000 Y22.8981 
G01 X-29.3834 Y22.9050 
G01 X-29.3204 Y22.9133 
G01 X-29.2541 Y22.9220 
G01 X-29.1885 Y22.9134 
G01 X-29.1248 Y22.9050 
G01 X-29.1082 Y22.8981 
G01 X-28.7899 Y22.8981 
G01 X-28.7055 Y22.9331 
G01 X-28.5762 Y22.9501 
G01 X-28.4469 Y22.9331 
G01 X-28.3625 Y22.8981 
G01 X-28.0442 Y22.8981 
G01 X-28.0276 Y22.9050 
G01 X-27.9898 Y22.9099 
G01 X-27.8983 Y22.9220 
G01 X-27.8093 Y22.9103 
G01 X-27.7690 Y22.9050 
G01 X-27.7523 Y22.8981 
G01 X-27.2534 Y22.8981 
G01 X-27.0612 Y22.8981 
G01 X-27.0446 Y22.9050 
G01 X-26.9816 Y22.9133 
G01 X-26.9153 Y22.9220 
G01 X-26.8497 Y22.9134 
G01 X-26.7860 Y22.9050 
G01 X-26.7694 Y22.8981 
G01 X-26.1134 Y22.8981 
G01 X-25.8918 Y22.8981 
G01 X-25.7820 Y22.9436 
G01 X-25.7327 Y22.9501 
G01 X-25.6527 Y22.9606 
G01 X-25.5759 Y22.9505 
G01 X-25.5234 Y22.9436 
G01 X-25.4172 Y22.8996 
G01 X-25.4136 Y22.8981 
G01 X-24.8135 Y22.8981 
G01 X-24.7224 Y22.8981 
G01 X-24.6486 Y22.9287 
G01 X-24.6236 Y22.9390 
G01 X-24.5281 Y22.9786 
G01 X-24.4283 Y23.0199 
G01 X-24.3577 Y23.0906 
G01 X-24.2676 Y23.1806 
G01 X-24.1797 Y23.2685 
G01 X-24.1430 Y23.3052 
G01 X-24.0875 Y23.3607 
G01 X-24.0168 Y23.4314 
G01 X-23.9325 Y23.6351 
G01 X-23.9182 Y23.6695 
G01 X-23.8950 Y23.7255 
G01 X-23.8950 Y23.9470 
G01 X-23.8950 Y24.0771 
G01 X-23.8950 Y24.0921 
G01 X-23.8980 Y24.1069 
G01 X-23.8950 Y24.1571 
G01 X-23.8950 Y24.3578 
G01 X-23.8980 Y24.4081 
G01 X-23.8950 Y24.4228 
G01 X-23.8950 Y24.4379 
G01 X-23.8950 Y24.5511 
G01 X-23.8950 Y24.7895 
G01 X-24.0168 Y25.0835 
G01 X-24.0705 Y25.1372 
G01 X-24.0963 Y25.1630 
G01 X-24.1627 Y25.2294 
G01 X-24.2070 Y25.2737 
G01 X-24.2722 Y25.3866 
G01 X-24.3059 Y25.5126 
G01 X-24.3059 Y25.6430 
G01 X-24.2722 Y25.7690 
G01 X-24.2070 Y25.8819 
G01 X-24.1148 Y25.9741 
G01 X-24.0018 Y26.0393 
G01 X-23.8758 Y26.0731 
G01 X-23.5316 Y26.0731 
G01 X-23.4348 Y26.0731 
G01 X-23.3250 Y26.1186 
G01 X-23.2758 Y26.1251 
G01 X-23.1957 Y26.1356 
G01 X-23.1189 Y26.1255 
G01 X-23.0664 Y26.1186 
G01 X-22.9602 Y26.0746 
G01 X-22.9566 Y26.0731 
G01 X-22.5546 Y26.0731 
G01 X-22.5222 Y26.0774 
G01 X-22.4897 Y26.0731 
G01 X-22.4570 Y26.0731 
G01 X-22.4253 Y26.0646 
G01 X-22.3929 Y26.0603 
G01 X-22.3626 Y26.0478 
G01 X-22.3310 Y26.0393 
G01 X-22.3026 Y26.0230 
G01 X-21.9736 Y25.8867 
G01 X-20.9096 Y25.8867 
G01 X-20.6028 Y26.0137 
G01 X-20.5921 Y26.0200 
G01 X-20.5661 Y26.0399 
G01 X-20.5358 Y26.0524 
G01 X-20.5075 Y26.0688 
G01 X-20.4758 Y26.0773 
G01 X-20.4015 Y26.1081 
G01 X-20.2722 Y26.1251 
G01 X-20.1429 Y26.1081 
G01 X-20.0585 Y26.0731 
G01 X-19.3165 Y26.0731 
G01 X-19.1370 Y26.1475 
G01 X-19.0202 Y26.1958 
G01 X-18.8926 Y26.2126 
G01 X-18.7616 Y26.1958 
G01 X-18.6412 Y26.1459 
G01 X-18.4654 Y26.0731 
G01 X-18.1471 Y26.0731 
G01 X-18.1151 Y26.0863 
G01 X-18.0627 Y26.1081 
G01 X-17.9743 Y26.1197 
G01 X-17.9334 Y26.1251 
G01 X-17.8958 Y26.1201 
G01 X-17.8041 Y26.1081 
G01 X-17.7566 Y26.0884 
G01 X-17.7197 Y26.0731 
G01 X-16.9777 Y26.0731 
G01 X-16.9457 Y26.0863 
G01 X-16.8933 Y26.1081 
G01 X-16.8049 Y26.1197 
G01 X-16.7640 Y26.1251 
G01 X-16.7264 Y26.1201 
G01 X-16.6347 Y26.1081 
G01 X-16.5872 Y26.0884 
G01 X-16.5503 Y26.0731 
G01 X-16.2320 Y26.0731 
G01 X-16.2154 Y26.0800 
G01 X-16.0861 Y26.0970 
G01 X-15.9568 Y26.0800 
G01 X-15.9402 Y26.0731 
G01 X-15.3402 Y26.0731 
G01 X-15.2490 Y26.0731 
G01 X-15.1752 Y26.1037 
G01 X-15.1110 Y26.1303 
G01 X-15.0782 Y26.1438 
G01 X-15.0547 Y26.1536 
G01 X-15.0460 Y26.1572 
G01 X-14.9786 Y26.1661 
G01 X-14.9167 Y26.1742 
G01 X-14.8537 Y26.1659 
G01 X-14.7874 Y26.1572 
G01 X-14.7234 Y26.1307 
G01 X-14.5844 Y26.0731 
G01 X-14.2661 Y26.0731 
G01 X-14.2217 Y26.0915 
G01 X-14.1562 Y26.1186 
G01 X-14.0474 Y26.1329 
G01 X-14.0269 Y26.1356 
G01 X-13.8976 Y26.1186 
G01 X-13.7878 Y26.0731 
G01 X-12.3001 Y26.0731 
G01 X-12.2157 Y26.1081 
G01 X-12.0864 Y26.1251 
G01 X-11.9571 Y26.1081 
G01 X-11.8727 Y26.0731 
G01 X-11.5544 Y26.0731 
G01 X-11.2603 Y26.1949 
G01 X-11.0353 Y26.4200 
G01 X-10.9135 Y26.7141 
G01 X-10.9135 Y27.0512 
G01 X-10.9181 Y27.0865 
G01 X-10.9268 Y27.1528 
G01 X-10.9182 Y27.2188 
G01 X-10.9135 Y27.2545 
G01 X-10.9135 Y27.5328 
G01 X-10.9165 Y27.5831 
G01 X-10.9135 Y27.5978 
G01 X-10.9135 Y27.6015 
G01 X-10.9135 Y27.6633 
G01 X-10.9135 Y27.7318 
G01 X-10.9135 Y27.9645 
G01 X-10.9462 Y28.0436 
G01 X-11.0353 Y28.2586 
G01 X-11.1003 Y28.3236 
G01 X-11.1904 Y28.4137 
G01 X-11.2839 Y28.5072 
G01 X-11.3195 Y28.5428 
G01 X-11.3572 Y28.5762 
G01 X-11.3655 Y28.5888 
G01 X-11.3818 Y28.6050 
G01 X-11.4468 Y28.6700 
G01 X-11.6749 Y28.7646 
G01 X-11.7408 Y28.7919 
G01 X-11.8376 Y28.7919 
G01 X-14.9572 Y28.7919 
G01 X-14.9738 Y28.7850 
G01 X-15.0368 Y28.7767 
G01 X-15.1031 Y28.7679 
G01 X-15.1687 Y28.7766 
G01 X-15.2324 Y28.7850 
G01 X-15.2490 Y28.7919 
G01 X-15.3402 Y28.7919 
G01 X-15.9402 Y28.7919 
G01 X-16.0227 Y28.7577 
G01 X-16.1432 Y28.7077 
G01 X-16.2412 Y28.6949 
G01 X-16.2725 Y28.6907 
G01 X-16.3013 Y28.6945 
G01 X-16.4018 Y28.7077 
G01 X-16.5223 Y28.7577 
G01 X-16.6048 Y28.7919 
G01 X-16.9231 Y28.7919 
G01 X-16.9469 Y28.7820 
G01 X-17.0330 Y28.7464 
G01 X-17.0935 Y28.7384 
G01 X-17.1623 Y28.7293 
G01 X-17.2297 Y28.7382 
G01 X-17.2916 Y28.7464 
G01 X-17.3523 Y28.7715 
G01 X-17.4014 Y28.7919 
G01 X-17.7197 Y28.7919 
G01 X-17.7517 Y28.7786 
G01 X-17.8041 Y28.7569 
G01 X-17.8925 Y28.7452 
G01 X-17.9334 Y28.7399 
G01 X-17.9709 Y28.7448 
G01 X-18.0627 Y28.7569 
G01 X-18.1102 Y28.7766 
G01 X-18.1471 Y28.7919 
G01 X-19.6348 Y28.7919 
G01 X-19.6514 Y28.7850 
G01 X-19.7144 Y28.7767 
G01 X-19.7807 Y28.7679 
G01 X-19.8463 Y28.7766 
G01 X-19.9100 Y28.7850 
G01 X-19.9266 Y28.7919 
G01 X-20.0234 Y28.7919 
G01 X-20.8042 Y28.7919 
G01 X-21.0983 Y28.6700 
G01 X-21.2307 Y28.5376 
G01 X-21.2600 Y28.5207 
G01 X-21.3436 Y28.4724 
G01 X-21.4696 Y28.4387 
G01 X-21.6000 Y28.4387 
G01 X-21.6521 Y28.4526 
G01 X-21.7260 Y28.4724 
G01 X-21.8389 Y28.5376 
G01 X-21.9311 Y28.6298 
G01 X-21.9713 Y28.6700 
G01 X-22.0711 Y28.7114 
G01 X-22.1639 Y28.7498 
G01 X-22.1916 Y28.7613 
G01 X-22.2654 Y28.7919 
G01 X-22.3566 Y28.7919 
G01 X-22.9566 Y28.7919 
G01 X-23.0664 Y28.7464 
G01 X-23.1156 Y28.7399 
G01 X-23.1957 Y28.7293 
G01 X-23.2724 Y28.7394 
G01 X-23.3250 Y28.7464 
G01 X-23.4311 Y28.7903 
G01 X-23.4348 Y28.7919 
G01 X-23.5484 Y28.7919 
G01 X-24.1260 Y28.7919 
G01 X-24.1426 Y28.7850 
G01 X-24.1803 Y28.7800 
G01 X-24.2719 Y28.7679 
G01 X-24.3609 Y28.7797 
G01 X-24.4012 Y28.7850 
G01 X-24.4178 Y28.7919 
G01 X-24.7361 Y28.7919 
G01 X-24.7681 Y28.7786 
G01 X-24.8205 Y28.7569 
G01 X-24.9089 Y28.7452 
G01 X-24.9498 Y28.7399 
G01 X-24.9873 Y28.7448 
G01 X-25.0791 Y28.7569 
G01 X-25.1266 Y28.7766 
G01 X-25.1635 Y28.7919 
G01 X-27.0749 Y28.7919 
G01 X-27.1069 Y28.7786 
G01 X-27.1593 Y28.7569 
G01 X-27.2477 Y28.7452 
G01 X-27.2886 Y28.7399 
G01 X-27.3261 Y28.7448 
G01 X-27.4179 Y28.7569 
G01 X-27.4654 Y28.7766 
G01 X-27.5023 Y28.7919 
G01 X-27.8206 Y28.7919 
G01 X-28.1146 Y28.6700 
G01 X-28.1548 Y28.6298 
G01 X-28.2432 Y28.5415 
G01 X-28.2471 Y28.5376 
G01 X-28.3600 Y28.4724 
G01 X-28.4316 Y28.4532 
G01 X-28.4860 Y28.4387 
G01 X-28.6164 Y28.4387 
G01 X-28.7424 Y28.4724 
G01 X-28.8241 Y28.5196 
G01 X-28.8553 Y28.5376 
G01 X-28.9475 Y28.6298 
G01 X-28.9877 Y28.6700 
G01 X-29.0875 Y28.7114 
G01 X-29.1803 Y28.7498 
G01 X-29.2080 Y28.7613 
G01 X-29.2818 Y28.7919 
G01 X-29.3729 Y28.7919 
G01 X-30.1594 Y28.7919 
G01 X-30.3389 Y28.7175 
G01 X-30.4556 Y28.6691 
G01 X-30.5833 Y28.6523 
G01 X-30.7142 Y28.6691 
G01 X-30.8347 Y28.7190 
G01 X-31.0105 Y28.7919 
G01 X-33.7015 Y28.7919 
G01 X-33.7334 Y28.7786 
G01 X-33.7858 Y28.7569 
G01 X-33.8743 Y28.7452 
G01 X-33.9151 Y28.7399 
G01 X-33.9527 Y28.7448 
G01 X-34.0444 Y28.7569 
G01 X-34.0919 Y28.7766 
G01 X-34.1289 Y28.7919 
G01 X-34.4471 Y28.7919 
G01 X-34.4637 Y28.7850 
G01 X-34.5268 Y28.7767 
G01 X-34.5930 Y28.7679 
G01 X-34.6586 Y28.7766 
G01 X-34.7223 Y28.7850 
G01 X-34.7390 Y28.7919 
G01 X-34.8301 Y28.7919 
G01 X-35.4301 Y28.7919 
G01 X-35.4467 Y28.7850 
G01 X-35.5094 Y28.7767 
G01 X-35.5760 Y28.7679 
G01 X-35.6421 Y28.7766 
G01 X-35.7053 Y28.7850 
G01 X-35.7220 Y28.7919 
G01 X-36.0402 Y28.7919 
G01 X-36.0722 Y28.7786 
G01 X-36.1246 Y28.7569 
G01 X-36.2131 Y28.7452 
G01 X-36.2539 Y28.7399 
G01 X-36.2915 Y28.7448 
G01 X-36.3832 Y28.7569 
G01 X-36.4307 Y28.7766 
G01 X-36.4676 Y28.7919 
G01 X-36.7859 Y28.7919 
G01 X-37.0800 Y28.6700 
G01 X-37.3051 Y28.4450 
G01 X-37.4269 Y28.1509 
G01 X-37.4269 Y26.7140 
G01 X-37.3051 Y26.4200 
G01 X-37.2810 Y26.3959 
G01 X-37.2551 Y26.3760 
G01 X-37.2351 Y26.3500 
G01 X-37.2120 Y26.3269 
G01 X-37.1956 Y26.2985 
G01 X-37.1757 Y26.2725 
G01 X-37.1631 Y26.2423 
G01 X-37.1468 Y26.2139 
G01 X-37.1383 Y26.1823 
G01 X-37.1258 Y26.1520 
G01 X-37.1215 Y26.1196 
G01 X-37.1130 Y26.0880 
G01 X-37.1130 Y26.0552 
G01 X-37.1087 Y26.0227 
G01 X-37.1130 Y25.9903 
G01 X-37.1130 Y25.9575 
G01 X-37.1215 Y25.9259 
G01 X-37.1258 Y25.8934 
G01 X-37.1383 Y25.8632 
G01 X-37.1468 Y25.8316 
G01 X-37.1631 Y25.8032 
G01 X-37.1757 Y25.7730 
G01 X-37.1956 Y25.7470 
G01 X-37.2120 Y25.7186 
G01 X-37.2351 Y25.6955 
G01 X-37.2551 Y25.6695 
G01 X-37.2810 Y25.6496 
G01 X-37.3042 Y25.6264 
G01 X-37.3325 Y25.6100 
G01 X-37.3585 Y25.5901 
G01 X-37.3888 Y25.5776 
G01 X-37.4171 Y25.5612 
G01 X-37.4488 Y25.5527 
G01 X-37.5880 Y25.4950 
G01 X-37.8131 Y25.2700 
G01 X-37.9349 Y24.9759 
G01 X-37.9349 Y23.5390 
G01 X-37.8131 Y23.2450 
G01 X-37.5880 Y23.0199 
G01 X-37.2940 Y22.8981 
G01 X-36.9756 Y22.8981 
G01 X-36.7961 Y22.9725 
G01 X-36.6794 Y23.0208 
G01 X-36.5518 Y23.0376 
G01 X-36.4208 Y23.0208 
G01 X-36.3003 Y22.9709 
G01 X-36.1245 Y22.8981 
G01 X-35.8062 Y22.8981 
G01 X-35.7743 Y22.9113 
G01 X-35.7219 Y22.9331 
G01 X-35.6334 Y22.9447 
G01 X-35.5926 Y22.9501 
G01 X-35.5550 Y22.9451 
G01 X-35.4633 Y22.9331 
G01 X-35.4158 Y22.9134 
G01 X-35.3788 Y22.8981 
G01 X-35.3639 Y22.8981 
G01 X-35.3148 Y22.9013 
G01 X-35.2989 Y22.8981 
G01 X-35.2828 Y22.8981 
G01 X-35.2352 Y22.8853 
G01 X-35.2206 Y22.8824 
G01 X-35.2051 Y22.8855 
G01 X-35.1580 Y22.8981 
G01 X-35.1413 Y22.8981 
G01 X-35.1249 Y22.9013 
G01 X-35.0763 Y22.8981 
G01 X-35.0605 Y22.8981 
G01 X-35.0439 Y22.9050 
G01 X-34.9147 Y22.9220 
G01 X-34.7853 Y22.9050 
G01 X-34.7687 Y22.8981 
G01 X-34.1687 Y22.8981 
G01 X-34.0776 Y22.8981 
G01 X-33.9678 Y22.9436 
G01 X-33.9185 Y22.9501 
G01 X-33.8385 Y22.9606 
G01 X-33.7617 Y22.9505 
G01 X-33.7092 Y22.9436 
G01 X-33.6030 Y22.8996 
G01 X-33.5993 Y22.8981 
G01 X-33.0049 Y22.8981 
G01 X-32.9082 Y22.8981 
G01 X-32.7984 Y22.9436 
G01 X-32.7491 Y22.9501 
G01 X-32.6691 Y22.9606 
G01 X-32.5923 Y22.9505 
G01 X-32.5398 Y22.9436 
G01 X-32.4336 Y22.8996 
G01 X-32.4299 Y22.8981 
G01 X-31.8299 Y22.8981 
G01 X-31.7388 Y22.8981 
G01 X-31.7222 Y22.9050 
G01 X-31.6592 Y22.9133 
G01 X-31.5929 Y22.9220 
G01 X-31.5273 Y22.9134 
G01 X-31.4636 Y22.9050 
G01 X-31.4470 Y22.8981 
G00 Z2.5400 
G00 X-31.3813 Y23.5582 
G01 Z-0.1778 F100.00 
G01 X-31.4278 Y23.6047 F100.00 
G01 X-31.4529 Y23.6654 
G01 X-31.4529 Y23.7310 
G01 X-31.4278 Y23.7917 
G01 X-30.7072 Y24.5123 
G01 X-30.7072 Y24.5619 
G01 X-30.7969 Y24.6517 
G01 X-31.0330 Y24.6517 
G01 X-31.1943 Y24.4904 
G01 X-31.2550 Y24.4652 
G01 X-31.3207 Y24.4652 
G01 X-31.3813 Y24.4904 
G01 X-31.4278 Y24.5368 
G01 X-31.4529 Y24.5975 
G01 X-31.4529 Y24.6632 
G01 X-31.4278 Y24.7238 
G01 X-31.1949 Y24.9567 
G01 X-31.1342 Y24.9819 
G01 X-30.6957 Y24.9819 
G01 X-30.6350 Y24.9567 
G01 X-30.4021 Y24.7238 
G01 X-30.3770 Y24.6632 
G01 X-30.3770 Y24.4111 
G01 X-30.4021 Y24.3504 
G01 X-30.4486 Y24.3039 
G01 X-30.8892 Y23.8633 
G01 X-30.5093 Y23.8633 
G01 X-30.4486 Y23.8382 
G01 X-30.4021 Y23.7917 
G01 X-30.3770 Y23.7310 
G01 X-30.3770 Y23.6654 
G01 X-30.4021 Y23.6047 
G01 X-30.4486 Y23.5582 
G01 X-30.5093 Y23.5331 
G01 X-31.3207 Y23.5331 
G01 X-31.3813 Y23.5582 
G00 Z2.5400 
G00 X-31.5715 Y23.7911 
G01 Z-0.1778 F100.00 
G01 X-31.8044 Y23.5582 F100.00 
G01 X-31.8649 Y23.5332 
G01 X-32.3036 Y23.5331 
G01 X-32.3643 Y23.5582 
G01 X-32.5507 Y23.7447 
G01 X-32.5972 Y23.7911 
G01 X-32.6223 Y23.8518 
G01 X-32.6223 Y24.6632 
G01 X-32.5972 Y24.7238 
G01 X-32.4108 Y24.9103 
G01 X-32.3643 Y24.9567 
G01 X-32.3036 Y24.9819 
G01 X-31.8651 Y24.9819 
G01 X-31.8061 Y24.9574 
G01 X-31.5715 Y24.7238 
G01 X-31.5471 Y24.6649 
G01 X-31.5464 Y23.8518 
G01 X-31.5715 Y23.7911 
G00 Z2.5400 
G00 X-31.8766 Y23.9530 
G01 Z-0.1778 F100.00 
G01 X-31.8766 Y24.2317 F100.00 
G01 X-32.2237 Y23.8846 
G01 X-32.2024 Y23.8633 
G01 X-31.9663 Y23.8633 
G01 X-31.8766 Y23.9530 
G00 Z2.5400 
G00 X-32.2921 Y24.2832 
G01 Z-0.1778 F100.00 
G01 X-31.9450 Y24.6303 F100.00 
G01 X-31.9663 Y24.6517 
G01 X-32.2024 Y24.6517 
G01 X-32.2921 Y24.5619 
G01 X-32.2921 Y24.2832 
G00 Z2.5400 
G00 X-32.7158 Y24.6632 
G01 Z-0.1778 F100.00 
G01 X-32.7158 Y23.8518 F100.00 
G01 X-32.7409 Y23.7911 
G01 X-32.9738 Y23.5582 
G01 X-33.0345 Y23.5331 
G01 X-33.4730 Y23.5331 
G01 X-33.5337 Y23.5582 
G01 X-33.5801 Y23.6047 
G01 X-33.7666 Y23.7911 
G01 X-33.7917 Y23.8518 
G01 X-33.7917 Y23.9175 
G01 X-33.7666 Y23.9781 
G01 X-33.7201 Y24.0246 
G01 X-33.6594 Y24.0497 
G01 X-33.5938 Y24.0497 
G01 X-33.5331 Y24.0246 
G01 X-33.3718 Y23.8633 
G01 X-33.1357 Y23.8633 
G01 X-33.0460 Y23.9530 
G01 X-33.0460 Y24.0924 
G01 X-33.4730 Y24.0924 
G01 X-33.5337 Y24.1175 
G01 X-33.7666 Y24.3504 
G01 X-33.7917 Y24.4111 
G01 X-33.7917 Y24.6632 
G01 X-33.7666 Y24.7238 
G01 X-33.7201 Y24.7703 
G01 X-33.5337 Y24.9567 
G01 X-33.4730 Y24.9819 
G01 X-33.0345 Y24.9819 
G01 X-32.9738 Y24.9567 
G01 X-32.7409 Y24.7238 
G01 X-32.7158 Y24.6632 
G00 Z2.5400 
G00 X-33.0460 Y24.5619 
G01 Z-0.1778 F100.00 
G01 X-33.1357 Y24.6517 F100.00 
G01 X-33.3718 Y24.6517 
G01 X-33.4615 Y24.5619 
G01 X-33.4615 Y24.5123 
G01 X-33.3718 Y24.4226 
G01 X-33.0460 Y24.4226 
G01 X-33.0460 Y24.5619 
G00 Z2.5400 
G00 X-33.8852 Y24.6632 
G01 Z-0.1778 F100.00 
G01 X-33.8852 Y24.4111 F100.00 
G01 X-33.9103 Y24.3504 
G01 X-34.0032 Y24.2575 
G01 X-33.9103 Y24.1646 
G01 X-33.8859 Y24.1056 
G01 X-33.8852 Y23.8518 
G01 X-33.9103 Y23.7911 
G01 X-34.1414 Y23.5600 
G01 X-34.2039 Y23.5331 
G01 X-34.6424 Y23.5331 
G01 X-34.7031 Y23.5582 
G01 X-34.9360 Y23.7911 
G01 X-34.9611 Y23.8518 
G01 X-34.9611 Y23.9175 
G01 X-34.9360 Y23.9781 
G01 X-34.8895 Y24.0246 
G01 X-34.8288 Y24.0497 
G01 X-34.7632 Y24.0497 
G01 X-34.7025 Y24.0246 
G01 X-34.5412 Y23.8633 
G01 X-34.3051 Y23.8633 
G01 X-34.2154 Y23.9530 
G01 X-34.2154 Y24.0027 
G01 X-34.3051 Y24.0924 
G01 X-34.4560 Y24.0924 
G01 X-34.5167 Y24.1175 
G01 X-34.5631 Y24.1640 
G01 X-34.5883 Y24.2246 
G01 X-34.5883 Y24.2903 
G01 X-34.5631 Y24.3510 
G01 X-34.5167 Y24.3974 
G01 X-34.4560 Y24.4226 
G01 X-34.3051 Y24.4226 
G01 X-34.2154 Y24.5123 
G01 X-34.2154 Y24.5619 
G01 X-34.3051 Y24.6517 
G01 X-34.5412 Y24.6517 
G01 X-34.7025 Y24.4904 
G01 X-34.7632 Y24.4652 
G01 X-34.8288 Y24.4652 
G01 X-34.8895 Y24.4904 
G01 X-34.9360 Y24.5368 
G01 X-34.9611 Y24.5975 
G01 X-34.9611 Y24.6632 
G01 X-34.9360 Y24.7238 
G01 X-34.7495 Y24.9103 
G01 X-34.7031 Y24.9567 
G01 X-34.6424 Y24.9819 
G01 X-34.2039 Y24.9819 
G01 X-34.1449 Y24.9574 
G01 X-33.9103 Y24.7238 
G01 X-33.8859 Y24.6649 
G00 Z2.5400 
G00 X-35.0546 Y24.8496 
G01 Z-0.1778 F100.00 
G01 X-35.0546 Y23.7144 F100.00 
G01 X-35.0514 Y23.6980 
G01 X-35.0546 Y23.6819 
G01 X-35.0546 Y23.6654 
G01 X-35.0610 Y23.6500 
G01 X-35.0642 Y23.6336 
G01 X-35.0734 Y23.6199 
G01 X-35.0797 Y23.6047 
G01 X-35.0915 Y23.5929 
G01 X-35.1008 Y23.5790 
G01 X-35.1145 Y23.5699 
G01 X-35.1262 Y23.5582 
G01 X-35.1416 Y23.5519 
G01 X-35.1554 Y23.5426 
G01 X-35.1716 Y23.5394 
G01 X-35.1869 Y23.5331 
G01 X-35.2035 Y23.5331 
G01 X-35.2199 Y23.5299 
G01 X-35.2360 Y23.5331 
G01 X-35.2525 Y23.5331 
G01 X-35.2679 Y23.5395 
G01 X-35.2843 Y23.5427 
G01 X-35.2980 Y23.5519 
G01 X-35.3132 Y23.5582 
G01 X-35.3250 Y23.5700 
G01 X-35.3389 Y23.5793 
G01 X-35.3480 Y23.5930 
G01 X-35.3597 Y23.6047 
G01 X-35.3660 Y23.6201 
G01 X-35.8003 Y24.2715 
G01 X-35.8003 Y23.6654 
G01 X-35.8254 Y23.6047 
G01 X-35.8719 Y23.5582 
G01 X-35.9326 Y23.5331 
G01 X-35.9982 Y23.5331 
G01 X-36.0589 Y23.5582 
G01 X-36.1054 Y23.6047 
G01 X-36.1305 Y23.6654 
G01 X-36.1305 Y24.8006 
G01 X-36.1337 Y24.8169 
G01 X-36.1305 Y24.8331 
G01 X-36.1305 Y24.8496 
G01 X-36.1241 Y24.8650 
G01 X-36.1209 Y24.8813 
G01 X-36.1117 Y24.8950 
G01 X-36.1054 Y24.9103 
G01 X-36.0936 Y24.9221 
G01 X-36.0843 Y24.9359 
G01 X-36.0706 Y24.9451 
G01 X-36.0589 Y24.9567 
G01 X-36.0435 Y24.9631 
G01 X-36.0297 Y24.9723 
G01 X-36.0135 Y24.9755 
G01 X-35.9982 Y24.9819 
G01 X-35.9816 Y24.9819 
G01 X-35.9652 Y24.9851 
G01 X-35.9491 Y24.9819 
G01 X-35.9326 Y24.9819 
G01 X-35.9172 Y24.9755 
G01 X-35.9008 Y24.9722 
G01 X-35.8871 Y24.9630 
G01 X-35.8719 Y24.9567 
G01 X-35.8601 Y24.9449 
G01 X-35.8462 Y24.9357 
G01 X-35.8371 Y24.9219 
G01 X-35.8254 Y24.9103 
G01 X-35.8191 Y24.8949 
G01 X-35.3848 Y24.2435 
G01 X-35.3848 Y24.8496 
G01 X-35.3597 Y24.9103 
G01 X-35.3132 Y24.9567 
G01 X-35.2525 Y24.9819 
G01 X-35.1869 Y24.9819 
G01 X-35.1262 Y24.9567 
G01 X-35.0797 Y24.9103 
G01 X-35.0546 Y24.8496 
G00 Z2.5400 
G00 X-36.2491 Y24.7238 
G01 Z-0.1778 F100.00 
G01 X-36.2247 Y24.6649 F100.00 
G01 X-36.2240 Y24.2246 
G01 X-36.2491 Y24.1639 
G01 X-36.4802 Y23.9329 
G01 X-36.5427 Y23.9060 
G01 X-36.9697 Y23.9060 
G01 X-36.9697 Y23.6654 
G01 X-36.9948 Y23.6047 
G01 X-37.0413 Y23.5582 
G01 X-37.1020 Y23.5331 
G01 X-37.1676 Y23.5331 
G01 X-37.2283 Y23.5582 
G01 X-37.2748 Y23.6047 
G01 X-37.2999 Y23.6654 
G01 X-37.2999 Y24.8496 
G01 X-37.2748 Y24.9103 
G01 X-37.2283 Y24.9567 
G01 X-37.1676 Y24.9819 
G01 X-36.5427 Y24.9819 
G01 X-36.4837 Y24.9574 
G01 X-36.2491 Y24.7238 
G00 Z2.5400 
G00 X-36.5542 Y24.5619 
G01 Z-0.1778 F100.00 
G01 X-36.6439 Y24.6517 F100.00 
G01 X-36.9697 Y24.6517 
G01 X-36.9697 Y24.2361 
G01 X-36.6439 Y24.2361 
G01 X-36.5542 Y24.3259 
G01 X-36.5542 Y24.5619 
G00 Z2.5400 
G00 X-36.5940 Y26.7081 
G01 Z-0.1778 F100.00 
G01 X-36.6596 Y26.7081 F100.00 
G01 X-36.7203 Y26.7332 
G01 X-36.7668 Y26.7797 
G01 X-36.7919 Y26.8404 
G01 X-36.7919 Y26.9060 
G01 X-36.7919 Y28.0246 
G01 X-36.7668 Y28.0853 
G01 X-36.7203 Y28.1317 
G01 X-36.6596 Y28.1568 
G01 X-36.5940 Y28.1568 
G01 X-36.5333 Y28.1317 
G01 X-36.4868 Y28.0853 
G01 X-36.4617 Y28.0246 
G01 X-36.4617 Y27.2718 
G01 X-36.3939 Y27.3396 
G01 X-36.3475 Y27.3860 
G01 X-36.2868 Y27.4111 
G01 X-36.2211 Y27.4111 
G01 X-36.1604 Y27.3860 
G01 X-36.0462 Y27.2718 
G01 X-36.0462 Y28.0246 
G01 X-36.0211 Y28.0853 
G01 X-35.9746 Y28.1317 
G01 X-35.9139 Y28.1568 
G01 X-35.8483 Y28.1568 
G01 X-35.7876 Y28.1317 
G01 X-35.7411 Y28.0853 
G01 X-35.7160 Y28.0246 
G01 X-35.7160 Y26.8404 
G01 X-35.7411 Y26.7797 
G01 X-35.7876 Y26.7332 
G01 X-35.8465 Y26.7088 
G01 X-35.9139 Y26.7081 
G01 X-35.9746 Y26.7332 
G01 X-35.9778 Y26.7365 
G01 X-36.2540 Y27.0126 
G01 X-36.5333 Y26.7332 
G01 X-36.5940 Y26.7081 
G00 Z2.5400 
G00 X-35.3645 Y26.7332 
G01 Z-0.1778 F100.00 
G01 X-35.5974 Y26.9661 F100.00 
G01 X-35.6225 Y27.0268 
G01 X-35.6225 Y27.0925 
G01 X-35.5974 Y27.1531 
G01 X-35.5509 Y27.1996 
G01 X-35.4902 Y27.2247 
G01 X-35.4246 Y27.2247 
G01 X-35.3639 Y27.1996 
G01 X-35.2026 Y27.0383 
G01 X-34.9665 Y27.0383 
G01 X-34.8768 Y27.1280 
G01 X-34.8768 Y27.1777 
G01 X-34.9665 Y27.2674 
G01 X-35.3038 Y27.2674 
G01 X-35.3645 Y27.2925 
G01 X-35.5974 Y27.5254 
G01 X-35.6225 Y27.5861 
G01 X-35.6225 Y27.8382 
G01 X-35.5974 Y27.8988 
G01 X-35.5509 Y27.9453 
G01 X-35.3645 Y28.1317 
G01 X-35.3038 Y28.1568 
G01 X-34.8653 Y28.1568 
G01 X-34.8046 Y28.1317 
G01 X-34.5717 Y27.8988 
G01 X-34.5466 Y27.8382 
G01 X-34.5466 Y27.7725 
G01 X-34.5717 Y27.7118 
G01 X-34.6182 Y27.6654 
G01 X-34.6789 Y27.6402 
G01 X-34.7445 Y27.6402 
G01 X-34.8052 Y27.6654 
G01 X-34.9665 Y27.8267 
G01 X-35.2026 Y27.8267 
G01 X-35.2923 Y27.7369 
G01 X-35.2923 Y27.6873 
G01 X-35.2026 Y27.5976 
G01 X-34.8653 Y27.5976 
G01 X-34.8063 Y27.5732 
G01 X-34.5717 Y27.3396 
G01 X-34.5473 Y27.2806 
G01 X-34.5466 Y27.0268 
G01 X-34.5717 Y26.9661 
G01 X-34.8028 Y26.7350 
G01 X-34.8653 Y26.7081 
G01 X-35.3038 Y26.7081 
G01 X-35.3645 Y26.7332 
G00 Z2.5400 
G00 X-34.3815 Y26.7332 
G01 Z-0.1778 F100.00 
G01 X-34.4280 Y26.7797 F100.00 
G01 X-34.4531 Y26.8404 
G01 X-34.4531 Y28.0246 
G01 X-34.4280 Y28.0853 
G01 X-34.3815 Y28.1317 
G01 X-34.3208 Y28.1568 
G01 X-34.2552 Y28.1568 
G01 X-34.1945 Y28.1317 
G01 X-34.1480 Y28.0853 
G01 X-34.1229 Y28.0246 
G01 X-34.1229 Y27.5976 
G01 X-33.7074 Y27.5976 
G01 X-33.7074 Y28.0246 
G01 X-33.6823 Y28.0853 
G01 X-33.6358 Y28.1317 
G01 X-33.5751 Y28.1568 
G01 X-33.5095 Y28.1568 
G01 X-33.4488 Y28.1317 
G01 X-33.4023 Y28.0853 
G01 X-33.3772 Y28.0246 
G01 X-33.3772 Y26.8404 
G01 X-33.4023 Y26.7797 
G01 X-33.4488 Y26.7332 
G01 X-33.5095 Y26.7081 
G01 X-33.5751 Y26.7081 
G01 X-33.6358 Y26.7332 
G01 X-33.6823 Y26.7797 
G01 X-33.7074 Y26.8404 
G01 X-33.7074 Y27.2674 
G01 X-34.1229 Y27.2674 
G01 X-34.1229 Y26.8404 
G01 X-34.1480 Y26.7797 
G01 X-34.1945 Y26.7332 
G01 X-34.2552 Y26.7081 
G01 X-34.3208 Y26.7081 
G01 X-34.3815 Y26.7332 
G00 Z2.5400 
G00 X-33.2121 Y26.7332 
G01 Z-0.1778 F100.00 
G01 X-33.2586 Y26.7797 F100.00 
G01 X-33.2837 Y26.8404 
G01 X-33.2837 Y26.9060 
G01 X-33.2586 Y26.9667 
G01 X-33.2121 Y27.0132 
G01 X-33.1514 Y27.0383 
G01 X-33.0973 Y27.0383 
G01 X-33.0973 Y27.8267 
G01 X-33.1514 Y27.8267 
G01 X-33.2121 Y27.8518 
G01 X-33.2586 Y27.8982 
G01 X-33.2837 Y27.9589 
G01 X-33.2837 Y28.0246 
G01 X-33.2586 Y28.0853 
G01 X-33.2121 Y28.1317 
G01 X-33.1514 Y28.1568 
G01 X-32.7129 Y28.1568 
G01 X-32.6522 Y28.1317 
G01 X-32.6058 Y28.0853 
G01 X-32.5807 Y28.0246 
G01 X-32.5807 Y27.9589 
G01 X-32.6058 Y27.8982 
G01 X-32.6522 Y27.8518 
G01 X-32.7129 Y27.8267 
G01 X-32.7671 Y27.8267 
G01 X-32.7671 Y27.0383 
G01 X-32.7129 Y27.0383 
G01 X-32.6522 Y27.0132 
G01 X-32.6058 Y26.9667 
G01 X-32.5807 Y26.9060 
G01 X-32.5807 Y26.8404 
G01 X-32.6058 Y26.7797 
G01 X-32.6522 Y26.7332 
G01 X-32.7129 Y26.7081 
G01 X-33.1514 Y26.7081 
G01 X-33.2121 Y26.7332 
G00 Z2.5400 
G00 X-32.4325 Y26.7332 
G01 Z-0.1778 F100.00 
G01 X-32.4790 Y26.7797 F100.00 
G01 X-32.5041 Y26.8404 
G01 X-32.5041 Y28.0246 
G01 X-32.4790 Y28.0853 
G01 X-32.4325 Y28.1317 
G01 X-32.3719 Y28.1568 
G01 X-32.3062 Y28.1568 
G01 X-31.5605 Y28.1568 
G01 X-31.4998 Y28.1317 
G01 X-31.4533 Y28.0853 
G01 X-31.4282 Y28.0246 
G01 X-31.4282 Y27.9589 
G01 X-31.4533 Y27.8982 
G01 X-31.4998 Y27.8518 
G01 X-31.5605 Y27.8267 
G01 X-32.1739 Y27.8267 
G01 X-32.1739 Y27.5976 
G01 X-31.9333 Y27.5976 
G01 X-31.8726 Y27.5724 
G01 X-31.8262 Y27.5260 
G01 X-31.8011 Y27.4653 
G01 X-31.8011 Y27.3996 
G01 X-31.8262 Y27.3390 
G01 X-31.8726 Y27.2925 
G01 X-31.9333 Y27.2674 
G01 X-32.1739 Y27.2674 
G01 X-32.1739 Y27.0383 
G01 X-31.5605 Y27.0383 
G01 X-31.4998 Y27.0132 
G01 X-31.4533 Y26.9667 
G01 X-31.4282 Y26.9060 
G01 X-31.4282 Y26.8404 
G01 X-31.4533 Y26.7797 
G01 X-31.4998 Y26.7332 
G01 X-31.5605 Y26.7081 
G01 X-32.3719 Y26.7081 
G01 X-32.4325 Y26.7332 
G00 Z2.5400 
G00 X-31.2631 Y26.7332 
G01 Z-0.1778 F100.00 
G01 X-31.3096 Y26.7797 F100.00 
G01 X-31.3347 Y26.8404 
G01 X-31.3347 Y26.9060 
G01 X-31.3347 Y28.0246 
G01 X-31.3096 Y28.0853 
G01 X-31.2631 Y28.1317 
G01 X-31.2025 Y28.1568 
G01 X-31.1368 Y28.1568 
G01 X-31.0761 Y28.1317 
G01 X-31.0297 Y28.0853 
G01 X-31.0045 Y28.0246 
G01 X-31.0045 Y27.0383 
G01 X-30.3911 Y27.0383 
G01 X-30.3304 Y27.0132 
G01 X-30.2839 Y26.9667 
G01 X-30.2588 Y26.9060 
G01 X-30.2588 Y26.8404 
G01 X-30.2839 Y26.7797 
G01 X-30.3304 Y26.7332 
G01 X-30.3911 Y26.7081 
G01 X-31.2025 Y26.7081 
G01 X-31.2631 Y26.7332 
G00 Z2.5400 
G00 X-30.0937 Y26.7332 
G01 Z-0.1778 F100.00 
G01 X-30.1402 Y26.7797 F100.00 
G01 X-30.1653 Y26.8404 
G01 X-30.1653 Y28.0246 
G01 X-30.1402 Y28.0853 
G01 X-30.0937 Y28.1317 
G01 X-30.0331 Y28.1568 
G01 X-29.4081 Y28.1568 
G01 X-29.3474 Y28.1317 
G01 X-29.1146 Y27.8988 
G01 X-29.0894 Y27.8382 
G01 X-29.0894 Y27.0268 
G01 X-29.1146 Y26.9661 
G01 X-29.3474 Y26.7332 
G01 X-29.4081 Y26.7081 
G01 X-30.0331 Y26.7081 
G01 X-30.0937 Y26.7332 
G00 Z2.5400 
G00 X-29.8351 Y27.0383 
G01 Z-0.1778 F100.00 
G01 X-29.5093 Y27.0383 F100.00 
G01 X-29.4196 Y27.1280 
G01 X-29.4196 Y27.7369 
G01 X-29.5093 Y27.8267 
G01 X-29.8351 Y27.8267 
G01 X-29.8351 Y27.0383 
G00 Z2.5400 
G00 X-28.9708 Y26.7803 
G01 Z-0.1778 F100.00 
G01 X-28.9243 Y26.8267 F100.00 
G01 X-28.8637 Y26.8519 
G01 X-28.0523 Y26.8519 
G01 X-27.9916 Y26.8267 
G01 X-27.9452 Y26.7803 
G01 X-27.9200 Y26.7196 
G01 X-27.9200 Y26.6539 
G01 X-27.9452 Y26.5933 
G01 X-27.9916 Y26.5468 
G01 X-28.0523 Y26.5217 
G01 X-28.8637 Y26.5217 
G01 X-28.9243 Y26.5468 
G01 X-28.9708 Y26.5933 
G01 X-28.9959 Y26.6539 
G01 X-28.9959 Y26.7196 
G01 X-28.9708 Y26.7803 
G00 Z2.5400 
G00 X-27.8014 Y26.7797 
G01 Z-0.1778 F100.00 
G01 X-27.8265 Y26.8404 F100.00 
G01 X-27.8265 Y26.9060 
G01 X-27.8265 Y28.0246 
G01 X-27.8014 Y28.0853 
G01 X-27.7549 Y28.1317 
G01 X-27.6943 Y28.1568 
G01 X-27.6286 Y28.1568 
G01 X-27.5679 Y28.1317 
G01 X-27.5215 Y28.0853 
G01 X-27.4963 Y28.0246 
G01 X-27.4963 Y27.2718 
G01 X-27.4285 Y27.3396 
G01 X-27.3821 Y27.3860 
G01 X-27.3214 Y27.4111 
G01 X-27.2557 Y27.4111 
G01 X-27.1951 Y27.3860 
G01 X-27.0808 Y27.2718 
G01 X-27.0808 Y28.0246 
G01 X-27.0557 Y28.0853 
G01 X-27.0092 Y28.1317 
G01 X-26.9486 Y28.1568 
G01 X-26.8829 Y28.1568 
G01 X-26.8222 Y28.1317 
G01 X-26.7758 Y28.0853 
G01 X-26.7506 Y28.0246 
G01 X-26.7506 Y26.8404 
G01 X-26.7758 Y26.7797 
G01 X-26.8222 Y26.7332 
G01 X-26.8829 Y26.7081 
G01 X-26.9486 Y26.7081 
G01 X-27.0092 Y26.7332 
G01 X-27.2886 Y27.0126 
G01 X-27.5679 Y26.7332 
G01 X-27.6286 Y26.7081 
G01 X-27.6943 Y26.7081 
G01 X-27.7549 Y26.7332 
G01 X-27.8014 Y26.7797 
G00 Z2.5400 
G00 X-26.6320 Y26.7797 
G01 Z-0.1778 F100.00 
G01 X-26.6571 Y26.8404 F100.00 
G01 X-26.6571 Y28.0246 
G01 X-26.6320 Y28.0853 
G01 X-26.5855 Y28.1317 
G01 X-26.5249 Y28.1568 
G01 X-26.4592 Y28.1568 
G01 X-25.7135 Y28.1568 
G01 X-25.6528 Y28.1317 
G01 X-25.6064 Y28.0853 
G01 X-25.5812 Y28.0246 
G01 X-25.5812 Y27.9589 
G01 X-25.6064 Y27.8982 
G01 X-25.6528 Y27.8518 
G01 X-25.7135 Y27.8267 
G01 X-26.3269 Y27.8267 
G01 X-26.3269 Y27.5976 
G01 X-26.0863 Y27.5976 
G01 X-26.0257 Y27.5724 
G01 X-25.9792 Y27.5260 
G01 X-25.9541 Y27.4653 
G01 X-25.9541 Y27.3996 
G01 X-25.9792 Y27.3390 
G01 X-26.0257 Y27.2925 
G01 X-26.0863 Y27.2674 
G01 X-26.3269 Y27.2674 
G01 X-26.3269 Y27.0383 
G01 X-25.7135 Y27.0383 
G01 X-25.6528 Y27.0132 
G01 X-25.6064 Y26.9667 
G01 X-25.5812 Y26.9060 
G01 X-25.5812 Y26.8404 
G01 X-25.6064 Y26.7797 
G01 X-25.6528 Y26.7332 
G01 X-25.7135 Y26.7081 
G01 X-26.5249 Y26.7081 
G01 X-26.5855 Y26.7332 
G01 X-26.6320 Y26.7797 
G00 Z2.5400 
G00 X-25.4626 Y26.7797 
G01 Z-0.1778 F100.00 
G01 X-25.4877 Y26.8404 F100.00 
G01 X-25.4877 Y28.0246 
G01 X-25.4626 Y28.0853 
G01 X-25.4161 Y28.1317 
G01 X-25.3555 Y28.1568 
G01 X-25.2898 Y28.1568 
G01 X-25.2291 Y28.1317 
G01 X-24.9498 Y27.8524 
G01 X-24.6737 Y28.1285 
G01 X-24.6704 Y28.1317 
G01 X-24.6098 Y28.1568 
G01 X-24.5441 Y28.1568 
G01 X-24.4834 Y28.1317 
G01 X-24.4377 Y28.0860 
G01 X-24.4118 Y28.0246 
G01 X-24.4118 Y26.8404 
G01 X-24.4370 Y26.7797 
G01 X-24.4834 Y26.7332 
G01 X-24.5441 Y26.7081 
G01 X-24.6098 Y26.7081 
G01 X-24.6704 Y26.7332 
G01 X-24.7169 Y26.7797 
G01 X-24.7420 Y26.8404 
G01 X-24.7420 Y27.5932 
G01 X-24.8563 Y27.4789 
G01 X-24.9169 Y27.4538 
G01 X-24.9826 Y27.4538 
G01 X-25.0433 Y27.4789 
G01 X-25.0897 Y27.5254 
G01 X-25.1575 Y27.5932 
G01 X-25.1575 Y26.8404 
G01 X-25.1827 Y26.7797 
G01 X-25.2291 Y26.7332 
G01 X-25.2898 Y26.7081 
G01 X-25.3555 Y26.7081 
G01 X-25.4161 Y26.7332 
G01 X-25.4626 Y26.7797 
G00 Z2.5400 
G00 X-24.1068 Y26.7797 
G01 Z-0.1778 F100.00 
G01 X-24.2932 Y26.9661 F100.00 
G01 X-24.3183 Y27.0268 
G01 X-24.3183 Y27.8382 
G01 X-24.2932 Y27.8988 
G01 X-24.2468 Y27.9453 
G01 X-24.0603 Y28.1317 
G01 X-23.9996 Y28.1568 
G01 X-23.5611 Y28.1568 
G01 X-23.5125 Y28.1367 
G01 X-23.5004 Y28.1317 
G01 X-23.2676 Y27.8988 
G01 X-23.2424 Y27.8382 
G01 X-23.2424 Y27.0268 
G01 X-23.2676 Y26.9661 
G01 X-23.5004 Y26.7332 
G01 X-23.5611 Y26.7081 
G01 X-23.9996 Y26.7081 
G01 X-24.0603 Y26.7332 
G01 X-24.1068 Y26.7797 
G00 Z2.5400 
G00 X-23.9881 Y27.1280 
G01 Z-0.1778 F100.00 
G01 X-23.8984 Y27.0383 F100.00 
G01 X-23.6623 Y27.0383 
G01 X-23.5726 Y27.1280 
G01 X-23.5726 Y27.7369 
G01 X-23.6623 Y27.8267 
G01 X-23.8984 Y27.8267 
G01 X-23.9881 Y27.7369 
G01 X-23.9881 Y27.1280 
G00 Z2.5400 
G00 X-23.1489 Y27.0925 
G01 Z-0.1778 F100.00 
G01 X-23.1238 Y27.1531 F100.00 
G01 X-23.0774 Y27.1996 
G01 X-23.0167 Y27.2247 
G01 X-22.9510 Y27.2247 
G01 X-22.8903 Y27.1996 
G01 X-22.7290 Y27.0383 
G01 X-22.4929 Y27.0383 
G01 X-22.4032 Y27.1280 
G01 X-22.4032 Y27.1777 
G01 X-22.4929 Y27.2674 
G01 X-22.8303 Y27.2674 
G01 X-22.8909 Y27.2925 
G01 X-23.1238 Y27.5254 
G01 X-23.1489 Y27.5861 
G01 X-23.1489 Y27.8382 
G01 X-23.1238 Y27.8988 
G01 X-23.0774 Y27.9453 
G01 X-22.8909 Y28.1317 
G01 X-22.8303 Y28.1568 
G01 X-22.3917 Y28.1568 
G01 X-22.3310 Y28.1317 
G01 X-22.0982 Y27.8988 
G01 X-22.0730 Y27.8382 
G01 X-22.0730 Y27.7725 
G01 X-22.0982 Y27.7118 
G01 X-22.1446 Y27.6654 
G01 X-22.2053 Y27.6402 
G01 X-22.2710 Y27.6402 
G01 X-22.3317 Y27.6654 
G01 X-22.4929 Y27.8267 
G01 X-22.7290 Y27.8267 
G01 X-22.8187 Y27.7369 
G01 X-22.8187 Y27.6873 
G01 X-22.7290 Y27.5976 
G01 X-22.3917 Y27.5976 
G01 X-22.3328 Y27.5732 
G01 X-22.0982 Y27.3396 
G01 X-22.0738 Y27.2806 
G01 X-22.0730 Y27.0268 
G01 X-22.0982 Y26.9661 
G01 X-22.3292 Y26.7350 
G01 X-22.3917 Y26.7081 
G01 X-22.8303 Y26.7081 
G01 X-22.8909 Y26.7332 
G01 X-23.1238 Y26.9661 
G01 X-23.1489 Y27.0268 
G01 X-23.1489 Y27.0925 
G00 Z2.5400 
G00 X-21.9544 Y26.7803 
G01 Z-0.1778 F100.00 
G01 X-21.9080 Y26.8267 F100.00 
G01 X-21.8473 Y26.8519 
G01 X-21.0359 Y26.8519 
G01 X-20.9752 Y26.8267 
G01 X-20.9288 Y26.7803 
G01 X-20.9036 Y26.7196 
G01 X-20.9036 Y26.6539 
G01 X-20.9288 Y26.5933 
G01 X-20.9752 Y26.5468 
G01 X-21.0359 Y26.5217 
G01 X-21.8473 Y26.5217 
G01 X-21.9080 Y26.5468 
G01 X-21.9544 Y26.5933 
G01 X-21.9795 Y26.6539 
G01 X-21.9795 Y26.7196 
G01 X-21.9544 Y26.7803 
G00 Z2.5400 
G00 X-20.7850 Y26.7797 
G01 Z-0.1778 F100.00 
G01 X-20.8101 Y26.8404 F100.00 
G01 X-20.8101 Y28.0246 
G01 X-20.7850 Y28.0853 
G01 X-20.7386 Y28.1317 
G01 X-20.6779 Y28.1568 
G01 X-20.0529 Y28.1568 
G01 X-19.9940 Y28.1324 
G01 X-19.7594 Y27.8988 
G01 X-19.7350 Y27.8399 
G01 X-19.7342 Y27.3996 
G01 X-19.7594 Y27.3390 
G01 X-19.9455 Y27.1528 
G01 X-19.7594 Y26.9667 
G01 X-19.7342 Y26.9060 
G01 X-19.7342 Y26.8404 
G01 X-19.7594 Y26.7797 
G01 X-19.8058 Y26.7332 
G01 X-19.8665 Y26.7081 
G01 X-19.9322 Y26.7081 
G01 X-19.9929 Y26.7332 
G01 X-20.3406 Y27.0810 
G01 X-20.4799 Y27.0810 
G01 X-20.4799 Y26.8404 
G01 X-20.5051 Y26.7797 
G01 X-20.5515 Y26.7332 
G01 X-20.6122 Y26.7081 
G01 X-20.6779 Y26.7081 
G01 X-20.7386 Y26.7332 
G01 X-20.7850 Y26.7797 
G00 Z2.5400 
G00 X-20.4799 Y27.4111 
G01 Z-0.1778 F100.00 
G01 X-20.1542 Y27.4111 F100.00 
G01 X-20.0644 Y27.5009 
G01 X-20.0644 Y27.7369 
G01 X-20.1542 Y27.8267 
G01 X-20.4799 Y27.8267 
G01 X-20.4799 Y27.4111 
G00 Z2.5400 
G00 X-19.3105 Y27.2674 
G01 Z-0.1778 F100.00 
G01 X-19.3105 Y26.8404 F100.00 
G01 X-19.3357 Y26.7797 
G01 X-19.3821 Y26.7332 
G01 X-19.4428 Y26.7081 
G01 X-19.5085 Y26.7081 
G01 X-19.5692 Y26.7332 
G01 X-19.6156 Y26.7797 
G01 X-19.6407 Y26.8404 
G01 X-19.6407 Y28.0246 
G01 X-19.6156 Y28.0853 
G01 X-19.5692 Y28.1317 
G01 X-19.5085 Y28.1568 
G01 X-18.6971 Y28.1568 
G01 X-18.6364 Y28.1317 
G01 X-18.5900 Y28.0853 
G01 X-18.5648 Y28.0246 
G01 X-18.5648 Y27.9589 
G01 X-18.5900 Y27.8982 
G01 X-18.6364 Y27.8518 
G01 X-18.6971 Y27.8267 
G01 X-19.3105 Y27.8267 
G01 X-19.3105 Y27.5976 
G01 X-19.0700 Y27.5976 
G01 X-19.0093 Y27.5724 
G01 X-18.9628 Y27.5260 
G01 X-18.9377 Y27.4653 
G01 X-18.9377 Y27.3996 
G01 X-18.9628 Y27.3390 
G01 X-19.0093 Y27.2925 
G01 X-19.0700 Y27.2674 
G01 X-19.3105 Y27.2674 
G00 Z2.5400 
G00 X-18.4713 Y26.8404 
G01 Z-0.1778 F100.00 
G01 X-18.4713 Y28.0246 F100.00 
G01 X-18.4462 Y28.0853 
G01 X-18.3998 Y28.1317 
G01 X-18.3391 Y28.1568 
G01 X-18.2734 Y28.1568 
G01 X-18.2127 Y28.1317 
G01 X-17.9334 Y27.8524 
G01 X-17.6573 Y28.1285 
G01 X-17.6541 Y28.1317 
G01 X-17.5934 Y28.1568 
G01 X-17.5277 Y28.1568 
G01 X-17.4670 Y28.1317 
G01 X-17.4213 Y28.0860 
G01 X-17.3954 Y28.0246 
G01 X-17.3954 Y26.8404 
G01 X-17.4206 Y26.7797 
G01 X-17.4670 Y26.7332 
G01 X-17.5277 Y26.7081 
G01 X-17.5934 Y26.7081 
G01 X-17.6541 Y26.7332 
G01 X-17.7005 Y26.7797 
G01 X-17.7256 Y26.8404 
G01 X-17.7256 Y27.5932 
G01 X-17.8399 Y27.4789 
G01 X-17.9006 Y27.4538 
G01 X-17.9662 Y27.4538 
G01 X-18.0269 Y27.4789 
G01 X-18.0734 Y27.5254 
G01 X-18.1411 Y27.5932 
G01 X-18.1411 Y26.8404 
G01 X-18.1663 Y26.7797 
G01 X-18.2127 Y26.7332 
G01 X-18.2734 Y26.7081 
G01 X-18.3391 Y26.7081 
G01 X-18.3998 Y26.7332 
G01 X-18.4462 Y26.7797 
G01 X-18.4713 Y26.8404 
G00 Z2.5400 
G00 X-17.3020 Y26.8404 
G01 Z-0.1778 F100.00 
G01 X-17.3020 Y27.6517 F100.00 
G01 X-17.2768 Y27.7124 
G01 X-16.9040 Y28.0853 
G01 X-16.8575 Y28.1317 
G01 X-16.7968 Y28.1568 
G01 X-16.7312 Y28.1568 
G01 X-16.6705 Y28.1317 
G01 X-16.2512 Y27.7124 
G01 X-16.2268 Y27.6535 
G01 X-16.2261 Y26.8404 
G01 X-16.2512 Y26.7797 
G01 X-16.2976 Y26.7332 
G01 X-16.3583 Y26.7081 
G01 X-16.4240 Y26.7081 
G01 X-16.4847 Y26.7332 
G01 X-16.5311 Y26.7797 
G01 X-16.5562 Y26.8404 
G01 X-16.5562 Y27.2674 
G01 X-16.9718 Y27.2674 
G01 X-16.9718 Y26.8404 
G01 X-16.9969 Y26.7797 
G01 X-17.0433 Y26.7332 
G01 X-17.1040 Y26.7081 
G01 X-17.1697 Y26.7081 
G01 X-17.2304 Y26.7332 
G01 X-17.2768 Y26.7797 
G01 X-17.3020 Y26.8404 
G00 Z2.5400 
G00 X-16.9247 Y27.5976 
G01 Z-0.1778 F100.00 
G01 X-16.6033 Y27.5976 F100.00 
G01 X-16.7640 Y27.7583 
G01 X-16.9247 Y27.5976 
G00 Z2.5400 
G00 X-16.1326 Y27.5861 
G01 Z-0.1778 F100.00 
G01 X-16.1326 Y27.8382 F100.00 
G01 X-16.1074 Y27.8988 
G01 X-16.0610 Y27.9453 
G01 X-15.8745 Y28.1317 
G01 X-15.8139 Y28.1568 
G01 X-15.3753 Y28.1568 
G01 X-15.3147 Y28.1317 
G01 X-15.0818 Y27.8988 
G01 X-15.0567 Y27.8382 
G01 X-15.0567 Y27.7725 
G01 X-15.0818 Y27.7118 
G01 X-15.1282 Y27.6654 
G01 X-15.1889 Y27.6402 
G01 X-15.2546 Y27.6402 
G01 X-15.3153 Y27.6654 
G01 X-15.4766 Y27.8267 
G01 X-15.7126 Y27.8267 
G01 X-15.8024 Y27.7369 
G01 X-15.8024 Y27.6873 
G01 X-15.7126 Y27.5976 
G01 X-15.3753 Y27.5976 
G01 X-15.3164 Y27.5732 
G01 X-15.0818 Y27.3396 
G01 X-15.0574 Y27.2806 
G01 X-15.0567 Y27.0268 
G01 X-15.0818 Y26.9661 
G01 X-15.3129 Y26.7350 
G01 X-15.3753 Y26.7081 
G01 X-15.8139 Y26.7081 
G01 X-15.8745 Y26.7332 
G01 X-16.1074 Y26.9661 
G01 X-16.1326 Y27.0268 
G01 X-16.1326 Y27.0925 
G01 X-16.1074 Y27.1531 
G01 X-16.0610 Y27.1996 
G01 X-16.0003 Y27.2247 
G01 X-15.9346 Y27.2247 
G01 X-15.8739 Y27.1996 
G01 X-15.7126 Y27.0383 
G01 X-15.4766 Y27.0383 
G01 X-15.3869 Y27.1280 
G01 X-15.3869 Y27.1777 
G01 X-15.4766 Y27.2674 
G01 X-15.8139 Y27.2674 
G01 X-15.8746 Y27.2925 
G01 X-16.1074 Y27.5254 
G01 X-16.1326 Y27.5861 
G00 Z2.5400 
G00 X-14.8916 Y27.8518 
G01 Z-0.1778 F100.00 
G01 X-14.9380 Y27.8982 F100.00 
G01 X-14.9632 Y27.9589 
G01 X-14.9632 Y28.0246 
G01 X-14.9380 Y28.0853 
G01 X-14.8916 Y28.1317 
G01 X-14.8309 Y28.1568 
G01 X-14.0195 Y28.1568 
G01 X-13.9588 Y28.1317 
G01 X-13.9124 Y28.0853 
G01 X-13.8873 Y28.0246 
G01 X-13.8873 Y27.9589 
G01 X-13.9124 Y27.8982 
G01 X-13.9588 Y27.8518 
G01 X-14.0195 Y27.8267 
G01 X-14.2601 Y27.8267 
G01 X-14.2601 Y26.8404 
G01 X-14.2852 Y26.7797 
G01 X-14.3317 Y26.7332 
G01 X-14.3924 Y26.7081 
G01 X-14.4581 Y26.7081 
G01 X-14.5187 Y26.7332 
G01 X-14.5652 Y26.7797 
G01 X-14.5903 Y26.8404 
G01 X-14.5903 Y27.8267 
G01 X-14.8309 Y27.8267 
G01 X-14.8916 Y27.8518 
G00 Z2.5400 
G00 X-13.7938 Y28.0246 
G01 Z-0.1778 F100.00 
G01 X-13.7686 Y28.0853 F100.00 
G01 X-13.7222 Y28.1317 
G01 X-13.6615 Y28.1568 
G01 X-13.5958 Y28.1568 
G01 X-12.8501 Y28.1568 
G01 X-12.7894 Y28.1317 
G01 X-12.7430 Y28.0853 
G01 X-12.7179 Y28.0246 
G01 X-12.7179 Y27.9589 
G01 X-12.7430 Y27.8982 
G01 X-12.7894 Y27.8518 
G01 X-12.8501 Y27.8267 
G01 X-13.4636 Y27.8267 
G01 X-13.4636 Y27.5976 
G01 X-13.2230 Y27.5976 
G01 X-13.1623 Y27.5724 
G01 X-13.1158 Y27.5260 
G01 X-13.0907 Y27.4653 
G01 X-13.0907 Y27.3996 
G01 X-13.1158 Y27.3390 
G01 X-13.1623 Y27.2925 
G01 X-13.2230 Y27.2674 
G01 X-13.4636 Y27.2674 
G01 X-13.4636 Y27.0383 
G01 X-12.8501 Y27.0383 
G01 X-12.7894 Y27.0132 
G01 X-12.7430 Y26.9667 
G01 X-12.7179 Y26.9060 
G01 X-12.7179 Y26.8404 
G01 X-12.7430 Y26.7797 
G01 X-12.7894 Y26.7332 
G01 X-12.8501 Y26.7081 
G01 X-13.6615 Y26.7081 
G01 X-13.7222 Y26.7332 
G01 X-13.7686 Y26.7797 
G01 X-13.7938 Y26.8404 
G01 X-13.7938 Y28.0246 
G00 Z2.5400 
G00 X-12.6244 Y28.0246 
G01 Z-0.1778 F100.00 
G01 X-12.5992 Y28.0853 F100.00 
G01 X-12.5528 Y28.1317 
G01 X-12.4921 Y28.1568 
G01 X-11.8671 Y28.1568 
G01 X-11.8082 Y28.1324 
G01 X-11.5736 Y27.8988 
G01 X-11.5492 Y27.8399 
G01 X-11.5485 Y27.3996 
G01 X-11.5736 Y27.3390 
G01 X-11.7597 Y27.1528 
G01 X-11.5736 Y26.9667 
G01 X-11.5485 Y26.9060 
G01 X-11.5485 Y26.8404 
G01 X-11.5736 Y26.7797 
G01 X-11.6200 Y26.7332 
G01 X-11.6807 Y26.7081 
G01 X-11.7464 Y26.7081 
G01 X-11.8071 Y26.7332 
G01 X-12.1548 Y27.0810 
G01 X-12.2942 Y27.0810 
G01 X-12.2942 Y26.8404 
G01 X-12.3193 Y26.7797 
G01 X-12.3657 Y26.7332 
G01 X-12.4264 Y26.7081 
G01 X-12.4921 Y26.7081 
G01 X-12.5528 Y26.7332 
G01 X-12.5992 Y26.7797 
G01 X-12.6244 Y26.8404 
G01 X-12.6244 Y28.0246 
G00 Z2.5400 
G00 X-12.2942 Y27.8267 
G01 Z-0.1778 F100.00 
G01 X-12.2942 Y27.4111 F100.00 
G01 X-11.9684 Y27.4111 
G01 X-11.8787 Y27.5009 
G01 X-11.8787 Y27.7369 
G01 X-11.9684 Y27.8267 
G01 X-12.2942 Y27.8267 
G00 Z2.5400 
G00 X-3.1847 Y26.9151 
G01 Z-0.1778 F100.00 
G01 X-3.1847 Y26.8389 F100.00 
G01 X-2.8623 Y26.8389 
G01 X-2.8296 Y26.8254 
G01 X-2.8046 Y26.8004 
G01 X-2.7911 Y26.7677 
G01 X-2.7911 Y25.8953 
G01 X-2.7149 Y25.8953 
G01 X-2.7149 Y26.7663 
G01 X-2.7212 Y26.7981 
G01 X-2.7337 Y26.8282 
G01 X-2.7517 Y26.8552 
G01 X-2.7748 Y26.8782 
G01 X-2.8018 Y26.8963 
G01 X-2.8318 Y26.9088 
G01 X-2.8637 Y26.9151 
G01 X-3.1847 Y26.9151 
G00 Z2.5400 
G00 X-2.7911 Y24.9047 
G01 Z-0.1778 F100.00 
G01 X-2.7911 Y24.0323 F100.00 
G01 X-2.8046 Y23.9996 
G01 X-2.8296 Y23.9746 
G01 X-2.8623 Y23.9611 
G01 X-3.1847 Y23.9611 
G01 X-3.1847 Y23.8849 
G01 X-2.8637 Y23.8849 
G01 X-2.8318 Y23.8912 
G01 X-2.8018 Y23.9037 
G01 X-2.7748 Y23.9217 
G01 X-2.7517 Y23.9448 
G01 X-2.7337 Y23.9718 
G01 X-2.7212 Y24.0018 
G01 X-2.7149 Y24.0337 
G01 X-2.7149 Y24.9047 
G01 X-2.7911 Y24.9047 
G00 Z2.5400 
G00 X-2.8018 Y20.5463 
G01 Z-0.1778 F100.00 
G01 X-2.8318 Y20.5588 F100.00 
G01 X-2.8637 Y20.5651 
G01 X-3.1847 Y20.5651 
G01 X-3.1847 Y20.4889 
G01 X-2.8623 Y20.4889 
G01 X-2.8296 Y20.4754 
G01 X-2.8046 Y20.4504 
G01 X-2.7911 Y20.4177 
G01 X-2.7911 Y19.5453 
G01 X-2.7149 Y19.5453 
G01 X-2.7149 Y20.4163 
G01 X-2.7212 Y20.4481 
G01 X-2.7337 Y20.4782 
G01 X-2.7517 Y20.5052 
G01 X-2.7748 Y20.5282 
G01 X-2.8018 Y20.5463 
G00 Z2.5400 
G00 X-2.7911 Y18.5547 
G01 Z-0.1778 F100.00 
G01 X-2.7911 Y17.6823 F100.00 
