(.../pcb-gcode-3.6.2.4/pcb-gcode.ulp)
(Copyright 2005 - 2012 by John Johnson)
(See readme.txt for licensing terms.)
(This file generated from the board:)
(.../workspace_pcbgcode/BATSENSE/attiny_batsense.brd)
(Current profile is .../pcb-gcode-3.6.2.4/profiles/generic.pp  )
(This file generated 03.03.2018 20:52)
(Settings from pcb-machine.h)
(spindle on time = 3.0000)
(spindle speed = 20000.0000)
(tool change at 0.0000 0.0000 1.0000 )
(feed rate xy = F0.00  )
(feed rate z  = F3.94  )
(Z Axis Settings)
(  High     Up        Down     Drill)
(0.5000 	0.1000 	-0.0070 	-0.1181 )
(Settings from pcb-defaults.h)
(isolate min = 0.0000)
(isolate max = 0.0150)
(isolate step = 0.0040)
(Generated bottom outlines, bottom drill, )
(Unit of measure: inch)
( Tool|       Size       |  Min Sub |  Max Sub |   Count )
( T01  0.350mm 0.0138in 0.0000in 0.0000in )
(Inch Mode)
G20
(Absolute Coordinates)
G90
S20000
G00 Z0.5000 
G00 X0.0000 Y0.0000 
M03
G04 P3.000000
G00 X-0.1000 Y1.0500 
G01 Z-0.1181 F3.94  
G00 Z0.1000 
G00 X-0.3000 Y1.1500 
G01 Z-0.1181 F3.94  
G00 Z0.1000 
G00 X-0.8500 Y1.1000 
G01 Z-0.1181 F3.94  
G00 Z0.1000 
G00 X-0.8500 Y0.7000 
G01 Z-0.1181 F3.94  
G00 Z0.1000 
G00 X-1.1500 Y0.6000 
G01 Z-0.1181 F3.94  
G00 Z0.1000 
G00 X-1.5000 Y0.7500 
G01 Z-0.1181 F3.94  
G00 Z0.1000 
M05
M02
